;FLAVOR:Marlin
;TIME:6159
;Filament used: 4.13778m
;Layer height: 0.2
;MINX:28.575
;MINY:31.795
;MINZ:0.2
;MAXX:191.425
;MAXY:187.904
;MAXZ:6.8
;Generated with Cura_SteamEngine 4.6.1
M140 S45
M105
M190 S45
M104 S200
M105
M109 S200
M82 ;absolute extrusion mode
M201 X500.00 Y500.00 Z100.00 E5000.00 ;Setup machine max acceleration
M203 X500.00 Y500.00 Z10.00 E50.00 ;Setup machine max feedrate
M204 P500.00 R1000.00 T500.00 ;Setup Print/Retract/Travel acceleration
M205 X8.00 Y8.00 Z0.40 E5.00 ;Setup Jerk
M220 S100 ;Reset Feedrate
M221 S100 ;Reset Flowrate
M155 S5 ;Temp reporting

G28 ;Home

G92 E0 ;Reset Extruder
G1 Z2.0 F3000 ;Move Z Axis up
G1 X10.1 Y20 Z0.28 F5000.0 ;Move to start position
G1 X10.1 Y200.0 Z0.28 F1500.0 E15 ;Draw the first line
G1 X10.4 Y200.0 Z0.28 F5000.0 ;Move to side a little
G1 X10.4 Y20 Z0.28 F1500.0 E30 ;Draw the second line
G92 E0 ;Reset Extruder
G1 Z2.0 F3000 ;Move Z Axis up
G92 E0
G92 E0
G1 F2700 E-5
;LAYER_COUNT:34
;LAYER:0
M107
G0 F1800 X54.861 Y42.989 Z0.2
;TYPE:SKIRT
G1 F2700 E0
G1 F1200 X55.219 Y42.578 E0.02175
G1 X55.953 Y41.895 E0.06177
G1 X56.283 Y41.634 E0.07856
G1 X56.927 Y41.205 E0.10945
G1 X57.177 Y41.058 E0.12102
G1 X57.99 Y40.639 E0.15753
G1 X58.197 Y40.543 E0.16663
G1 X59.885 Y39.853 E0.23942
G1 X60.026 Y39.801 E0.24542
G1 X61.305 Y39.364 E0.29936
G1 X64.182 Y38.497 E0.41929
G1 X67.447 Y37.623 E0.55419
G1 X67.707 Y37.56 E0.56487
G1 X67.298 Y34.835 E0.67485
G1 X67.27 Y34.38 E0.69304
G1 X67.322 Y33.928 E0.7112
G1 X67.452 Y33.491 E0.7294
G1 X67.656 Y33.084 E0.74757
G1 X67.928 Y32.719 E0.76574
G1 X68.26 Y32.406 E0.78395
G1 X68.642 Y32.157 E0.80215
G1 X69.061 Y31.978 E0.82033
G1 X69.444 Y31.884 E0.83607
G1 X69.77 Y31.83 E0.84926
G1 X70.224 Y31.795 E0.86743
G1 X70.678 Y31.84 E0.88564
G1 X71.116 Y31.964 E0.90381
G1 X71.527 Y32.162 E0.92202
G1 X71.896 Y32.429 E0.9402
G1 X72.213 Y32.756 E0.95838
G1 X72.468 Y33.133 E0.97654
G1 X72.654 Y33.55 E0.99477
G1 X72.766 Y34.007 E1.01355
G1 X73.111 Y36.299 E1.10605
G1 X77.228 Y35.415 E1.27412
G1 X82.406 Y34.469 E1.4842
G1 X86.139 Y33.887 E1.635
G1 X89.185 Y33.48 E1.75765
G1 X95.049 Y32.869 E1.99296
G1 X101.059 Y32.478 E2.23334
G1 X107.019 Y32.324 E2.4713
G1 X110.108 Y32.331 E2.59458
G1 X112.817 Y32.324 E2.70271
G1 X118.136 Y32.443 E2.91505
G1 X123.49 Y32.752 E3.1291
G1 X128.685 Y33.231 E3.33732
G1 X131.394 Y33.555 E3.44621
G1 X136.409 Y34.273 E3.64841
G1 X139.958 Y34.881 E3.79213
G1 X145.646 Y36.004 E4.02353
G1 X146.913 Y36.289 E4.07536
G1 X147.257 Y34.008 E4.16743
G1 X147.364 Y33.565 E4.18562
G1 X147.547 Y33.147 E4.20383
G1 X147.8 Y32.768 E4.22202
G1 X148.115 Y32.439 E4.2402
G1 X148.482 Y32.17 E4.25836
G1 X148.892 Y31.97 E4.27657
G1 X149.329 Y31.843 E4.29473
G1 X149.782 Y31.795 E4.31291
G1 X150.253 Y31.83 E4.33176
G1 X150.579 Y31.884 E4.34495
G1 X151.02 Y31.998 E4.36313
G1 X151.435 Y32.186 E4.38131
G1 X151.81 Y32.445 E4.3995
G1 X152.135 Y32.765 E4.41771
G1 X152.398 Y33.136 E4.43586
G1 X152.593 Y33.548 E4.45405
G1 X152.713 Y33.988 E4.47225
G1 X152.754 Y34.441 E4.49041
G1 X152.725 Y34.835 E4.50618
G1 X152.316 Y37.559 E4.61612
G1 X152.862 Y37.694 E4.63856
G1 X155.339 Y38.36 E4.74094
G1 X159.508 Y39.633 E4.91492
G1 X159.664 Y39.686 E4.92149
G1 X159.882 Y39.768 E4.93079
G1 X161.167 Y40.259 E4.98569
G1 X161.404 Y40.364 E4.99604
G1 X162.99 Y41.16 E5.06686
G1 X163.39 Y41.408 E5.08565
G1 X164.233 Y42.044 E5.1278
G1 X164.593 Y42.373 E5.14726
G1 X165.099 Y42.931 E5.17732
G1 X165.393 Y43.324 E5.19691
G1 X165.806 Y44.001 E5.22856
G1 X165.999 Y44.386 E5.24575
G1 X166.278 Y45.081 E5.27564
G1 X166.378 Y45.384 E5.28838
G1 X166.596 Y46.207 E5.32236
G1 X166.649 Y46.457 E5.33256
G1 X166.889 Y47.961 E5.39335
G1 X167.126 Y50.297 E5.48706
G1 X167.442 Y52.948 E5.59362
G1 X167.609 Y53.848 E5.63015
G1 X167.997 Y55.221 E5.6871
G1 X168.24 Y55.771 E5.71109
G1 X168.398 Y56.059 E5.72421
G1 X168.596 Y56.343 E5.73802
G1 X168.955 Y56.736 E5.75927
G1 X169.229 Y56.971 E5.77368
G1 X169.603 Y57.227 E5.79176
G1 X170.853 Y57.864 E5.84776
G1 X170.939 Y57.897 E5.85144
G1 X172.736 Y58.541 E5.92762
G1 X175.094 Y59.249 E6.02589
G1 X177.39 Y59.97 E6.12194
G1 X178.616 Y60.434 E6.17426
G1 X178.792 Y60.508 E6.18188
G1 X179.711 Y60.935 E6.22232
G1 X179.964 Y61.071 E6.23379
G1 X180.967 Y61.68 E6.28062
G1 X181.28 Y61.902 E6.29594
G1 X181.96 Y62.467 E6.33122
G1 X182.255 Y62.755 E6.34768
G1 X182.82 Y63.401 E6.38193
G1 X183.028 Y63.673 E6.3956
G1 X183.32 Y64.112 E6.41664
G1 X183.479 Y64.387 E6.42932
G1 X183.846 Y65.119 E6.462
G1 X183.991 Y65.468 E6.47709
G1 X184.291 Y66.376 E6.51525
G1 X184.36 Y66.626 E6.5256
G1 X184.514 Y67.316 E6.55382
G1 X184.554 Y67.545 E6.5631
G1 X184.78 Y69.272 E6.63261
G1 X184.797 Y69.454 E6.63991
G1 X184.809 Y69.655 E6.64795
G1 X184.951 Y72.314 E6.75422
G1 X185.115 Y77.986 E6.9807
G1 X185.342 Y86.119 E7.30543
G1 X185.415 Y89.517 E7.44109
G1 X185.443 Y93.298 E7.592
G1 X185.389 Y97.447 E7.75761
G1 X185.345 Y98.673 E7.80657
G1 X188.825 Y98.674 E7.94547
G1 X189.279 Y98.714 E7.96366
G1 X189.719 Y98.833 E7.98185
G1 X190.132 Y99.026 E8.00004
G1 X190.504 Y99.289 E8.01823
G1 X190.825 Y99.612 E8.0364
G1 X191.084 Y99.987 E8.05459
G1 X191.274 Y100.401 E8.07277
G1 X191.389 Y100.842 E8.09096
G1 X191.425 Y101.274 E8.10826
G1 X191.425 Y101.62 E8.12207
G1 X191.385 Y102.074 E8.14026
G1 X191.267 Y102.514 E8.15845
G1 X191.073 Y102.926 E8.17662
G1 X190.81 Y103.299 E8.19484
G1 X190.487 Y103.62 E8.21301
G1 X190.112 Y103.879 E8.2312
G1 X189.698 Y104.069 E8.24938
G1 X189.257 Y104.184 E8.26757
G1 X188.825 Y104.22 E8.28487
G1 X185.082 Y104.221 E8.43427
G1 X185.068 Y104.408 E8.44175
G1 X184.754 Y108.106 E8.58988
G1 X184.709 Y108.541 E8.60733
G1 X184.492 Y110.51 E8.68639
G1 X183.993 Y114.164 E8.83359
G1 X183.282 Y118.419 E9.00577
G1 X182.569 Y121.978 E9.15064
G1 X181.474 Y126.586 E9.33967
G1 X181.417 Y126.801 E9.34855
G1 X180.079 Y131.568 E9.54616
G1 X178.572 Y136.245 E9.74228
G1 X176.784 Y141.159 E9.95099
G1 X174.815 Y146.006 E10.1598
G1 X172.626 Y150.899 E10.37374
G1 X172.408 Y151.344 E10.39352
G1 X170.283 Y155.717 E10.58757
G1 X168.956 Y158.281 E10.7028
G1 X167.546 Y160.905 E10.82169
G1 X166.282 Y163.19 E10.92591
G1 X166.107 Y163.491 E10.93981
G1 X163.341 Y168.232 E11.15888
G1 X161.531 Y171.187 E11.29719
G1 X161.249 Y171.634 E11.31829
G1 X161.475 Y171.805 E11.3296
G1 X161.866 Y172.147 E11.35033
G1 X162.118 Y172.4 E11.36458
G1 X162.558 Y172.907 E11.39138
G1 X162.792 Y173.223 E11.40707
G1 X163.176 Y173.831 E11.43577
G1 X163.352 Y174.16 E11.45066
G1 X163.605 Y174.727 E11.47544
G1 X163.702 Y174.978 E11.48618
G1 X163.857 Y175.452 E11.50609
G1 X163.933 Y175.737 E11.51786
G1 X164.082 Y176.463 E11.54744
G1 X164.128 Y176.79 E11.56062
G1 X164.18 Y177.477 E11.58812
G1 X164.186 Y177.757 E11.5993
G1 X164.163 Y178.468 E11.62769
G1 X164.139 Y178.744 E11.63875
G1 X164.04 Y179.452 E11.66728
G1 X163.992 Y179.704 E11.67752
G1 X163.824 Y180.398 E11.70602
G1 X163.754 Y180.636 E11.71592
G1 X163.534 Y181.272 E11.74278
G1 X163.45 Y181.484 E11.75188
G1 X163.16 Y182.132 E11.78021
G1 X163.056 Y182.34 E11.78949
G1 X162.709 Y182.96 E11.81785
G1 X162.588 Y183.156 E11.82705
G1 X162.171 Y183.767 E11.85657
G1 X161.976 Y184.017 E11.86922
G1 X161.245 Y184.849 E11.91343
G1 X161.019 Y185.077 E11.92624
G1 X160.277 Y185.736 E11.96585
G1 X160.043 Y185.92 E11.97773
G1 X159.46 Y186.329 E12.00615
G1 X159.237 Y186.47 E12.01668
G1 X158.624 Y186.813 E12.04472
G1 X158.37 Y186.937 E12.056
G1 X157.642 Y187.246 E12.08757
G1 X157.253 Y187.376 E12.10394
G1 X156.207 Y187.636 E12.14696
G1 X155.928 Y187.69 E12.1583
G1 X155.524 Y187.741 E12.17455
G1 X155.075 Y187.78 E12.19254
G1 X154.722 Y187.787 E12.20663
G1 X154.014 Y187.752 E12.23492
G1 X153.643 Y187.707 E12.24984
G1 X152.953 Y187.572 E12.2779
G1 X152.633 Y187.488 E12.2911
G1 X152.148 Y187.327 E12.3115
G1 X151.865 Y187.214 E12.32366
G1 X151.429 Y187.01 E12.34287
G1 X151.11 Y186.832 E12.35745
G1 X150.456 Y186.405 E12.38863
G1 X150.092 Y186.118 E12.40713
G1 X149.641 Y185.692 E12.43189
G1 X149.388 Y185.417 E12.4468
G1 X148.968 Y184.887 E12.47379
G1 X148.739 Y184.563 E12.48963
G1 X148.542 Y184.152 E12.50782
G1 X148.419 Y183.713 E12.52602
G1 X148.375 Y183.259 E12.54422
G1 X148.388 Y182.976 E12.55553
G1 X148.425 Y182.625 E12.56962
G1 X148.643 Y181.089 E12.63154
G1 X148.929 Y179.544 E12.69425
G1 X148.994 Y179.263 E12.70576
G1 X149.135 Y178.83 E12.72393
G1 X149.373 Y178.393 E12.74379
G1 X152.685 Y173.494 E12.97981
G1 X157.313 Y166.216 E13.32405
G1 X157.488 Y165.922 E13.33771
G1 X162.29 Y157.589 E13.72157
G1 X164.002 Y154.361 E13.8674
G1 X164.147 Y154.074 E13.88023
G1 X166.792 Y148.731 E14.11818
G1 X167.796 Y146.556 E14.2138
G1 X169.784 Y141.964 E14.41351
G1 X170.703 Y139.681 E14.51174
G1 X171.595 Y137.344 E14.61157
G1 X172.38 Y135.171 E14.70379
G1 X172.478 Y134.877 E14.71616
G1 X173.196 Y132.771 E14.80496
G1 X174.248 Y129.409 E14.94556
G1 X174.314 Y129.171 E14.95542
G1 X175.235 Y125.928 E15.08997
G1 X175.835 Y123.582 E15.18662
G1 X176.87 Y118.929 E15.37687
G1 X177.37 Y116.285 E15.48427
G1 X177.393 Y116.13 E15.49052
G1 X178.111 Y111.526 E15.6765
G1 X178.145 Y111.236 E15.68816
G1 X178.415 Y109.065 E15.77547
G1 X178.854 Y104.384 E15.96312
G1 X179.147 Y98.79 E16.1867
G1 X179.153 Y98.497 E16.19839
G1 X179.225 Y95.518 E16.31732
G1 X179.231 Y91.172 E16.49078
G1 X179.093 Y84.414 E16.76057
G1 X178.943 Y79.37 E16.96197
G1 X178.804 Y74.359 E17.16205
G1 X178.651 Y70.4 E17.32018
G1 X178.561 Y69.394 E17.36049
G1 X178.468 Y68.713 E17.38792
G1 X178.339 Y68.129 E17.41179
G1 X178.252 Y67.841 E17.4238
G1 X177.997 Y67.316 E17.4471
G1 X177.903 Y67.185 E17.45353
G1 X177.758 Y67.037 E17.4618
G1 X177.326 Y66.709 E17.48345
G1 X176.945 Y66.487 E17.50105
G1 X176.459 Y66.258 E17.52249
G1 X175.546 Y65.896 E17.56169
G1 X174.186 Y65.45 E17.61882
G1 X170.57 Y64.357 E17.76959
G1 X168.43 Y63.571 E17.86058
G1 X168.211 Y63.479 E17.87006
G1 X167.312 Y63.052 E17.90978
G1 X167.167 Y62.977 E17.9163
G1 X166.528 Y62.623 E17.94545
G1 X166.323 Y62.497 E17.95506
G1 X165.662 Y62.046 E17.987
G1 X165.474 Y61.905 E17.99638
G1 X164.832 Y61.376 E18.02958
G1 X164.519 Y61.07 E18.04705
G1 X163.621 Y60.032 E18.10183
G1 X163.45 Y59.812 E18.11295
G1 X163.273 Y59.553 E18.12547
G1 X163.037 Y59.184 E18.14295
G1 X162.854 Y58.845 E18.15833
G1 X162.525 Y58.111 E18.19043
G1 X162.459 Y58.318 E18.1991
G1 X162.261 Y58.858 E18.22206
G1 X162.142 Y59.132 E18.23398
G1 X161.926 Y59.561 E18.25315
G1 X161.708 Y59.919 E18.26988
G1 X161.454 Y60.269 E18.28714
G1 X161.172 Y60.597 E18.30441
G1 X160.942 Y60.823 E18.31728
G1 X160.581 Y61.118 E18.33588
G1 X160.4 Y61.241 E18.34462
G1 X159.926 Y61.496 E18.3661
G1 X159.541 Y61.654 E18.38271
G1 X159.042 Y61.803 E18.40349
G1 X158.838 Y61.842 E18.41178
G1 X158.44 Y61.886 E18.42777
G1 X158.124 Y61.897 E18.44039
G1 X157.724 Y61.881 E18.45636
G1 X157.282 Y61.828 E18.47413
G1 X156.894 Y61.75 E18.48993
G1 X156.435 Y61.622 E18.50895
G1 X156.196 Y61.543 E18.51899
G1 X155.645 Y61.33 E18.54257
G1 X155.486 Y61.263 E18.54946
G1 X154.723 Y60.903 E18.58313
G1 X152.772 Y59.857 E18.67148
G1 X149.367 Y57.969 E18.82688
G1 X146.731 Y56.602 E18.94539
G1 X144.207 Y55.405 E19.05688
G1 X143.374 Y55.037 E19.09323
G1 X141.847 Y54.388 E19.15945
G1 X140.232 Y53.745 E19.22883
G1 X137.014 Y52.592 E19.36526
G1 X135.517 Y52.107 E19.42807
G1 X133.941 Y51.633 E19.49375
G1 X132.344 Y51.191 E19.55989
G1 X129.24 Y50.427 E19.68748
G1 X126.121 Y49.785 E19.81457
G1 X123.827 Y49.398 E19.90742
G1 X120.77 Y48.97 E20.03063
G1 X118.581 Y48.724 E20.11854
G1 X115.618 Y48.477 E20.23721
G1 X114.264 Y48.397 E20.29135
G1 X112.05 Y48.303 E20.37979
G1 X110.026 Y48.254 E20.4606
G1 X106.419 Y48.364 E20.60463
G1 X104.319 Y48.481 E20.68857
G1 X102.142 Y48.658 E20.77575
G1 X99.122 Y48.983 E20.89698
G1 X96.124 Y49.405 E21.01782
G1 X93.744 Y49.813 E21.11419
G1 X90.679 Y50.447 E21.23911
G1 X87.567 Y51.216 E21.36706
G1 X86.049 Y51.638 E21.42994
G1 X84.413 Y52.13 E21.49813
G1 X82.042 Y52.921 E21.59789
G1 X79.718 Y53.767 E21.6966
G1 X78.179 Y54.378 E21.76268
G1 X76.211 Y55.221 E21.84813
G1 X74.64 Y55.939 E21.91707
G1 X73.261 Y56.605 E21.9782
G1 X71.47 Y57.522 E22.0585
G1 X66.975 Y59.994 E22.26325
G1 X64.66 Y61.19 E22.36725
G1 X64.425 Y61.297 E22.37755
G1 X63.85 Y61.525 E22.40224
G1 X63.605 Y61.608 E22.41257
G1 X63.121 Y61.746 E22.43265
G1 X62.726 Y61.826 E22.44874
G1 X62.304 Y61.878 E22.46571
G1 X61.922 Y61.897 E22.48097
G1 X61.595 Y61.889 E22.49403
G1 X61.163 Y61.842 E22.51137
G1 X60.947 Y61.8 E22.52016
G1 X60.452 Y61.652 E22.54078
G1 X60.081 Y61.499 E22.55679
G1 X59.643 Y61.267 E22.57658
G1 X59.456 Y61.144 E22.58551
G1 X59.075 Y60.839 E22.60499
G1 X58.845 Y60.616 E22.61777
G1 X58.554 Y60.281 E22.63549
G1 X58.301 Y59.934 E22.65262
G1 X58.082 Y59.576 E22.66937
G1 X57.866 Y59.149 E22.68847
G1 X57.748 Y58.877 E22.70031
G1 X57.553 Y58.35 E22.72273
G1 X57.486 Y58.142 E22.73146
G1 X57.455 Y58.224 E22.73496
G1 X57.288 Y58.582 E22.75072
G1 X56.856 Y59.35 E22.78589
G1 X56.716 Y59.571 E22.79633
G1 X56.336 Y60.111 E22.82269
G1 X56.163 Y60.332 E22.83389
G1 X55.748 Y60.804 E22.85897
G1 X55.604 Y60.954 E22.86727
G1 X55.155 Y61.389 E22.89222
G1 X54.895 Y61.61 E22.90584
G1 X53.877 Y62.365 E22.95643
G1 X53.618 Y62.535 E22.96879
G1 X52.853 Y62.972 E23.00396
G1 X52.665 Y63.069 E23.0124
G1 X51.648 Y63.541 E23.05715
G1 X50.744 Y63.904 E23.09603
G1 X48.797 Y64.561 E23.17804
G1 X45.508 Y65.547 E23.31509
G1 X44.408 Y65.912 E23.36134
G1 X43.728 Y66.173 E23.39042
G1 X42.979 Y66.531 E23.42355
G1 X42.562 Y66.785 E23.44304
G1 X42.199 Y67.091 E23.46199
G1 X41.861 Y67.564 E23.48519
G1 X41.771 Y67.771 E23.4942
G1 X41.619 Y68.296 E23.51601
G1 X41.527 Y68.776 E23.53552
G1 X41.329 Y70.739 E23.61426
G1 X41.248 Y72.514 E23.68518
G1 X40.828 Y87.45 E24.28155
G1 X40.758 Y92.324 E24.4761
G1 X40.758 Y92.827 E24.49617
G1 X40.769 Y95.342 E24.59655
G1 X40.853 Y98.959 E24.74095
G1 X41.181 Y104.832 E24.97572
G1 X41.473 Y108.018 E25.10342
G1 X41.93 Y111.829 E25.25661
G1 X42.302 Y114.317 E25.35702
G1 X42.883 Y117.654 E25.49221
G1 X43.334 Y119.918 E25.58434
G1 X43.97 Y122.748 E25.70011
G1 X45.023 Y126.885 E25.87049
G1 X45.756 Y129.432 E25.97628
G1 X46.589 Y132.123 E26.08871
G1 X46.686 Y132.405 E26.10061
G1 X47.75 Y135.541 E26.23278
G1 X48.801 Y138.389 E26.35395
G1 X49.714 Y140.737 E26.4545
G1 X50.491 Y142.634 E26.53631
G1 X50.623 Y142.934 E26.5494
G1 X52.019 Y146.154 E26.68947
G1 X53.761 Y149.899 E26.85432
G1 X55.977 Y154.328 E27.05198
G1 X58.709 Y159.393 E27.28167
G1 X61.006 Y163.403 E27.46612
G1 X62.777 Y166.365 E27.60386
G1 X66.425 Y172.142 E27.87655
G1 X70.612 Y178.37 E28.17608
G1 X70.832 Y178.769 E28.19426
G1 X70.961 Y179.131 E28.2096
G1 X71.04 Y179.418 E28.22148
G1 X71.086 Y179.616 E28.22959
G1 X71.285 Y180.665 E28.27221
G1 X71.58 Y182.681 E28.35353
G1 X71.61 Y182.952 E28.36441
G1 X71.62 Y183.407 E28.38258
G1 X71.551 Y183.858 E28.40079
G1 X71.404 Y184.289 E28.41896
G1 X71.077 Y184.836 E28.4444
G1 X70.667 Y185.362 E28.47101
G1 X70.422 Y185.634 E28.48562
G1 X70.043 Y186 E28.50665
G1 X69.825 Y186.189 E28.51817
G1 X69.423 Y186.499 E28.53843
G1 X69.11 Y186.706 E28.55341
G1 X68.538 Y187.028 E28.57961
G1 X68.24 Y187.171 E28.5928
G1 X67.816 Y187.343 E28.61106
G1 X67.599 Y187.421 E28.62026
G1 X67.239 Y187.531 E28.63529
G1 X66.856 Y187.616 E28.65095
G1 X65.908 Y187.755 E28.68919
G1 X65.522 Y187.783 E28.70463
G1 X64.961 Y187.781 E28.72703
G1 X64.645 Y187.761 E28.73966
G1 X63.907 Y187.668 E28.76935
G1 X63.544 Y187.595 E28.78413
G1 X62.688 Y187.36 E28.81956
G1 X62.383 Y187.256 E28.83242
G1 X61.761 Y186.999 E28.85928
G1 X61.412 Y186.823 E28.87488
G1 X60.235 Y186.114 E28.92972
G1 X59.938 Y185.905 E28.94422
G1 X59.389 Y185.459 E28.97245
G1 X59.21 Y185.3 E28.982
G1 X58.703 Y184.804 E29.01031
G1 X58.471 Y184.544 E29.02422
G1 X57.597 Y183.423 E29.08095
G1 X57.4 Y183.132 E29.09498
G1 X56.989 Y182.426 E29.12758
G1 X56.85 Y182.15 E29.13992
G1 X56.745 Y181.905 E29.15056
G1 X56.329 Y180.873 E29.19497
G1 X56.22 Y180.542 E29.20887
G1 X56.015 Y179.736 E29.24207
G1 X55.959 Y179.451 E29.25366
G1 X55.861 Y178.741 E29.28227
G1 X55.838 Y178.469 E29.29316
G1 X55.815 Y177.759 E29.32151
G1 X55.821 Y177.478 E29.33273
G1 X55.874 Y176.781 E29.36063
G1 X55.917 Y176.468 E29.37324
G1 X56.051 Y175.798 E29.40051
G1 X56.124 Y175.517 E29.4121
G1 X56.289 Y175 E29.43376
