;FLAVOR:Marlin
;TIME:1903
;Filament used: 1.46093m
;Layer height: 0.2
;MINX:89
;MINY:84.091
;MINZ:0.16
;MAXX:135.914
;MAXY:131
;MAXZ:19.96
;Generated with Cura_SteamEngine 4.6.1
M140 S45
M105
M190 S45
M104 S200
M105
M109 S200
M82 ;absolute extrusion mode
M201 X500.00 Y500.00 Z100.00 E5000.00 ;Setup machine max acceleration
M203 X500.00 Y500.00 Z10.00 E50.00 ;Setup machine max feedrate
M204 P500.00 R1000.00 T500.00 ;Setup Print/Retract/Travel acceleration
M205 X8.00 Y8.00 Z0.40 E5.00 ;Setup Jerk
M220 S100 ;Reset Feedrate
M221 S100 ;Reset Flowrate
M155 S5 ;Temp reporting

G28 ;Home

G92 E0 ;Reset Extruder
G1 Z2.0 F3000 ;Move Z Axis up
G1 X10.1 Y20 Z0.28 F5000.0 ;Move to start position
G1 X10.1 Y200.0 Z0.28 F1500.0 E15 ;Draw the first line
G1 X10.4 Y200.0 Z0.28 F5000.0 ;Move to side a little
G1 X10.4 Y20 Z0.28 F1500.0 E30 ;Draw the second line
G92 E0 ;Reset Extruder
G1 Z2.0 F3000 ;Move Z Axis up
G92 E0
G92 E0
G1 F2700 E-5
;LAYER_COUNT:100
;LAYER:0
M107
G0 F1800 X117.152 Y84.951 Z0.16
;TYPE:SKIRT
G1 F2700 E0
G1 F1200 X118.045 Y85.084 E0.02763
G1 X118.923 Y85.296 E0.05526
G1 X119.779 Y85.584 E0.0829
G1 X120.606 Y85.947 E0.11054
G1 X121.398 Y86.381 E0.13817
G1 X121.979 Y86.763 E0.15945
G1 X122.776 Y87.33 E0.18938
G1 X123.172 Y87.627 E0.20452
G1 X123.87 Y88.2 E0.23216
G1 X124.65 Y88.982 E0.26595
G1 X125.081 Y89.463 E0.28572
G1 X126.856 Y91.393 E0.36595
G1 X128.617 Y93.203 E0.44323
G1 X130.625 Y95.145 E0.5287
G1 X131.567 Y96.033 E0.56832
G1 X132.196 Y96.681 E0.59595
G1 X132.765 Y97.382 E0.62358
G1 X133.27 Y98.131 E0.65122
G1 X133.707 Y98.921 E0.67884
G1 X134.213 Y100.129 E0.71892
G1 X134.422 Y100.735 E0.73853
G1 X134.521 Y101.038 E0.74829
G1 X134.665 Y101.502 E0.76315
G1 X134.894 Y102.375 E0.79077
G1 X135.045 Y103.266 E0.81842
G1 X135.117 Y104.166 E0.84605
G1 X135.108 Y105.069 E0.87368
G1 X135.02 Y105.968 E0.90132
G1 X134.853 Y106.855 E0.92894
G1 X134.676 Y107.51 E0.9497
G1 X134.379 Y108.465 E0.98031
G1 X134.233 Y108.893 E0.99414
G1 X134.087 Y109.292 E1.00715
G1 X133.166 Y111.664 E1.08501
G1 X132.316 Y114.044 E1.16234
G1 X131.521 Y116.487 E1.24095
G1 X130.805 Y118.917 E1.31847
G1 X130.086 Y121.657 E1.40515
G1 X129.895 Y122.432 E1.42957
G1 X129.64 Y123.298 E1.4572
G1 X129.31 Y124.139 E1.48484
G1 X128.906 Y124.947 E1.51248
G1 X128.433 Y125.716 E1.54011
G1 X127.893 Y126.44 E1.56775
G1 X127.292 Y127.114 E1.59538
G1 X126.633 Y127.732 E1.62302
G1 X125.923 Y128.289 E1.65064
G1 X125.165 Y128.781 E1.67829
G1 X124.368 Y129.204 E1.7059
G1 X123.536 Y129.555 E1.73353
G1 X122.676 Y129.831 E1.76117
G1 X121.795 Y130.03 E1.7888
G1 X120.9 Y130.15 E1.81644
G1 X120.277 Y130.187 E1.83553
G1 X119.67 Y130.2 E1.85411
G1 X100.561 Y130.199 E2.43883
G1 X99.863 Y130.189 E2.46019
G1 X98.961 Y130.136 E2.48784
G1 X98.068 Y130.004 E2.51546
G1 X97.19 Y129.793 E2.5431
G1 X96.334 Y129.505 E2.57073
G1 X95.507 Y129.143 E2.59835
G1 X94.715 Y128.708 E2.626
G1 X93.964 Y128.206 E2.65365
G1 X93.261 Y127.639 E2.68128
G1 X92.611 Y127.012 E2.70892
G1 X92.019 Y126.33 E2.73655
G1 X91.489 Y125.599 E2.76418
G1 X91.027 Y124.823 E2.79181
G1 X90.634 Y124.01 E2.81945
G1 X90.316 Y123.165 E2.84707
G1 X90.073 Y122.295 E2.87471
G1 X89.908 Y121.407 E2.90235
G1 X89.813 Y120.266 E2.93738
G1 X89.8 Y119.658 E2.95599
G1 X89.801 Y100.55 E3.54069
G1 X89.811 Y99.861 E3.56177
G1 X89.864 Y98.959 E3.58942
G1 X89.997 Y98.066 E3.61705
G1 X90.208 Y97.188 E3.64468
G1 X90.496 Y96.332 E3.67231
G1 X90.858 Y95.505 E3.69994
G1 X91.293 Y94.713 E3.72759
G1 X91.795 Y93.963 E3.7552
G1 X92.362 Y93.26 E3.78284
G1 X92.989 Y92.61 E3.81047
G1 X93.671 Y92.018 E3.83811
G1 X94.403 Y91.488 E3.86576
G1 X95.179 Y91.026 E3.89339
G1 X95.992 Y90.634 E3.92101
G1 X96.837 Y90.315 E3.94865
G1 X97.422 Y90.143 E3.96731
G1 X99.052 Y89.721 E4.01883
G1 X101.497 Y89.045 E4.09645
G1 X103.927 Y88.298 E4.17424
G1 X106.325 Y87.486 E4.25171
G1 X108.715 Y86.601 E4.3297
G1 X110.495 Y85.893 E4.38831
G1 X111.06 Y85.662 E4.40699
G1 X111.91 Y85.357 E4.43463
G1 X112.784 Y85.129 E4.46226
G1 X113.674 Y84.979 E4.48988
G1 X114.732 Y84.905 E4.52234
G1 X115.439 Y84.892 E4.54397
G1 X115.778 Y84.891 E4.55435
G1 X116.091 Y84.896 E4.56392
G0 F1080 X116.25 Y84.898
G0 X117.152 Y84.951
G0 F1800 X117.175 Y84.552
G1 F1200 X118.086 Y84.685 E4.5921
G1 X118.982 Y84.897 E4.62027
G1 X119.856 Y85.185 E4.64843
G1 X120.702 Y85.549 E4.67661
G1 X121.513 Y85.984 E4.70477
G1 X122.21 Y86.436 E4.73019
G1 X123.016 Y87.01 E4.76047
G1 X123.412 Y87.307 E4.77561
G1 X124.124 Y87.891 E4.80379
G1 X124.948 Y88.715 E4.83945
G1 X125.353 Y89.167 E4.85802
G1 X127.154 Y91.126 E4.93945
G1 X128.9 Y92.92 E5.01605
G1 X130.899 Y94.854 E5.10116
G1 X131.841 Y95.742 E5.14077
G1 X132.483 Y96.402 E5.16895
G1 X133.065 Y97.115 E5.19711
G1 X133.583 Y97.876 E5.22528
G1 X134.033 Y98.679 E5.25345
G1 X134.412 Y99.518 E5.28162
G1 X134.591 Y99.999 E5.29732
G1 X134.8 Y100.605 E5.31694
G1 X134.903 Y100.919 E5.32705
G1 X135.047 Y101.383 E5.34191
G1 X135.281 Y102.273 E5.37007
G1 X135.437 Y103.181 E5.39826
G1 X135.514 Y104.098 E5.42642
G1 X135.511 Y105.019 E5.4546
G1 X135.429 Y105.936 E5.48278
G1 X135.267 Y106.842 E5.51094
G1 X135.059 Y107.627 E5.53579
G1 X134.861 Y108.274 E5.55649
G1 X134.757 Y108.594 E5.56679
G1 X134.611 Y109.022 E5.58063
G1 X134.46 Y109.437 E5.59414
G1 X133.544 Y111.795 E5.67154
G1 X132.686 Y114.198 E5.74962
G1 X131.909 Y116.586 E5.82646
G1 X131.19 Y119.026 E5.9043
G1 X130.456 Y121.823 E5.99278
G1 X130.283 Y122.527 E6.01497
G1 X130.024 Y123.411 E6.04315
G1 X129.69 Y124.269 E6.07133
G1 X129.282 Y125.094 E6.09949
G1 X128.804 Y125.881 E6.12767
G1 X128.26 Y126.624 E6.15584
G1 X127.653 Y127.316 E6.18401
G1 X126.988 Y127.953 E6.21219
G1 X126.271 Y128.53 E6.24035
G1 X125.506 Y129.043 E6.26853
G1 X124.7 Y129.488 E6.29671
G1 X123.858 Y129.86 E6.32487
G1 X122.987 Y130.159 E6.35305
G1 X122.094 Y130.38 E6.3812
G1 X121.184 Y130.524 E6.40939
G1 X120.288 Y130.587 E6.43688
G1 X119.67 Y130.6 E6.45579
G1 X100.555 Y130.599 E7.0407
G1 X99.857 Y130.589 E7.06206
G1 X98.938 Y130.536 E7.09023
G1 X98.027 Y130.403 E7.1184
G1 X97.131 Y130.192 E7.14656
G1 X96.257 Y129.904 E7.17472
G1 X95.41 Y129.541 E7.20292
G1 X94.599 Y129.106 E7.23108
G1 X93.829 Y128.602 E7.25924
G1 X93.105 Y128.033 E7.28742
G1 X92.433 Y127.403 E7.3156
G1 X91.818 Y126.718 E7.34377
G1 X91.265 Y125.982 E7.37194
G1 X90.778 Y125.201 E7.40011
G1 X90.361 Y124.38 E7.42828
G1 X90.016 Y123.526 E7.45647
G1 X89.747 Y122.646 E7.48462
G1 X89.555 Y121.745 E7.51281
G1 X89.442 Y120.832 E7.54096
G1 X89.413 Y120.277 E7.55797
G1 X89.4 Y119.658 E7.57691
G1 X89.401 Y100.544 E8.16179
G1 X89.411 Y99.855 E8.18288
G1 X89.464 Y98.936 E8.21104
G1 X89.597 Y98.025 E8.23921
G1 X89.809 Y97.129 E8.26739
G1 X90.097 Y96.255 E8.29555
G1 X90.46 Y95.409 E8.32372
G1 X90.895 Y94.597 E8.3519
G1 X91.399 Y93.827 E8.38006
G1 X91.968 Y93.103 E8.40824
G1 X92.598 Y92.431 E8.43643
G1 X93.283 Y91.817 E8.46457
G1 X94.02 Y91.264 E8.49277
G1 X94.801 Y90.777 E8.52093
G1 X95.622 Y90.36 E8.54911
G1 X96.476 Y90.016 E8.57728
G1 X97.32 Y89.756 E8.6043
G1 X98.946 Y89.336 E8.65569
G1 X101.377 Y88.664 E8.73287
G1 X103.796 Y87.92 E8.81031
G1 X106.195 Y87.108 E8.88781
G1 X108.555 Y86.234 E8.96482
G1 X110.29 Y85.544 E9.02195
G1 X110.908 Y85.291 E9.04238
G1 X111.775 Y84.98 E9.07057
G1 X112.665 Y84.746 E9.09873
G1 X113.572 Y84.589 E9.12689
G1 X114.725 Y84.505 E9.16227
G1 X115.432 Y84.492 E9.18391
G1 X115.784 Y84.491 E9.19468
G1 X116.114 Y84.496 E9.20478
G0 F1080 X116.256 Y84.498
G0 X117.175 Y84.552
G0 F1800 X117.198 Y84.152
G1 F1200 X118.127 Y84.286 E9.2335
G1 X119.04 Y84.498 E9.26218
G1 X119.933 Y84.787 E9.2909
G1 X120.797 Y85.151 E9.31959
G1 X121.627 Y85.587 E9.34828
G1 X122.441 Y86.109 E9.37786
G1 X123.256 Y86.69 E9.40849
G1 X123.652 Y86.987 E9.42364
G1 X124.378 Y87.581 E9.45234
G1 X125.246 Y88.448 E9.48988
G1 X125.663 Y88.914 E9.50902
G1 X127.452 Y90.859 E9.58988
G1 X129.164 Y92.619 E9.66501
G1 X131.173 Y94.563 E9.75055
G1 X132.115 Y95.451 E9.79017
G1 X132.77 Y96.123 E9.81888
G1 X133.365 Y96.848 E9.84758
G1 X133.895 Y97.621 E9.87626
G1 X134.358 Y98.437 E9.90497
G1 X134.75 Y99.289 E9.93366
G1 X134.969 Y99.869 E9.95263
G1 X135.178 Y100.475 E9.97225
G1 X135.285 Y100.801 E9.98275
G1 X135.429 Y101.265 E9.99761
G1 X135.668 Y102.171 E10.02629
G1 X135.83 Y103.095 E10.05499
G1 X135.912 Y104.03 E10.08371
G1 X135.914 Y104.967 E10.11238
G1 X135.836 Y105.902 E10.14109
G1 X135.68 Y106.827 E10.1698
G1 X135.441 Y107.744 E10.19879
G1 X135.243 Y108.391 E10.2195
G1 X135.136 Y108.723 E10.23017
G1 X134.99 Y109.151 E10.24401
G1 X134.833 Y109.582 E10.25805
G1 X133.918 Y111.938 E10.33538
G1 X133.061 Y114.34 E10.41342
G1 X132.297 Y116.686 E10.48892
G1 X131.573 Y119.144 E10.56733
G1 X130.84 Y121.939 E10.65574
G1 X130.671 Y122.623 E10.6773
G1 X130.408 Y123.523 E10.70599
G1 X130.07 Y124.398 E10.7347
G1 X129.658 Y125.24 E10.76338
G1 X129.175 Y126.045 E10.79211
G1 X128.626 Y126.805 E10.82079
G1 X128.014 Y127.516 E10.8495
G1 X127.344 Y128.172 E10.87819
G1 X126.621 Y128.769 E10.90688
G1 X125.849 Y129.302 E10.93559
G1 X125.034 Y129.767 E10.9643
G1 X124.183 Y130.161 E10.993
G1 X123.302 Y130.481 E11.02168
G1 X122.396 Y130.725 E11.05039
G1 X121.473 Y130.891 E11.07908
G1 X120.299 Y130.987 E11.11513
G1 X119.67 Y131 E11.13438
G1 X100.549 Y130.999 E11.71947
G1 X99.851 Y130.989 E11.74083
G1 X98.915 Y130.935 E11.76952
G1 X97.987 Y130.803 E11.7982
G1 X97.073 Y130.591 E11.82691
G1 X96.181 Y130.302 E11.8556
G1 X95.316 Y129.939 E11.88431
G1 X94.486 Y129.503 E11.91299
G1 X93.695 Y128.998 E11.94171
G1 X92.951 Y128.427 E11.97041
G1 X92.258 Y127.795 E11.99911
G1 X91.621 Y127.107 E12.0278
G1 X91.046 Y126.366 E12.0565
G1 X90.535 Y125.58 E12.08519
G1 X90.093 Y124.752 E12.11391
G1 X89.724 Y123.89 E12.1426
G1 X89.429 Y123 E12.17129
G1 X89.211 Y122.088 E12.19998
G1 X89.071 Y121.16 E12.2287
G1 X89.013 Y120.288 E12.25544
G1 X89 Y119.658 E12.27472
G1 X89.001 Y100.538 E12.85978
G1 X89.011 Y99.849 E12.88087
G1 X89.065 Y98.913 E12.90955
G1 X89.198 Y97.985 E12.93824
G1 X89.41 Y97.071 E12.96695
G1 X89.698 Y96.179 E12.99563
G1 X90.062 Y95.314 E13.02435
G1 X90.498 Y94.484 E13.05304
G1 X91.003 Y93.694 E13.08173
G1 X91.574 Y92.95 E13.11043
G1 X92.206 Y92.257 E13.13912
G1 X92.895 Y91.62 E13.16784
G1 X93.635 Y91.044 E13.19653
G1 X94.422 Y90.534 E13.22523
G1 X95.25 Y90.092 E13.25395
G1 X96.112 Y89.723 E13.28264
G1 X97.219 Y89.369 E13.3182
G1 X98.824 Y88.954 E13.36893
G1 X101.259 Y88.281 E13.44623
G1 X103.688 Y87.534 E13.52399
G1 X106.033 Y86.741 E13.59974
G1 X108.468 Y85.839 E13.6792
G1 X110.122 Y85.181 E13.73367
G1 X110.757 Y84.921 E13.75466
G1 X111.639 Y84.604 E13.78334
G1 X112.546 Y84.362 E13.81207
G1 X113.469 Y84.199 E13.84075
G1 X114.718 Y84.105 E13.87907
G1 X115.425 Y84.092 E13.90071
G1 X115.79 Y84.091 E13.91188
G1 X116.137 Y84.097 E13.9225
G0 F1080 X116.262 Y84.098
G0 X117.198 Y84.152
G0 F1800 X115.167 Y96.646
G1 F1200 X115.386 Y96.487 E13.93078
G1 X115.652 Y96.487 E13.93892
G1 X115.871 Y96.646 E13.9472
G1 X115.953 Y96.9 E13.95537
G1 X115.871 Y97.154 E13.96354
G1 X115.652 Y97.313 E13.97182
G1 X115.386 Y97.313 E13.97996
G1 X115.167 Y97.154 E13.98824
G1 X115.085 Y96.9 E13.99641
G1 X115.11 Y96.825 E13.99882
G0 F1080 X115.167 Y96.646
G0 F1800 X114.828 Y96.398
G1 F1200 X115.255 Y96.087 E14.01499
G1 X115.783 Y96.087 E14.03114
G1 X116.21 Y96.398 E14.04731
G1 X116.373 Y96.9 E14.06346
G1 X116.21 Y97.402 E14.07961
G1 X115.783 Y97.713 E14.09577
G1 X115.255 Y97.713 E14.11193
G1 X114.828 Y97.402 E14.12809
G1 X114.665 Y96.9 E14.14424
G1 X114.714 Y96.751 E14.14904
G0 F1080 X114.828 Y96.398
G0 F1800 X114.488 Y96.151
G1 F1200 X115.125 Y95.687 E14.17316
G1 X115.913 Y95.687 E14.19727
G1 X116.55 Y96.151 E14.22139
G1 X116.793 Y96.9 E14.24548
G1 X116.55 Y97.649 E14.26958
G1 X115.913 Y98.113 E14.29369
G1 X115.125 Y98.113 E14.3178
G1 X114.488 Y97.649 E14.34192
G1 X114.245 Y96.9 E14.36601
G1 X114.317 Y96.679 E14.37312
G0 F1080 X114.488 Y96.151
G0 F1800 X114.147 Y95.905
G1 F1200 X114.996 Y95.287 E14.40526
G1 X116.042 Y95.287 E14.43726
G1 X116.891 Y95.905 E14.4694
G1 X117.215 Y96.9 E14.50142
G1 X116.891 Y97.895 E14.53344
G1 X116.042 Y98.513 E14.56557
G1 X114.996 Y98.513 E14.59758
G1 X114.147 Y97.895 E14.62971
G1 X113.823 Y96.9 E14.66173
G1 X113.919 Y96.607 E14.67116
G0 F1080 X114.147 Y95.905
G1 F2700 E9.67116
G0 F1800 X120.188 Y99.264
G0 X120.681 Y99.757
G0 X121.785 Y103.58
G1 F2700 E14.67116
G1 F1200 X122.599 Y102.988 E14.70196
G1 X123.601 Y102.988 E14.73262
G1 X124.415 Y103.58 E14.76342
G1 X124.726 Y104.534 E14.79412
G1 X124.415 Y105.488 E14.82483
G1 X123.601 Y106.08 E14.85563
G1 X122.599 Y106.08 E14.88629
G1 X121.785 Y105.488 E14.91708
G1 X121.474 Y104.534 E14.94779
G1 X121.566 Y104.252 E14.95687
G0 F1080 X121.785 Y103.58
G0 F1800 X122.126 Y103.826
G1 F1200 X122.728 Y103.388 E14.97965
G1 X123.472 Y103.388 E15.00241
G1 X124.074 Y103.826 E15.02519
G1 X124.304 Y104.534 E15.04797
G1 X124.074 Y105.242 E15.07075
G1 X123.472 Y105.68 E15.09353
G1 X122.728 Y105.68 E15.1163
G1 X122.126 Y105.242 E15.13908
G1 X121.896 Y104.534 E15.16186
G1 X121.965 Y104.324 E15.16862
G0 F1080 X122.126 Y103.826
G0 F1800 X122.466 Y104.074
G1 F1200 X122.859 Y103.788 E15.18349
G1 X123.341 Y103.788 E15.19824
G1 X123.734 Y104.074 E15.21311
G1 X123.884 Y104.534 E15.22792
G1 X123.734 Y104.994 E15.24272
G1 X123.341 Y105.28 E15.2576
G1 X122.859 Y105.28 E15.27235
G1 X122.466 Y104.994 E15.28722
G1 X122.316 Y104.534 E15.30202
G1 X122.361 Y104.397 E15.30644
G0 F1080 X122.466 Y104.074
G0 F1800 X122.805 Y104.322
G1 F1200 X122.989 Y104.188 E15.3134
G1 X123.211 Y104.188 E15.32019
G1 X123.395 Y104.322 E15.32716
G1 X123.464 Y104.534 E15.33398
G1 X123.395 Y104.746 E15.3408
G1 X123.211 Y104.88 E15.34777
G1 X122.989 Y104.88 E15.35456
G1 X122.805 Y104.746 E15.36153
G1 X122.736 Y104.534 E15.36835
G1 X122.757 Y104.471 E15.37038
G0 F1080 X122.805 Y104.322
G1 F2700 E10.37038
;MESH:xyzCalibration_cube.stl
G0 F1800 X120.74 Y104.322
G0 X119.38 Y104.322
G0 X100.67 Y119.33
G0 X100.6 Y119.4
;TYPE:WALL-INNER
G1 F2700 E15.37038
G1 F600 X100.6 Y100.6 E15.94565
G1 X119.4 Y100.6 E16.52092
G1 X119.4 Y119.4 E17.09618
G1 X101.662 Y119.4 E17.63895
G0 F540 X100.6 Y119.4
G0 F1800 X100.2 Y119.8
;TYPE:WALL-OUTER
G1 F600 X100.2 Y100.2 E18.2387
G1 X119.8 Y100.2 E18.83845
G1 X119.8 Y119.8 E19.43819
G1 X101.262 Y119.8 E20.00544
G0 F540 X100.2 Y119.8
G0 F1800 X100.2 Y119.7
G0 X100.64 Y119.36
G0 X100.99 Y119.01
;TYPE:SKIN
G1 F600 X100.99 Y100.99 E20.55684
G1 X119.01 Y100.99 E21.10824
G1 X119.01 Y119.01 E21.65964
G1 X102.052 Y119.01 E22.17855
G0 F540 X100.99 Y119.01
G0 F1800 X101.312 Y118.849
G1 F600 X101.149 Y118.685 E22.18562
G0 F1800 X101.149 Y118.12
G1 F600 X101.878 Y118.849 E22.21717
G0 F1800 X102.444 Y118.849
G1 F600 X101.149 Y117.554 E22.27321
G0 F1800 X101.149 Y116.988
G1 F600 X103.009 Y118.849 E22.35372
G0 F1800 X103.575 Y118.849
G1 F600 X101.149 Y116.423 E22.4587
G0 F1800 X101.149 Y115.857
G1 F600 X104.141 Y118.849 E22.58818
G0 F1800 X104.706 Y118.849
G1 F600 X101.149 Y115.291 E22.74213
G0 F1800 X101.149 Y114.725
G1 F600 X105.272 Y118.849 E22.92057
G0 F1800 X105.838 Y118.849
G1 F600 X101.149 Y114.16 E23.12348
G0 F1800 X101.149 Y113.594
G1 F600 X106.404 Y118.849 E23.35088
G0 F1800 X106.969 Y118.849
G1 F600 X101.149 Y113.028 E23.60276
G0 F1800 X101.149 Y112.463
G1 F600 X107.535 Y118.849 E23.87911
G0 F1800 X108.101 Y118.849
G1 F600 X101.149 Y111.897 E24.17995
G0 F1800 X101.149 Y111.331
G1 F600 X108.666 Y118.849 E24.50526
G0 F1800 X109.232 Y118.849
G1 F600 X101.149 Y110.766 E24.85504
G0 F1800 X101.149 Y110.2
G1 F600 X109.798 Y118.849 E25.22932
G0 F1800 X110.363 Y118.849
G1 F600 X101.149 Y109.634 E25.62807
G0 F1800 X101.149 Y109.069
G1 F600 X110.929 Y118.849 E26.05129
G0 F1800 X111.495 Y118.849
G1 F600 X101.149 Y108.503 E26.499
G0 F1800 X101.149 Y107.937
G1 F600 X112.06 Y118.849 E26.97118
G0 F1800 X112.626 Y118.849
G1 F600 X101.149 Y107.372 E27.46784
G0 F1800 X101.149 Y106.806
G1 F600 X113.192 Y118.849 E27.98899
G0 F1800 X113.757 Y118.849
G1 F600 X101.149 Y106.24 E28.53461
G0 F1800 X101.149 Y105.674
G1 F600 X114.323 Y118.849 E29.10472
G0 F1800 X114.889 Y118.849
G1 F600 X101.149 Y105.109 E29.6993
G0 F1800 X101.149 Y104.543
G1 F600 X115.454 Y118.849 E30.31836
G0 F1800 X116.02 Y118.849
G1 F600 X101.149 Y103.977 E30.96191
