;FLAVOR:Marlin
;TIME:6095
;Filament used: 3.99897m
;Layer height: 0.2
;MINX:73.137
;MINY:90.928
;MINZ:0.16
;MAXX:139.794
;MAXY:129.069
;MAXZ:47.96
;Generated with Cura_SteamEngine 4.6.1
M140 S50
M105
M190 S50
M104 S200
M105
M109 S200
M82 ;absolute extrusion mode
M201 X500.00 Y500.00 Z100.00 E5000.00 ;Setup machine max acceleration
M203 X500.00 Y500.00 Z10.00 E50.00 ;Setup machine max feedrate
M204 P500.00 R1000.00 T500.00 ;Setup Print/Retract/Travel acceleration
M205 X8.00 Y8.00 Z0.40 E5.00 ;Setup Jerk
M220 S100 ;Reset Feedrate
M221 S100 ;Reset Flowrate
M155 S5 ;Temp reporting

G28 ;Home

G92 E0 ;Reset Extruder
G1 Z2.0 F3000 ;Move Z Axis up
G1 X10.1 Y20 Z0.28 F5000.0 ;Move to start position
G1 X10.1 Y200.0 Z0.28 F1500.0 E15 ;Draw the first line
G1 X10.4 Y200.0 Z0.28 F5000.0 ;Move to side a little
G1 X10.4 Y20 Z0.28 F1500.0 E30 ;Draw the second line
G92 E0 ;Reset Extruder
G1 Z2.0 F3000 ;Move Z Axis up
G92 E0
G92 E0
G1 F2700 E-5
;LAYER_COUNT:240
;LAYER:0
M107
G0 F1800 X111.039 Y91.743 Z0.16
;TYPE:SKIRT
G1 F2700 E0
G1 F600 X111.694 Y91.778 E0.02094
G1 X112.314 Y91.824 E0.04079
G1 X113.116 Y91.916 E0.06657
G1 X114.333 Y92.104 E0.10589
G1 X114.716 Y92.17 E0.1183
G1 X115.289 Y92.281 E0.13693
G1 X115.902 Y92.416 E0.15698
G1 X116.289 Y92.513 E0.16972
G1 X116.576 Y92.591 E0.17921
G1 X116.914 Y92.689 E0.19045
G1 X117.91 Y92.997 E0.22374
G1 X118.256 Y93.111 E0.23537
G1 X118.91 Y93.343 E0.25753
G1 X119.16 Y93.438 E0.26606
G1 X119.569 Y93.604 E0.28016
G1 X120.115 Y93.839 E0.29914
G1 X120.433 Y93.982 E0.31027
G1 X121.118 Y94.305 E0.33445
G1 X121.734 Y94.622 E0.35657
G1 X122.674 Y95.146 E0.39094
G1 X122.99 Y95.329 E0.4026
G1 X123.294 Y95.513 E0.41394
G1 X123.674 Y95.755 E0.42833
G1 X124.374 Y96.228 E0.4553
G1 X124.961 Y96.647 E0.47833
G1 X125.369 Y96.954 E0.49463
G1 X125.778 Y97.278 E0.51129
G1 X126.027 Y97.482 E0.52157
G1 X126.566 Y97.943 E0.54422
G1 X127.09 Y98.414 E0.56671
G1 X127.476 Y98.777 E0.58363
G1 X127.701 Y98.999 E0.59373
G1 X128.26 Y99.573 E0.61931
G1 X128.65 Y99.993 E0.63761
G1 X129.002 Y100.393 E0.65462
G1 X129.501 Y100.99 E0.67947
G1 X129.865 Y101.452 E0.69825
G1 X130.366 Y102.127 E0.72509
G1 X130.571 Y102.412 E0.7363
G1 X131.001 Y103.042 E0.76065
G1 X131.174 Y103.308 E0.77078
G1 X131.35 Y103.589 E0.78137
G1 X131.543 Y103.908 E0.79327
G1 X131.743 Y104.254 E0.80603
G1 X131.869 Y104.482 E0.81435
G1 X132.371 Y105.525 E0.85131
G1 X132.449 Y105.714 E0.85784
G1 X132.756 Y106.563 E0.88667
G1 X132.973 Y107.375 E0.9135
G1 X133.027 Y107.616 E0.92139
G1 X133.185 Y108.505 E0.95022
G1 X133.266 Y109.431 E0.9799
G1 X133.275 Y109.652 E0.98696
G1 X133.271 Y110.555 E1.01579
G1 X133.188 Y111.454 E1.04462
G1 X133.025 Y112.345 E1.07354
G1 X132.929 Y112.764 E1.08727
G1 X132.689 Y113.634 E1.11608
G1 X132.372 Y114.48 E1.14493
G1 X131.895 Y115.454 E1.17956
G1 X131.6 Y115.983 E1.1989
G1 X131.185 Y116.664 E1.22436
G1 X130.599 Y117.545 E1.25815
G1 X130.377 Y117.865 E1.27058
G1 X130.11 Y118.235 E1.28515
G1 X129.81 Y118.63 E1.30099
G1 X129.616 Y118.873 E1.31092
G1 X129.405 Y119.129 E1.32151
G1 X128.755 Y119.884 E1.35332
G1 X128.187 Y120.506 E1.38021
G1 X128.005 Y120.696 E1.38862
G1 X127.704 Y120.997 E1.40221
G1 X127.073 Y121.603 E1.43014
G1 X126.73 Y121.918 E1.44501
G1 X126.399 Y122.208 E1.45906
G1 X126.113 Y122.449 E1.471
G1 X125.396 Y123.028 E1.50043
G1 X125.121 Y123.24 E1.51152
G1 X124.757 Y123.508 E1.52595
G1 X124.34 Y123.801 E1.54222
G1 X124.07 Y123.984 E1.55264
G1 X123.515 Y124.348 E1.57383
G1 X122.98 Y124.676 E1.59387
G1 X122.031 Y125.218 E1.62876
G1 X121.701 Y125.398 E1.64076
G1 X121.081 Y125.718 E1.66304
G1 X120.829 Y125.841 E1.672
G1 X120.425 Y126.028 E1.68621
G1 X119.554 Y126.402 E1.71648
G1 X119.041 Y126.607 E1.73412
G1 X118.177 Y126.923 E1.76349
G1 X117.609 Y127.11 E1.78258
G1 X116.927 Y127.314 E1.80531
G1 X116.181 Y127.514 E1.82997
G1 X115.645 Y127.645 E1.84759
G1 X115.142 Y127.755 E1.86403
G1 X114.479 Y127.878 E1.88556
G1 X113.747 Y127.997 E1.90924
G1 X113.425 Y128.044 E1.91963
G1 X113.002 Y128.099 E1.93325
G1 X112.406 Y128.159 E1.95238
G1 X111.205 Y128.239 E1.99081
G1 X110.508 Y128.268 E2.01309
G1 X109.697 Y128.27 E2.03898
G1 X107.834 Y128.196 E2.09851
G1 X85.581 Y126.843 E2.81036
G1 X84.955 Y126.797 E2.8304
G1 X83.642 Y126.614 E2.87273
G1 X83.264 Y126.536 E2.88505
G1 X82.388 Y126.314 E2.91391
G1 X81.567 Y126.028 E2.94167
G1 X81.35 Y125.942 E2.94912
G1 X80.526 Y125.573 E2.97795
G1 X79.383 Y124.902 E3.02027
G1 X78.976 Y124.626 E3.03597
G1 X78.252 Y124.087 E3.06479
G1 X77.578 Y123.485 E3.09364
G1 X77.076 Y122.958 E3.11688
G1 X76.869 Y122.725 E3.12683
G1 X76.299 Y122.024 E3.15568
G1 X75.765 Y121.228 E3.18629
G1 X75.603 Y120.96 E3.19629
G1 X75.17 Y120.167 E3.22514
G1 X74.791 Y119.29 E3.25564
G1 X74.698 Y119.044 E3.26404
G1 X74.416 Y118.186 E3.29288
G1 X74.26 Y117.546 E3.31391
G1 X74.182 Y117.177 E3.32595
G1 X74.034 Y116.287 E3.35476
G1 X73.974 Y115.576 E3.37754
G1 X73.953 Y115.155 E3.391
G1 X73.94 Y114.7 E3.40554
G1 X73.937 Y114.067 E3.42575
G1 X73.942 Y105.499 E3.69932
G1 X73.95 Y104.961 E3.7165
G1 X74.022 Y103.899 E3.75049
G1 X74.066 Y103.532 E3.76229
G1 X74.213 Y102.641 E3.79112
G1 X74.571 Y101.36 E3.83359
G1 X74.748 Y100.857 E3.85062
G1 X75.086 Y100.019 E3.87947
G1 X75.495 Y99.215 E3.90827
G1 X75.862 Y98.617 E3.93068
G1 X76.024 Y98.372 E3.94005
G1 X76.555 Y97.642 E3.96888
G1 X77.011 Y97.108 E3.9913
G1 X77.164 Y96.941 E3.99853
G1 X77.803 Y96.302 E4.02739
G1 X78.472 Y95.742 E4.05524
G1 X78.748 Y95.53 E4.06635
G1 X79.487 Y95.012 E4.09517
G1 X80.495 Y94.449 E4.13203
G1 X80.764 Y94.318 E4.14159
G1 X81.593 Y93.959 E4.17043
G1 X82.148 Y93.765 E4.18921
G1 X82.372 Y93.694 E4.19671
G1 X83.244 Y93.459 E4.22554
G1 X84.051 Y93.314 E4.25172
G1 X84.411 Y93.264 E4.26333
G1 X85.067 Y93.194 E4.28439
G1 X85.842 Y93.138 E4.3092
G1 X108.624 Y91.771 E5.03794
G1 X109.084 Y91.749 E5.05264
G1 X109.435 Y91.738 E5.06385
G1 X110.187 Y91.728 E5.08787
G1 X110.54 Y91.729 E5.09914
G1 X111.039 Y91.743 E5.11508
G0 F1800 X111.058 Y91.344
G1 F600 X111.723 Y91.379 E5.13634
G1 X112.343 Y91.425 E5.15619
G1 X113.177 Y91.52 E5.18299
G1 X114.394 Y91.708 E5.22231
G1 X114.792 Y91.777 E5.23521
G1 X115.365 Y91.888 E5.25385
G1 X115.992 Y92.026 E5.27434
G1 X116.394 Y92.127 E5.28758
G1 X116.681 Y92.205 E5.29708
G1 X117.033 Y92.307 E5.30878
G1 X118.029 Y92.615 E5.34206
G1 X118.387 Y92.733 E5.3541
G1 X119.052 Y92.969 E5.37663
G1 X119.302 Y93.064 E5.38517
G1 X119.728 Y93.237 E5.39985
G1 X120.274 Y93.472 E5.41883
G1 X120.604 Y93.62 E5.43038
G1 X121.289 Y93.943 E5.45456
G1 X121.929 Y94.272 E5.47754
G1 X122.869 Y94.796 E5.5119
G1 X123.197 Y94.987 E5.52402
G1 X123.501 Y95.171 E5.53537
G1 X123.896 Y95.422 E5.55031
G1 X124.332 Y95.713 E5.56705
G1 X124.606 Y95.902 E5.57767
G1 X125.193 Y96.321 E5.6007
G1 X125.617 Y96.64 E5.61764
G1 X126.026 Y96.964 E5.6343
G1 X126.285 Y97.176 E5.64499
G1 X126.588 Y97.432 E5.65766
G1 X126.833 Y97.646 E5.66804
G1 X127.595 Y98.337 E5.70089
G1 X127.987 Y98.718 E5.71834
G1 X128.554 Y99.301 E5.74431
G1 X128.944 Y99.721 E5.76261
G1 X129.309 Y100.136 E5.78026
G1 X129.808 Y100.733 E5.8051
G1 X130.187 Y101.213 E5.82463
G1 X130.688 Y101.888 E5.85147
G1 X130.9 Y102.185 E5.86312
G1 X131.336 Y102.824 E5.88782
G1 X131.509 Y103.09 E5.89795
G1 X131.692 Y103.382 E5.90895
G1 X131.885 Y103.701 E5.92086
G1 X132.094 Y104.061 E5.93415
G1 X132.22 Y104.289 E5.94247
G1 X132.74 Y105.372 E5.98083
G1 X132.818 Y105.561 E5.98736
G1 X133.132 Y106.427 E6.01677
G1 X133.364 Y107.287 E6.04521
G1 X133.418 Y107.528 E6.0531
G1 X133.58 Y108.435 E6.08251
G1 X133.665 Y109.415 E6.11392
G1 X133.674 Y109.636 E6.12099
G1 X133.672 Y110.556 E6.15036
G1 X133.589 Y111.473 E6.17976
G1 X133.415 Y112.434 E6.21094
G1 X133.319 Y112.853 E6.22467
G1 X133.075 Y113.741 E6.25407
G1 X132.754 Y114.604 E6.28347
G1 X132.245 Y115.649 E6.32059
G1 X131.95 Y116.178 E6.33993
G1 X131.518 Y116.886 E6.36641
G1 X130.932 Y117.767 E6.40019
G1 X130.702 Y118.099 E6.41309
G1 X130.435 Y118.469 E6.42766
G1 X130.123 Y118.879 E6.44411
G1 X129.929 Y119.122 E6.45404
G1 X129.709 Y119.389 E6.46508
G1 X129.052 Y120.152 E6.49723
G1 X128.476 Y120.782 E6.52449
G1 X128.294 Y120.972 E6.53289
G1 X127.981 Y121.285 E6.54702
G1 X127.35 Y121.891 E6.57496
G1 X126.993 Y122.219 E6.59044
G1 X126.662 Y122.509 E6.60449
G1 X126.366 Y122.759 E6.61686
G1 X125.64 Y123.345 E6.64665
G1 X125.365 Y123.557 E6.65774
G1 X124.987 Y123.835 E6.67272
G1 X124.57 Y124.128 E6.68899
G1 X124.289 Y124.319 E6.69984
G1 X123.734 Y124.683 E6.72103
G1 X123.178 Y125.024 E6.74186
G1 X122.229 Y125.566 E6.77675
G1 X121.887 Y125.753 E6.7892
G1 X121.257 Y126.078 E6.81183
G1 X121.005 Y126.201 E6.82079
G1 X120.585 Y126.395 E6.83556
G1 X119.999 Y126.65 E6.85597
G1 X119.702 Y126.773 E6.86623
G1 X118.883 Y127.095 E6.89433
G1 X118.305 Y127.302 E6.91393
G1 X117.725 Y127.493 E6.93343
G1 X117.033 Y127.699 E6.95648
G1 X116.276 Y127.903 E6.98152
G1 X115.74 Y128.034 E6.99913
G1 X115.218 Y128.148 E7.01619
G1 X114.543 Y128.273 E7.03811
G1 X113.811 Y128.392 E7.06179
G1 X113.477 Y128.441 E7.07257
G1 X113.054 Y128.496 E7.08619
G1 X112.434 Y128.558 E7.10609
G1 X111.222 Y128.639 E7.14487
G1 X110.525 Y128.668 E7.16715
G1 X109.681 Y128.669 E7.1941
G1 X107.81 Y128.595 E7.25388
G1 X85.552 Y127.241 E7.96589
G1 X84.926 Y127.195 E7.98593
G1 X83.561 Y127.005 E8.02993
G1 X83.183 Y126.927 E8.04226
G1 X82.29 Y126.702 E8.07166
G1 X81.42 Y126.4 E8.10107
G1 X81.203 Y126.314 E8.10852
G1 X80.362 Y125.938 E8.13793
G1 X79.558 Y125.491 E8.16731
G1 X79.159 Y125.233 E8.18248
G1 X78.752 Y124.957 E8.19818
G1 X78.013 Y124.408 E8.22757
G1 X77.325 Y123.796 E8.25698
G1 X76.777 Y123.224 E8.28227
G1 X76.57 Y122.991 E8.29222
G1 X75.989 Y122.277 E8.32161
G1 X75.423 Y121.434 E8.35403
G1 X75.261 Y121.166 E8.36403
G1 X74.819 Y120.359 E8.39341
G1 X74.417 Y119.431 E8.4257
G1 X74.324 Y119.185 E8.4341
G1 X74.036 Y118.311 E8.46348
G1 X73.868 Y117.629 E8.48591
G1 X73.79 Y117.26 E8.49795
G1 X73.639 Y116.352 E8.52734
G1 X73.574 Y115.596 E8.55157
G1 X73.553 Y115.175 E8.56503
G1 X73.54 Y114.702 E8.58014
G1 X73.537 Y114.067 E8.60041
G1 X73.542 Y105.493 E8.87418
G1 X73.55 Y104.955 E8.89136
G1 X73.624 Y103.851 E8.92669
G1 X73.668 Y103.484 E8.93849
G1 X73.818 Y102.576 E8.96788
G1 X74.045 Y101.684 E8.99727
G1 X74.194 Y101.227 E9.01261
G1 X74.371 Y100.724 E9.02964
G1 X74.714 Y99.87 E9.05902
G1 X75.13 Y99.049 E9.08841
G1 X75.528 Y98.397 E9.1128
G1 X75.69 Y98.152 E9.12218
G1 X76.231 Y97.406 E9.1516
G1 X76.716 Y96.837 E9.17548
G1 X76.869 Y96.67 E9.18271
G1 X77.52 Y96.019 E9.2121
G1 X78.228 Y95.425 E9.24161
G1 X78.504 Y95.213 E9.25273
G1 X79.258 Y94.684 E9.28213
G1 X80.32 Y94.089 E9.321
G1 X80.589 Y93.958 E9.33056
G1 X81.433 Y93.591 E9.35994
G1 X82.027 Y93.383 E9.38004
G1 X82.251 Y93.312 E9.38754
G1 X83.14 Y93.073 E9.41694
G1 X83.996 Y92.918 E9.44471
G1 X84.356 Y92.868 E9.45632
G1 X85.038 Y92.795 E9.47822
G1 X85.818 Y92.739 E9.50319
G1 X108.605 Y91.371 E10.23208
G1 X109.065 Y91.349 E10.24678
G1 X109.43 Y91.338 E10.25844
G1 X110.182 Y91.328 E10.28246
G1 X110.548 Y91.329 E10.29414
G1 X111.058 Y91.344 E10.31043
G0 F1800 X111.077 Y90.944
G1 F600 X111.753 Y90.98 E10.33205
G1 X112.373 Y91.026 E10.3519
G1 X113.238 Y91.125 E10.3797
G1 X114.455 Y91.313 E10.41902
G1 X114.868 Y91.385 E10.4324
G1 X115.441 Y91.496 E10.45104
G1 X115.817 Y91.575 E10.46331
G1 X116.082 Y91.636 E10.47199
G1 X116.499 Y91.741 E10.48572
G1 X116.786 Y91.819 E10.49522
G1 X117.151 Y91.925 E10.50735
G1 X118.147 Y92.233 E10.54064
G1 X118.519 Y92.355 E10.55314
G1 X119.194 Y92.595 E10.57602
G1 X119.444 Y92.69 E10.58456
G1 X119.886 Y92.869 E10.59978
G1 X120.432 Y93.104 E10.61876
G1 X120.774 Y93.259 E10.63075
G1 X121.459 Y93.582 E10.65493
G1 X122.124 Y93.923 E10.67879
G1 X123.064 Y94.447 E10.71316
G1 X123.404 Y94.644 E10.7257
G1 X123.708 Y94.828 E10.73705
G1 X124.119 Y95.09 E10.75261
G1 X124.555 Y95.381 E10.76935
G1 X124.839 Y95.577 E10.78037
G1 X125.426 Y95.996 E10.80339
G1 X125.865 Y96.327 E10.82095
G1 X126.543 Y96.87 E10.84869
G1 X126.846 Y97.126 E10.86135
G1 X127.1 Y97.348 E10.87212
G1 X127.624 Y97.819 E10.89462
G1 X128.029 Y98.199 E10.91235
G1 X128.272 Y98.438 E10.92323
G1 X128.847 Y99.029 E10.94956
G1 X129.237 Y99.449 E10.96786
G1 X129.616 Y99.879 E10.98616
G1 X130.115 Y100.476 E11.01101
G1 X130.508 Y100.975 E11.03129
G1 X131.009 Y101.65 E11.05813
G1 X131.229 Y101.958 E11.07022
G1 X131.671 Y102.606 E11.09526
G1 X131.844 Y102.872 E11.10539
G1 X132.035 Y103.175 E11.11683
G1 X132.228 Y103.494 E11.12873
G1 X132.444 Y103.867 E11.1425
G1 X132.57 Y104.095 E11.15081
G1 X133.11 Y105.22 E11.19066
G1 X133.188 Y105.409 E11.19719
G1 X133.509 Y106.29 E11.22713
G1 X133.754 Y107.2 E11.25722
G1 X133.808 Y107.441 E11.2651
G1 X133.974 Y108.364 E11.29505
G1 X134.065 Y109.398 E11.32819
G1 X134.074 Y109.619 E11.33525
G1 X134.072 Y110.557 E11.3652
G1 X133.99 Y111.492 E11.39517
G1 X133.805 Y112.524 E11.42865
G1 X133.709 Y112.943 E11.44237
G1 X133.461 Y113.847 E11.4723
G1 X133.137 Y114.727 E11.50225
G1 X132.594 Y115.843 E11.54187
G1 X132.299 Y116.372 E11.56121
G1 X131.851 Y117.107 E11.5887
G1 X131.265 Y117.988 E11.62248
G1 X131.026 Y118.333 E11.63588
G1 X130.759 Y118.703 E11.65045
G1 X130.435 Y119.129 E11.66754
G1 X130.241 Y119.372 E11.67747
G1 X130.013 Y119.648 E11.6889
G1 X129.348 Y120.421 E11.72146
G1 X128.765 Y121.059 E11.74905
G1 X128.583 Y121.249 E11.75745
G1 X128.258 Y121.574 E11.77213
G1 X127.627 Y122.18 E11.80006
G1 X127.257 Y122.52 E11.81611
G1 X126.926 Y122.81 E11.83016
G1 X126.618 Y123.07 E11.84303
G1 X125.884 Y123.662 E11.87314
G1 X125.609 Y123.874 E11.88423
G1 X125.217 Y124.162 E11.89976
G1 X124.8 Y124.455 E11.91603
G1 X124.509 Y124.653 E11.92727
G1 X123.954 Y125.017 E11.94846
G1 X123.376 Y125.371 E11.9701
G1 X122.427 Y125.913 E12.005
G1 X122.072 Y126.107 E12.01791
G1 X121.432 Y126.437 E12.04091
G1 X121.18 Y126.56 E12.04986
G1 X120.744 Y126.761 E12.06519
G1 X119.851 Y127.145 E12.09623
G1 X119.338 Y127.35 E12.11387
G1 X119.02 Y127.471 E12.12473
G1 X118.433 Y127.681 E12.14464
G1 X117.842 Y127.875 E12.1645
G1 X117.139 Y128.085 E12.18792
G1 X116.371 Y128.291 E12.21331
G1 X115.835 Y128.422 E12.23093
G1 X115.293 Y128.54 E12.24864
G1 X114.607 Y128.667 E12.27092
G1 X113.875 Y128.786 E12.2946
G1 X113.528 Y128.837 E12.3058
G1 X113.105 Y128.892 E12.31942
G1 X112.462 Y128.957 E12.34005
G1 X111.556 Y129.021 E12.36905
G1 X111.238 Y129.038 E12.37922
G1 X110.541 Y129.067 E12.40149
G1 X109.666 Y129.069 E12.42943
G1 X107.786 Y128.995 E12.48951
G1 X85.523 Y127.64 E13.20167
G1 X84.897 Y127.594 E13.22172
G1 X83.965 Y127.486 E13.25167
G1 X83.48 Y127.397 E13.26742
G1 X83.102 Y127.319 E13.27974
G1 X82.192 Y127.091 E13.3097
G1 X81.272 Y126.772 E13.34079
G1 X81.055 Y126.686 E13.34824
G1 X80.199 Y126.304 E13.37817
G1 X79.378 Y125.85 E13.40813
G1 X78.934 Y125.564 E13.42499
G1 X78.527 Y125.288 E13.44069
G1 X77.774 Y124.729 E13.47064
G1 X77.071 Y124.108 E13.50059
G1 X76.478 Y123.49 E13.52793
G1 X76.271 Y123.257 E13.53788
G1 X75.678 Y122.53 E13.56784
G1 X75.08 Y121.641 E13.60205
G1 X74.918 Y121.373 E13.61205
G1 X74.468 Y120.551 E13.64197
G1 X74.043 Y119.573 E13.67602
G1 X73.95 Y119.327 E13.68442
G1 X73.656 Y118.436 E13.71437
G1 X73.477 Y117.712 E13.73819
G1 X73.399 Y117.343 E13.75023
G1 X73.244 Y116.418 E13.78018
G1 X73.175 Y115.616 E13.80588
G1 X73.154 Y115.195 E13.81934
G1 X73.14 Y114.704 E13.83502
G1 X73.137 Y114.067 E13.85536
G1 X73.142 Y105.487 E14.12932
G1 X73.15 Y104.949 E14.1465
G1 X73.227 Y103.804 E14.18314
G1 X73.271 Y103.437 E14.19494
G1 X73.422 Y102.511 E14.2249
G1 X73.652 Y101.602 E14.25484
G1 X73.817 Y101.095 E14.27186
G1 X73.994 Y100.592 E14.28889
G1 X74.342 Y99.721 E14.31884
G1 X74.764 Y98.883 E14.3488
G1 X75.194 Y98.176 E14.37522
G1 X75.356 Y97.931 E14.3846
G1 X75.907 Y97.171 E14.41457
G1 X76.421 Y96.567 E14.43989
G1 X76.574 Y96.4 E14.44712
G1 X77.237 Y95.736 E14.47709
G1 X77.984 Y95.107 E14.50827
G1 X78.26 Y94.895 E14.51938
G1 X79.028 Y94.356 E14.54934
G1 X80.145 Y93.729 E14.59024
G1 X80.414 Y93.598 E14.59979
G1 X81.274 Y93.224 E14.62973
G1 X81.906 Y93.002 E14.65112
G1 X82.13 Y92.931 E14.65863
G1 X83.036 Y92.686 E14.68859
G1 X83.941 Y92.522 E14.71796
G1 X84.301 Y92.472 E14.72957
G1 X85.008 Y92.397 E14.75227
G1 X85.794 Y92.34 E14.77743
G1 X108.586 Y90.972 E15.50648
G1 X109.046 Y90.95 E15.52119
