;FLAVOR:Marlin
;TIME:8351
;Filament used: 6.60812m
;Layer height: 0.2
;MINX:62.122
;MINY:85.75
;MINZ:0.16
;MAXX:157.852
;MAXY:127.05
;MAXZ:66.16
;Generated with Cura_SteamEngine 4.6.1
M140 S50
M105
M190 S50
M104 S200
M105
M109 S200
M82 ;absolute extrusion mode
M201 X500.00 Y500.00 Z100.00 E5000.00 ;Setup machine max acceleration
M203 X500.00 Y500.00 Z10.00 E50.00 ;Setup machine max feedrate
M204 P500.00 R1000.00 T500.00 ;Setup Print/Retract/Travel acceleration
M205 X8.00 Y8.00 Z0.40 E5.00 ;Setup Jerk
M220 S100 ;Reset Feedrate
M221 S100 ;Reset Flowrate

G28 ;Home

G92 E0 ;Reset Extruder
G1 Z2.0 F3000 ;Move Z Axis up
G1 X10.1 Y20 Z0.28 F5000.0 ;Move to start position
G1 X10.1 Y200.0 Z0.28 F1500.0 E15 ;Draw the first line
G1 X10.4 Y200.0 Z0.28 F5000.0 ;Move to side a little
G1 X10.4 Y20 Z0.28 F1500.0 E30 ;Draw the second line
G92 E0 ;Reset Extruder
G1 Z2.0 F3000 ;Move Z Axis up

G92 E0
G92 E0
G1 F2700 E-5
;LAYER_COUNT:331
;LAYER:0
M107
G0 F1800 X98.668 Y86.561 Z0.16
;TYPE:SKIRT
G1 F2700 E0
G1 F600 X99.57 Y86.614 E0.02885
G1 X100.463 Y86.746 E0.05767
G1 X101.341 Y86.957 E0.08651
G1 X102.197 Y87.245 E0.11534
G1 X103.024 Y87.607 E0.14417
G1 X103.816 Y88.042 E0.17302
G1 X104.567 Y88.544 E0.20186
G1 X105.27 Y89.111 E0.2307
G1 X105.92 Y89.738 E0.25954
G1 X106.512 Y90.42 E0.28837
G1 X107.042 Y91.151 E0.3172
G1 X107.504 Y91.927 E0.34604
G1 X107.897 Y92.74 E0.37487
G1 X108.215 Y93.585 E0.4037
G1 X108.458 Y94.455 E0.43254
G1 X108.623 Y95.343 E0.46138
G1 X108.718 Y96.474 E0.49762
G1 X108.731 Y97.079 E0.51694
G1 X108.731 Y103.623 E0.72589
G1 X108.722 Y104.364 E0.74955
G1 X108.671 Y105.266 E0.7784
G1 X108.541 Y106.159 E0.80721
G1 X108.332 Y107.038 E0.83606
G1 X108.046 Y107.894 E0.86488
G1 X107.685 Y108.722 E0.89372
G1 X107.253 Y109.515 E0.92255
G1 X106.752 Y110.267 E0.9514
G1 X106.187 Y110.971 E0.98023
G1 X105.561 Y111.623 E1.00909
G1 X104.881 Y112.216 E1.0379
G1 X104.15 Y112.747 E1.06674
G1 X103.376 Y113.212 E1.09558
G1 X102.563 Y113.606 E1.12442
G1 X101.719 Y113.926 E1.15324
G1 X100.85 Y114.171 E1.18207
G1 X99.962 Y114.338 E1.21092
G1 X98.807 Y114.436 E1.24793
G1 X98.213 Y114.449 E1.2669
G1 X97.284 Y114.449 E1.29657
G1 X96.586 Y114.44 E1.31886
G1 X95.685 Y114.389 E1.34767
G1 X94.791 Y114.257 E1.37653
G1 X93.913 Y114.048 E1.40534
G1 X93.056 Y113.761 E1.4342
G1 X92.229 Y113.4 E1.46301
G1 X91.436 Y112.967 E1.49186
G1 X90.685 Y112.466 E1.52069
G1 X89.981 Y111.9 E1.54953
G1 X89.33 Y111.274 E1.57837
G1 X88.737 Y110.593 E1.6072
G1 X88.207 Y109.862 E1.63603
G1 X87.743 Y109.087 E1.66487
G1 X87.349 Y108.274 E1.69372
G1 X87.029 Y107.43 E1.72254
G1 X86.785 Y106.56 E1.75139
G1 X86.619 Y105.672 E1.78023
G1 X86.522 Y104.517 E1.81724
G1 X86.509 Y103.908 E1.83669
G1 X86.51 Y97.271 E2.04861
G1 X86.52 Y96.606 E2.06984
G1 X86.574 Y95.704 E2.0987
G1 X86.707 Y94.811 E2.12752
G1 X86.918 Y93.933 E2.15636
G1 X87.207 Y93.077 E2.1852
G1 X87.57 Y92.25 E2.21404
G1 X88.004 Y91.459 E2.24285
G1 X88.507 Y90.708 E2.27171
G1 X89.075 Y90.006 E2.30054
G1 X89.702 Y89.356 E2.32938
G1 X90.384 Y88.764 E2.35822
G1 X91.116 Y88.235 E2.38705
G1 X91.892 Y87.773 E2.41589
G1 X92.706 Y87.382 E2.44472
G1 X93.551 Y87.063 E2.47356
G1 X94.421 Y86.821 E2.5024
G1 X95.309 Y86.657 E2.53123
G1 X96.432 Y86.563 E2.56721
G1 X97.039 Y86.55 E2.5866
G1 X97.97 Y86.551 E2.61632
G1 X98.668 Y86.561 E2.63861
G0 F1800 X98.674 Y86.161
G1 F600 X99.593 Y86.214 E2.66801
G1 X100.504 Y86.347 E2.6974
G1 X101.4 Y86.558 E2.72679
G1 X102.274 Y86.846 E2.75618
G1 X103.121 Y87.209 E2.7856
G1 X103.932 Y87.644 E2.81498
G1 X104.702 Y88.148 E2.84437
G1 X105.426 Y88.717 E2.87377
G1 X106.098 Y89.347 E2.90318
G1 X106.713 Y90.032 E2.93258
G1 X107.266 Y90.768 E2.96197
G1 X107.753 Y91.549 E2.99136
G1 X108.17 Y92.37 E3.02076
G1 X108.515 Y93.224 E3.05017
G1 X108.784 Y94.104 E3.07955
G1 X108.976 Y95.005 E3.10897
G1 X109.089 Y95.918 E3.13834
G1 X109.118 Y96.463 E3.15577
G1 X109.131 Y97.079 E3.17544
G1 X109.131 Y103.628 E3.38455
G1 X109.122 Y104.369 E3.40821
G1 X109.071 Y105.288 E3.4376
G1 X108.94 Y106.199 E3.46698
G1 X108.731 Y107.096 E3.49639
G1 X108.445 Y107.971 E3.52579
G1 X108.084 Y108.818 E3.55518
G1 X107.65 Y109.63 E3.58458
G1 X107.148 Y110.402 E3.61398
G1 X106.581 Y111.127 E3.64337
G1 X105.953 Y111.8 E3.67276
G1 X105.269 Y112.416 E3.70216
G1 X104.534 Y112.971 E3.73156
G1 X103.754 Y113.459 E3.76094
G1 X102.934 Y113.879 E3.79036
G1 X102.081 Y114.225 E3.81975
G1 X101.201 Y114.496 E3.84915
G1 X100.301 Y114.69 E3.87855
G1 X99.388 Y114.805 E3.90793
G1 X98.818 Y114.836 E3.92615
G1 X98.214 Y114.849 E3.94544
G1 X97.279 Y114.849 E3.9753
G1 X96.581 Y114.84 E3.99759
G1 X95.662 Y114.788 E4.02698
G1 X94.751 Y114.657 E4.05637
G1 X93.855 Y114.447 E4.08575
G1 X92.98 Y114.16 E4.11515
G1 X92.133 Y113.798 E4.14456
G1 X91.321 Y113.364 E4.17396
G1 X90.55 Y112.862 E4.20334
G1 X89.825 Y112.294 E4.23275
G1 X89.152 Y111.665 E4.26216
G1 X88.537 Y110.981 E4.29153
G1 X87.983 Y110.246 E4.32092
G1 X87.495 Y109.465 E4.35032
G1 X87.076 Y108.645 E4.37972
G1 X86.73 Y107.792 E4.40912
G1 X86.46 Y106.912 E4.43851
G1 X86.267 Y106.011 E4.46793
G1 X86.153 Y105.098 E4.49731
G1 X86.122 Y104.527 E4.51556
G1 X86.109 Y103.908 E4.53533
G1 X86.11 Y97.265 E4.74744
G1 X86.12 Y96.6 E4.76868
G1 X86.174 Y95.681 E4.79807
G1 X86.307 Y94.77 E4.82747
G1 X86.519 Y93.874 E4.85687
G1 X86.808 Y92.999 E4.88629
G1 X87.172 Y92.154 E4.91567
G1 X87.607 Y91.343 E4.94505
G1 X88.112 Y90.572 E4.97448
G1 X88.681 Y89.849 E5.00386
G1 X89.311 Y89.177 E5.03327
G1 X89.997 Y88.563 E5.06267
G1 X90.733 Y88.011 E5.09204
G1 X91.515 Y87.524 E5.12146
G1 X92.336 Y87.108 E5.15084
G1 X93.19 Y86.764 E5.18024
G1 X94.07 Y86.495 E5.20962
G1 X94.971 Y86.304 E5.23903
G1 X95.885 Y86.192 E5.26843
G1 X96.421 Y86.163 E5.28557
G1 X97.039 Y86.15 E5.30531
G1 X97.976 Y86.151 E5.33523
G1 X98.674 Y86.161 E5.35752
G0 F1800 X98.68 Y85.761
G1 F600 X99.616 Y85.815 E5.38745
G1 X100.544 Y85.947 E5.41738
G1 X101.458 Y86.159 E5.44734
G1 X102.35 Y86.448 E5.47728
G1 X103.215 Y86.811 E5.50723
G1 X104.045 Y87.247 E5.53717
G1 X104.836 Y87.752 E5.56713
G1 X105.58 Y88.323 E5.59708
G1 X106.273 Y88.955 E5.62702
G1 X106.91 Y89.643 E5.65696
G1 X107.485 Y90.384 E5.68691
G1 X107.996 Y91.17 E5.71684
G1 X108.438 Y91.998 E5.74681
G1 X108.807 Y92.86 E5.77675
G1 X109.102 Y93.75 E5.80669
G1 X109.32 Y94.662 E5.83663
G1 X109.46 Y95.59 E5.8666
G1 X109.518 Y96.452 E5.89418
G1 X109.531 Y97.079 E5.91421
G1 X109.531 Y103.633 E6.12347
G1 X109.522 Y104.374 E6.14713
G1 X109.471 Y105.31 E6.17707
G1 X109.34 Y106.239 E6.20702
G1 X109.13 Y107.153 E6.23697
G1 X108.844 Y108.046 E6.26691
G1 X108.482 Y108.911 E6.29685
G1 X108.048 Y109.743 E6.32681
G1 X107.544 Y110.534 E6.35676
G1 X106.976 Y111.28 E6.38669
G1 X106.345 Y111.974 E6.41664
G1 X105.658 Y112.612 E6.44658
G1 X104.919 Y113.189 E6.47652
G1 X104.133 Y113.702 E6.50649
G1 X103.307 Y114.145 E6.53641
G1 X102.446 Y114.517 E6.56636
G1 X101.556 Y114.814 E6.59632
G1 X100.644 Y115.034 E6.62627
G1 X99.717 Y115.175 E6.65621
G1 X98.829 Y115.236 E6.68463
G1 X98.214 Y115.249 E6.70427
G1 X97.274 Y115.249 E6.73429
G1 X96.576 Y115.24 E6.75658
G1 X95.64 Y115.188 E6.78651
G1 X94.711 Y115.056 E6.81647
G1 X93.797 Y114.846 E6.84641
G1 X92.904 Y114.559 E6.87636
G1 X92.039 Y114.196 E6.90632
G1 X91.208 Y113.762 E6.93625
G1 X90.417 Y113.258 E6.9662
G1 X89.672 Y112.688 E6.99615
G1 X88.978 Y112.057 E7.0261
G1 X88.341 Y111.37 E7.05601
G1 X87.764 Y110.63 E7.08598
G1 X87.252 Y109.844 E7.11593
G1 X86.809 Y109.017 E7.14588
G1 X86.438 Y108.156 E7.17582
G1 X86.142 Y107.266 E7.20577
G1 X85.923 Y106.354 E7.23571
G1 X85.782 Y105.427 E7.26565
G1 X85.722 Y104.538 E7.2941
G1 X85.709 Y103.908 E7.31422
G1 X85.71 Y97.259 E7.52652
G1 X85.72 Y96.594 E7.54776
G1 X85.774 Y95.657 E7.57773
G1 X85.908 Y94.729 E7.60767
G1 X86.12 Y93.815 E7.63762
G1 X86.409 Y92.923 E7.66756
G1 X86.774 Y92.059 E7.69751
G1 X87.21 Y91.229 E7.72745
G1 X87.716 Y90.439 E7.7574
G1 X88.287 Y89.695 E7.78735
G1 X88.919 Y89.002 E7.81729
G1 X89.608 Y88.366 E7.84723
G1 X90.349 Y87.791 E7.87718
G1 X91.136 Y87.281 E7.90713
G1 X91.964 Y86.84 E7.93708
G1 X92.826 Y86.471 E7.96702
G1 X93.717 Y86.177 E7.99698
G1 X94.629 Y85.959 E8.02692
G1 X95.556 Y85.821 E8.05684
G1 X96.41 Y85.763 E8.08417
G1 X97.039 Y85.75 E8.10426
G1 X97.982 Y85.751 E8.13437
G1 X98.68 Y85.761 E8.15666
G1 F2700 E3.15666
;MESH:speedDrive_mount_E5P_dual_gear.STL
G0 F1800 X97.932 Y103.65
;TYPE:WALL-INNER
G1 F2700 E8.15666
G1 F600 X97.733 Y103.65 E8.16301
G1 X97.309 Y103.65 E8.17655
G1 X97.309 Y97.35 E8.37771
G1 X97.931 Y97.35 E8.39757
G1 X97.932 Y103.451 E8.59237
G1 X97.932 Y103.65 E8.59648
G0 F1800 X98.332 Y104.05
;TYPE:WALL-OUTER
G1 F600 X96.909 Y104.05 E8.64192
G1 X96.909 Y96.95 E8.86862
G1 X98.331 Y96.95 E8.91402
G1 X98.332 Y104.05 E9.14073
G0 F1800 X98.232 Y104.05
G0 X97.891 Y103.609
G0 X97.771 Y103.428
;TYPE:SKIN
G1 F600 X97.469 Y103.125 E9.15439
G0 F1800 X97.771 Y102.862
G1 F600 X97.469 Y102.56 E9.16802
G0 F1800 X97.771 Y102.297
G1 F600 X97.469 Y101.994 E9.18168
G0 F1800 X97.771 Y101.731
G1 F600 X97.469 Y101.428 E9.19534
G0 F1800 X97.771 Y101.165
G1 F600 X97.469 Y100.863 E9.20898
G0 F1800 X97.771 Y100.6
G1 F600 X97.469 Y100.297 E9.22264
G0 F1800 X97.77 Y100.033
G1 F600 X97.469 Y99.731 E9.23625
G0 F1800 X97.77 Y99.468
G1 F600 X97.469 Y99.166 E9.24987
G0 F1800 X97.77 Y98.902
G1 F600 X97.469 Y98.6 E9.26348
G0 F1800 X97.77 Y98.336
G1 F600 X97.469 Y98.034 E9.2771
G0 F1800 X97.77 Y97.77
G1 F600 X97.509 Y97.509 E9.28888
;MESH:NONMESH
G0 F300 X97.509 Y97.509 Z0.36
G0 F1800 X98.731 Y97.35
;TIME_ELAPSED:37.706522
;LAYER:1
M140 S45
M106 S85
;TYPE:WALL-INNER
;MESH:speedDrive_mount_E5P_dual_gear.STL
G1 F848.8 X98.732 Y103.451 E9.4918
G1 X98.732 Y103.65 E9.49842
G1 X98.533 Y103.65 E9.5027
G1 X96.51 Y103.65 E9.56999
G1 X96.509 Y97.549 E9.77291
G1 X96.509 Y97.35 E9.77953
G1 X96.708 Y97.35 E9.78381
G1 X98.731 Y97.35 E9.85109
G0 F6900 X99.131 Y96.95
;TYPE:WALL-OUTER
G1 F848.8 X99.132 Y104.05 E10.08724
G1 X96.11 Y104.05 E10.18775
G1 X96.109 Y96.95 E10.4239
G1 X99.131 Y96.95 E10.52441
G0 F6900 X99.131 Y97.05
G0 X98.691 Y97.39
G0 X98.341 Y97.74
;TYPE:SKIN
G1 F848.8 X98.342 Y103.26 E10.70801
G1 X96.9 Y103.26 E10.75597
G1 X96.899 Y97.74 E10.93957
G1 X98.341 Y97.74 E10.98753
G0 F6900 X97.059 Y98.101
G1 F848.8 X97.262 Y97.898 E10.99707
G0 F6900 X97.827 Y97.899
G1 F848.8 X97.059 Y98.667 E11.0332
G0 F6900 X97.059 Y99.233
G1 F848.8 X98.18 Y98.112 E11.08593
G0 F6900 X98.18 Y98.678
G1 F848.8 X97.059 Y99.798 E11.13863
G0 F6900 X97.059 Y100.364
G1 F848.8 X98.18 Y99.243 E11.19136
G0 F6900 X98.18 Y99.809
G1 F848.8 X97.06 Y100.929 E11.24404
G0 F6900 X97.06 Y101.495
G1 F848.8 X98.18 Y100.375 E11.29672
G0 F6900 X98.181 Y100.94
G1 F848.8 X97.06 Y102.06 E11.34943
G0 F6900 X97.06 Y102.626
G1 F848.8 X98.181 Y101.505 E11.40216
G0 F6900 X98.181 Y102.071
G1 F848.8 X97.153 Y103.098 E11.45049
G0 F6900 X97.719 Y103.098
G1 F848.8 X98.181 Y102.637 E11.47219
G1 F2700 E6.47219
G0 F6900 X124.784 Y127.05
;TYPE:WALL-OUTER
G1 F2700 E11.47219
G1 F848.8 X124.784 Y126.525 E11.48966
G1 X124.783 Y92.95 E12.60637
G1 X124.904 Y92.95 E12.61039
G1 X124.904 Y127.05 E13.74456
G1 X124.784 Y127.05 E13.74855
G0 F6900 X124.784 Y126.95
G1 F2700 E8.74855
;MESH:NONMESH
G0 F300 X124.784 Y126.95 Z0.56
G0 F6900 X99.3 Y97.35
;TIME_ELAPSED:49.898346
;LAYER:2
M106 S170
;TYPE:WALL-INNER
;MESH:speedDrive_mount_E5P_dual_gear.STL
G1 F2700 E13.74855
G1 F1206.4 X99.301 Y103.451 E13.95147
G1 X99.301 Y103.65 E13.95809
G1 X99.102 Y103.65 E13.96237
G1 X95.941 Y103.65 E14.06751
G1 X95.94 Y97.549 E14.27043
G1 X95.94 Y97.35 E14.27705
G1 X96.139 Y97.35 E14.28133
G1 X99.3 Y97.35 E14.38646
G0 F12000 X99.7 Y96.95
;TYPE:WALL-OUTER
G1 F1206.4 X99.701 Y104.05 E14.62261
G1 X95.541 Y104.05 E14.76097
G1 X95.54 Y96.95 E14.99712
G1 X99.7 Y96.95 E15.13548
G0 F12000 X99.7 Y97.05
G0 X99.26 Y97.39
G0 X98.91 Y97.74
;TYPE:SKIN
G1 F1206.4 X98.911 Y103.26 E15.31908
G1 X96.331 Y103.26 E15.40489
G1 X96.33 Y97.74 E15.58849
G1 X98.91 Y97.74 E15.6743
G0 F12000 X98.75 Y98.184
G1 F1206.4 X98.465 Y97.899 E15.6877
G0 F12000 X97.899 Y97.899
G1 F1206.4 X98.75 Y98.75 E15.72773
G0 F12000 X98.75 Y99.315
G1 F1206.4 X97.333 Y97.899 E15.79436
G0 F12000 X96.768 Y97.899
G1 F1206.4 X98.75 Y99.881 E15.88759
G0 F12000 X98.75 Y100.447
G1 F1206.4 X96.489 Y98.186 E15.99394
G0 F12000 X96.489 Y98.752
G1 F1206.4 X98.75 Y101.013 E16.10029
G0 F12000 X98.75 Y101.579
G1 F1206.4 X96.489 Y99.318 E16.20664
G0 F12000 X96.489 Y99.883
G1 F1206.4 X98.75 Y102.145 E16.31301
G0 F12000 X98.75 Y102.71
G1 F1206.4 X96.489 Y100.449 E16.41936
G0 F12000 X96.49 Y101.015
G1 F1206.4 X98.574 Y103.099 E16.51739
G0 F12000 X98.008 Y103.099
G1 F1206.4 X96.49 Y101.581 E16.58879
G0 F12000 X96.49 Y102.147
G1 F1206.4 X97.442 Y103.099 E16.63357
G0 F12000 X96.877 Y103.099
G1 F1206.4 X96.49 Y102.712 E16.65177
G1 F2700 E11.65177
G0 F12000 X124.584 Y127.05
;TYPE:WALL-OUTER
G1 F2700 E16.65177
G1 F1206.4 X124.584 Y125.967 E16.68779
G1 X124.583 Y92.95 E17.78594
G1 X125.104 Y92.95 E17.80327
G1 X125.104 Y127.05 E18.93744
G1 X124.584 Y127.05 E18.95474
G0 F12000 X124.584 Y126.95
G0 X124.826 Y126.806
;TYPE:SKIN
G1 F1206.4 X124.843 Y126.54 E18.95854
G1 X124.842 Y113.529 E19.14427
G1 X124.842 Y93.447 E19.43093
G0 F12000 X124.928 Y93.25
G1 F1206.4 X124.803 Y93.125 E19.43387
G1 F2700 E14.43387
;MESH:NONMESH
G0 F300 X124.803 Y93.125 Z0.76
G0 F12000 X99.736 Y97.35
;TIME_ELAPSED:62.625493
;LAYER:3
M106 S255
;TYPE:WALL-INNER
;MESH:speedDrive_mount_E5P_dual_gear.STL
G1 F2700 E19.43387
G1 F1536.9 X99.737 Y103.451 E19.63679
G1 X99.737 Y103.65 E19.6434
G1 X99.538 Y103.65 E19.64769
G1 X95.504 Y103.65 E19.78186
G1 X95.503 Y97.549 E19.98478
G1 X95.503 Y97.35 E19.9914
G1 X95.702 Y97.35 E19.99568
G1 X99.736 Y97.35 E20.12985
G0 F12000 X100.136 Y96.95
;TYPE:WALL-OUTER
G1 F1536.9 X100.137 Y104.05 E20.366
G1 X95.104 Y104.05 E20.5334
G1 X95.103 Y96.95 E20.76954
G1 X100.136 Y96.95 E20.93694
G0 F12000 X100.136 Y97.05
G0 X99.696 Y97.39
G0 X99.346 Y97.74
;TYPE:SKIN
G1 F1536.9 X99.347 Y103.26 E21.12054
G1 X95.894 Y103.26 E21.23538
G1 X95.893 Y97.74 E21.41898
G1 X99.346 Y97.74 E21.53383
G1 F2700 E16.53383
G0 F12000 X96.053 Y97.976
G1 F2700 E21.53383
G1 F1536.9 X96.13 Y97.899 E21.53745
G0 F12000 X96.696 Y97.899
G1 F1536.9 X96.053 Y98.542 E21.56769
G0 F12000 X96.053 Y99.108
G1 F1536.9 X97.261 Y97.899 E21.62454
G0 F12000 X97.827 Y97.899
G1 F1536.9 X96.053 Y99.673 E21.70798
G0 F12000 X96.053 Y100.239
G1 F1536.9 X98.393 Y97.899 E21.81805
G0 F12000 X98.958 Y97.899
G1 F1536.9 X96.054 Y100.804 E21.95467
G0 F12000 X96.054 Y101.37
G1 F1536.9 X99.185 Y98.239 E22.10194
G0 F12000 X99.185 Y98.804
G1 F1536.9 X96.054 Y101.935 E22.24921
G0 F12000 X96.054 Y102.501
G1 F1536.9 X99.185 Y99.37 E22.39649
G0 F12000 X99.185 Y99.935
G1 F1536.9 X96.054 Y103.067 E22.54378
G0 F12000 X96.587 Y103.099
G1 F1536.9 X99.185 Y100.501 E22.66598
G0 F12000 X99.185 Y101.066
G1 F1536.9 X97.152 Y103.099 E22.76161
G0 F12000 X97.718 Y103.099
G1 F1536.9 X99.186 Y101.631 E22.83066
G0 F12000 X99.186 Y102.197
G1 F1536.9 X98.284 Y103.099 E22.87309
G0 F12000 X98.849 Y103.099
G1 F1536.9 X99.186 Y102.763 E22.88891
G1 F2700 E17.88891
G0 F12000 X124.784 Y126.65
;TYPE:WALL-INNER
G1 F2700 E22.88891
G1 F1536.9 X124.784 Y125.41 E22.93016
G1 X124.783 Y93.35 E23.99648
G1 X124.904 Y93.35 E24.0005
G1 X124.904 Y125.41 E24.32254
G1 X124.904 Y126.65 E24.33494
G1 X124.784 Y126.65 E24.33893
G0 F12000 X124.384 Y127.05
;TYPE:WALL-OUTER
G1 F1536.9 X124.384 Y125.41 E24.39348
G1 X124.383 Y92.95 E25.4731
G1 X125.304 Y92.95 E25.50373
G1 X125.304 Y127.05 E26.6379
G1 X124.384 Y127.05 E26.6685
G0 F12000 X124.384 Y126.95
G0 X124.824 Y126.61
G1 F2700 E21.6685
;MESH:NONMESH
G0 F300 X124.824 Y126.61 Z0.96
G0 F12000 X100.099 Y97.35
;TIME_ELAPSED:76.334773
;LAYER:4
;TYPE:WALL-INNER
;MESH:speedDrive_mount_E5P_dual_gear.STL
G1 F2700 E26.6685
G1 F1813 X100.1 Y103.451 E26.87142
G1 X100.1 Y103.65 E26.87804
G1 X99.901 Y103.65 E26.88232
G1 X95.142 Y103.65 E27.04061
G1 X95.141 Y97.549 E27.24353
G1 X95.141 Y97.35 E27.25015
G1 X95.34 Y97.35 E27.25443
G1 X100.099 Y97.35 E27.41272
G0 F12000 X100.499 Y96.95
;TYPE:WALL-OUTER
G1 F1813 X100.5 Y104.05 E27.64886
G1 X94.742 Y104.05 E27.84037
G1 X94.741 Y96.95 E28.07652
G1 X100.499 Y96.95 E28.26803
G0 F12000 X100.499 Y97.05
G0 X100.059 Y97.39
