;FLAVOR:Marlin
;TIME:1978
;Filament used: 1.029m
;Layer height: 0.2
;MINX:74.73
;MINY:84.153
;MINZ:0.16
;MAXX:145.26
;MAXY:135.858
;MAXZ:13.96
;Generated with Cura_SteamEngine 4.6.1
M140 S50
M105
M190 S50
M104 S200
M105
M109 S200
M82 ;absolute extrusion mode
M201 X500.00 Y500.00 Z100.00 E5000.00 ;Setup machine max acceleration
M203 X500.00 Y500.00 Z10.00 E50.00 ;Setup machine max feedrate
M204 P500.00 R1000.00 T500.00 ;Setup Print/Retract/Travel acceleration
M205 X8.00 Y8.00 Z0.40 E5.00 ;Setup Jerk
M220 S100 ;Reset Feedrate
M221 S100 ;Reset Flowrate

G28 ;Home

G92 E0 ;Reset Extruder
G1 Z2.0 F3000 ;Move Z Axis up
G1 X10.1 Y20 Z0.28 F5000.0 ;Move to start position
G1 X10.1 Y200.0 Z0.28 F1500.0 E15 ;Draw the first line
G1 X10.4 Y200.0 Z0.28 F5000.0 ;Move to side a little
G1 X10.4 Y20 Z0.28 F1500.0 E30 ;Draw the second line
G92 E0 ;Reset Extruder
G1 Z2.0 F3000 ;Move Z Axis up

G92 E0
G92 E0
G1 F2700 E-5
;LAYER_COUNT:70
;LAYER:0
M107
G0 F1800 X109.12 Y85.029 Z0.16
;TYPE:SKIRT
G1 F2700 E0
G1 F600 X110.011 Y85.173 E0.02882
G1 X110.88 Y85.393 E0.05744
G1 X111.206 Y85.491 E0.06831
G1 X112.059 Y85.789 E0.09716
G1 X112.882 Y86.161 E0.126
G1 X113.697 Y86.623 E0.15591
G1 X113.915 Y86.76 E0.16413
G1 X114.978 Y87.527 E0.20599
G1 X115.252 Y87.753 E0.21733
G1 X115.504 Y87.968 E0.2279
G1 X116.191 Y88.579 E0.25726
G1 X117.268 Y89.584 E0.3043
G1 X119.226 Y91.359 E0.38868
G1 X121.156 Y93.013 E0.46984
G1 X123.131 Y94.612 E0.55098
G1 X125.139 Y96.143 E0.6316
G1 X127.212 Y97.634 E0.71313
G1 X129.315 Y99.059 E0.79425
G1 X131.454 Y100.422 E0.87523
G1 X133.635 Y101.725 E0.95635
G1 X134.905 Y102.435 E1.00281
G1 X135.93 Y103.023 E1.04054
G1 X136.278 Y103.232 E1.0535
G1 X136.509 Y103.377 E1.06221
G1 X136.903 Y103.637 E1.07728
G1 X137.627 Y104.152 E1.10565
G1 X138.255 Y104.653 E1.1313
G1 X138.69 Y105.029 E1.14966
G1 X139.015 Y105.322 E1.16363
G1 X139.188 Y105.485 E1.17122
G1 X139.675 Y105.973 E1.19323
G1 X140.055 Y106.382 E1.21106
G1 X140.325 Y106.691 E1.22416
G1 X140.557 Y106.967 E1.23568
G1 X140.933 Y107.442 E1.25502
G1 X141.18 Y107.774 E1.26823
G1 X141.503 Y108.234 E1.28618
G1 X141.722 Y108.565 E1.29885
G1 X142.063 Y109.118 E1.31959
G1 X142.289 Y109.512 E1.3341
G1 X142.57 Y110.037 E1.35311
G1 X142.732 Y110.362 E1.36471
G1 X142.958 Y110.846 E1.38176
G1 X143.111 Y111.198 E1.39402
G1 X143.283 Y111.621 E1.4086
G1 X143.374 Y111.859 E1.41673
G1 X143.52 Y112.267 E1.43057
G1 X143.621 Y112.569 E1.44074
G1 X143.766 Y113.038 E1.45641
G1 X143.857 Y113.361 E1.46713
G1 X143.969 Y113.794 E1.48141
G1 X144.043 Y114.109 E1.49174
G1 X144.131 Y114.525 E1.50531
G1 X144.184 Y114.802 E1.51432
G1 X144.26 Y115.25 E1.52883
G1 X144.307 Y115.573 E1.53925
G1 X144.391 Y116.367 E1.56474
G1 X144.438 Y117.076 E1.58743
G1 X144.46 Y117.838 E1.61177
G1 X144.457 Y118.191 E1.62304
G1 X144.443 Y118.632 E1.63713
G1 X144.429 Y118.902 E1.64577
G1 X144.395 Y119.357 E1.66033
G1 X144.358 Y119.739 E1.67259
G1 X144.277 Y120.375 E1.69306
G1 X144.213 Y120.773 E1.70593
G1 X144.112 Y121.317 E1.7236
G1 X144.001 Y121.822 E1.74011
G1 X143.922 Y122.141 E1.7506
G1 X143.765 Y122.713 E1.76954
G1 X143.623 Y123.166 E1.7847
G1 X143.486 Y123.571 E1.79835
G1 X143.288 Y124.107 E1.81659
G1 X143.161 Y124.423 E1.82747
G1 X143.011 Y124.778 E1.83977
G1 X142.89 Y125.049 E1.84925
G1 X142.527 Y125.78 E1.87531
G1 X142.191 Y126.395 E1.89769
G1 X141.876 Y126.932 E1.91756
G1 X141.509 Y127.501 E1.93918
G1 X141.238 Y127.888 E1.95427
G1 X141.015 Y128.192 E1.96631
G1 X140.769 Y128.515 E1.97927
G1 X140.624 Y128.697 E1.9867
G1 X140.271 Y129.116 E2.00419
G1 X140 Y129.421 E2.01722
G1 X139.695 Y129.749 E2.03152
G1 X139.466 Y129.985 E2.04202
G1 X139.001 Y130.435 E2.06268
G1 X138.676 Y130.73 E2.0767
G1 X138.237 Y131.106 E2.09515
G1 X137.933 Y131.352 E2.10764
G1 X137.588 Y131.619 E2.12157
G1 X137.372 Y131.779 E2.13015
G1 X136.984 Y132.053 E2.14532
G1 X136.747 Y132.212 E2.15443
G1 X136.26 Y132.522 E2.17286
G1 X135.51 Y132.947 E2.20039
G1 X134.801 Y133.31 E2.22582
G1 X134.055 Y133.655 E2.25207
G1 X133.456 Y133.903 E2.27277
G1 X132.592 Y134.216 E2.30211
G1 X132.04 Y134.384 E2.32053
G1 X131.758 Y134.463 E2.32988
G1 X131.319 Y134.575 E2.34435
G1 X130.954 Y134.66 E2.35631
G1 X130.356 Y134.781 E2.3758
G1 X130.01 Y134.84 E2.387
G1 X129.431 Y134.922 E2.40567
G1 X128.976 Y134.973 E2.42029
G1 X128.366 Y135.025 E2.43984
G1 X127.912 Y135.047 E2.45435
G1 X127.511 Y135.058 E2.46716
G1 X126.616 Y135.043 E2.49574
G1 X125.921 Y135.001 E2.51798
G1 X125.279 Y134.942 E2.53856
G1 X124.973 Y134.904 E2.54841
G1 X124.414 Y134.819 E2.56646
G1 X123.019 Y134.567 E2.61172
G1 X120.369 Y134.119 E2.69754
G1 X117.888 Y133.773 E2.77752
G1 X115.323 Y133.488 E2.85993
G1 X112.826 Y133.282 E2.93993
G1 X110.312 Y133.146 E3.02031
G1 X106.602 Y133.072 E3.1388
G1 X91.358 Y133.071 E3.62553
G1 X90.414 Y133.057 E3.65568
G1 X89.805 Y133.03 E3.67514
G1 X89.497 Y133.007 E3.685
G1 X88.808 Y132.932 E3.70713
G1 X88.348 Y132.866 E3.72197
G1 X87.623 Y132.735 E3.7455
G1 X87.38 Y132.682 E3.75344
G1 X86.833 Y132.546 E3.77143
G1 X86.479 Y132.448 E3.78316
G1 X85.755 Y132.218 E3.80742
G1 X85.468 Y132.115 E3.81715
G1 X84.872 Y131.881 E3.8376
G1 X84.573 Y131.752 E3.848
G1 X84.012 Y131.489 E3.86778
G1 X83.745 Y131.354 E3.87733
G1 X83.127 Y131.014 E3.89985
G1 X82.756 Y130.793 E3.91364
G1 X81.788 Y130.138 E3.95096
G1 X81.315 Y129.777 E3.96996
G1 X80.675 Y129.246 E3.99651
G1 X80.422 Y129.018 E4.00739
G1 X79.932 Y128.546 E4.02911
G1 X79.732 Y128.34 E4.03828
G1 X79.295 Y127.86 E4.05901
G1 X79.084 Y127.613 E4.06938
G1 X78.652 Y127.072 E4.09148
G1 X78.461 Y126.815 E4.10171
G1 X78.09 Y126.281 E4.12247
G1 X77.911 Y126.005 E4.13297
G1 X77.561 Y125.423 E4.15466
G1 X77.358 Y125.059 E4.16797
G1 X77.045 Y124.451 E4.1898
G1 X76.958 Y124.267 E4.1963
G1 X76.713 Y123.706 E4.21585
G1 X76.589 Y123.397 E4.22648
G1 X76.354 Y122.749 E4.24849
G1 X76.239 Y122.395 E4.26037
G1 X76.059 Y121.775 E4.28098
G1 X75.965 Y121.408 E4.29308
G1 X75.739 Y120.254 E4.33063
G1 X75.657 Y119.652 E4.35003
G1 X75.577 Y118.795 E4.37751
G1 X75.556 Y118.384 E4.39065
G1 X75.544 Y118.02 E4.40228
G1 X75.53 Y117.011 E4.4345
G1 X75.537 Y112.527 E4.57767
G1 X75.586 Y111.124 E4.6225
G1 X75.629 Y110.439 E4.64441
G1 X75.655 Y110.115 E4.65479
G1 X75.757 Y109.082 E4.68793
G1 X75.837 Y108.449 E4.70831
G1 X75.882 Y108.138 E4.71834
G1 X76.054 Y107.079 E4.7526
G1 X76.265 Y106 E4.7877
G1 X76.391 Y105.433 E4.80625
G1 X76.468 Y105.112 E4.81679
G1 X76.677 Y104.297 E4.84365
G1 X76.764 Y103.98 E4.85415
G1 X77.012 Y103.141 E4.88208
G1 X77.279 Y102.315 E4.9098
G1 X77.391 Y101.989 E4.92081
G1 X77.679 Y101.203 E4.94753
G1 X77.987 Y100.422 E4.97434
G1 X78.122 Y100.098 E4.98555
G1 X78.512 Y99.209 E5.01654
G1 X78.794 Y98.607 E5.03777
G1 X78.94 Y98.308 E5.0484
G1 X79.283 Y97.634 E5.07254
G1 X79.439 Y97.341 E5.08314
G1 X79.902 Y96.509 E5.11354
G1 X80.489 Y95.526 E5.1501
G1 X80.76 Y95.097 E5.1663
G1 X80.948 Y94.81 E5.17726
G1 X81.489 Y94.014 E5.20799
G1 X81.667 Y93.762 E5.21784
G1 X82.165 Y93.083 E5.24473
G1 X82.846 Y92.212 E5.28003
G1 X83.334 Y91.622 E5.30448
G1 X83.546 Y91.374 E5.31489
G1 X84.173 Y90.67 E5.34499
G1 X84.699 Y90.109 E5.36955
G1 X84.928 Y89.874 E5.38003
G1 X85.576 Y89.232 E5.40915
G1 X86.19 Y88.654 E5.43608
G1 X86.449 Y88.418 E5.44726
G1 X87.179 Y87.782 E5.47818
G1 X87.434 Y87.57 E5.48877
G1 X88.195 Y86.995 E5.51922
G1 X88.366 Y86.878 E5.52584
G1 X89.133 Y86.401 E5.55468
G1 X90.127 Y85.913 E5.59003
G1 X90.371 Y85.809 E5.5985
G1 X91.216 Y85.492 E5.62732
G1 X92.269 Y85.211 E5.66212
G1 X92.459 Y85.171 E5.66832
G1 X93.35 Y85.024 E5.69715
G1 X94.681 Y84.953 E5.73971
G1 X95.187 Y84.959 E5.75587
G1 X95.533 Y84.969 E5.76692
G1 X96.498 Y85.014 E5.79777
G1 X97.063 Y85.049 E5.81584
G1 X99.608 Y85.131 E5.89714
G1 X102.142 Y85.14 E5.97805
G1 X104.689 Y85.078 E6.0594
G1 X106.983 Y84.962 E6.13274
G1 X107.774 Y84.953 E6.158
G1 X108.219 Y84.965 E6.17222
G1 X109.12 Y85.029 E6.20106
G0 F1800 X109.148 Y84.63
G1 F600 X110.057 Y84.774 E6.23044
G1 X110.996 Y85.01 E6.26136
G1 X111.322 Y85.108 E6.27223
G1 X112.191 Y85.411 E6.30161
G1 X113.031 Y85.788 E6.33101
G1 X113.91 Y86.284 E6.36324
G1 X114.128 Y86.421 E6.37146
G1 X115.233 Y87.219 E6.41498
G1 X115.507 Y87.445 E6.42632
G1 X115.768 Y87.668 E6.43728
G1 X116.464 Y88.286 E6.467
G1 X117.565 Y89.314 E6.5151
G1 X119.489 Y91.058 E6.59801
G1 X121.405 Y92.699 E6.67856
G1 X123.397 Y94.312 E6.7604
G1 X125.369 Y95.816 E6.83959
G1 X127.448 Y97.312 E6.92137
G1 X129.532 Y98.724 E7.00175
G1 X131.656 Y100.077 E7.08216
G1 X133.844 Y101.384 E7.16353
G1 X135.105 Y102.088 E7.20965
G1 X136.13 Y102.676 E7.24738
G1 X136.721 Y103.038 E7.26951
G1 X137.131 Y103.309 E7.2852
G1 X137.678 Y103.693 E7.30654
G1 X137.863 Y103.829 E7.31387
G1 X138.517 Y104.351 E7.34059
G1 X138.952 Y104.727 E7.35895
G1 X139.289 Y105.031 E7.37344
G1 X139.462 Y105.194 E7.38103
G1 X139.962 Y105.695 E7.40363
G1 X140.351 Y106.113 E7.42186
G1 X140.631 Y106.433 E7.43544
G1 X140.863 Y106.709 E7.44695
G1 X141.254 Y107.203 E7.46707
G1 X141.501 Y107.535 E7.48028
G1 X141.836 Y108.013 E7.49892
G1 X142.055 Y108.344 E7.51159
G1 X142.41 Y108.919 E7.53317
G1 X142.636 Y109.313 E7.54767
G1 X142.928 Y109.858 E7.56741
G1 X143.09 Y110.183 E7.57901
G1 X143.324 Y110.687 E7.59675
G1 X143.477 Y111.039 E7.609
G1 X143.657 Y111.478 E7.62415
G1 X143.748 Y111.716 E7.63229
G1 X143.9 Y112.14 E7.64667
G1 X144.001 Y112.442 E7.65684
G1 X144.151 Y112.93 E7.67314
G1 X144.242 Y113.253 E7.68385
G1 X144.358 Y113.703 E7.69869
G1 X144.432 Y114.018 E7.70902
G1 X144.524 Y114.45 E7.72313
G1 X144.577 Y114.727 E7.73213
G1 X144.656 Y115.193 E7.74722
G1 X144.703 Y115.516 E7.75765
G1 X144.79 Y116.341 E7.78413
G1 X144.837 Y117.05 E7.80682
G1 X144.86 Y117.841 E7.83209
G1 X144.857 Y118.194 E7.84336
G1 X144.843 Y118.653 E7.85802
G1 X144.829 Y118.923 E7.86666
G1 X144.794 Y119.396 E7.8818
G1 X144.757 Y119.778 E7.89405
G1 X144.672 Y120.439 E7.91533
G1 X144.608 Y120.837 E7.9282
G1 X144.505 Y121.393 E7.94626
G1 X144.389 Y121.918 E7.96343
G1 X144.31 Y122.237 E7.97392
G1 X144.149 Y122.823 E7.99332
G1 X144.002 Y123.295 E8.00911
G1 X143.865 Y123.7 E8.02276
G1 X143.659 Y124.256 E8.04169
G1 X143.532 Y124.572 E8.05257
G1 X143.376 Y124.941 E8.06536
G1 X143.255 Y125.212 E8.07484
G1 X142.878 Y125.972 E8.10192
G1 X142.542 Y126.587 E8.1243
G1 X142.215 Y127.145 E8.14495
G1 X141.842 Y127.723 E8.16692
G1 X141.561 Y128.125 E8.18258
G1 X141.338 Y128.429 E8.19461
G1 X140.937 Y128.946 E8.21551
G1 X140.57 Y129.382 E8.2337
G1 X140.299 Y129.687 E8.24673
G1 X139.982 Y130.028 E8.2616
G1 X139.753 Y130.264 E8.2721
G1 X139.27 Y130.731 E8.29355
G1 X138.945 Y131.026 E8.30756
G1 X138.489 Y131.417 E8.32674
G1 X138.185 Y131.663 E8.33923
G1 X137.826 Y131.941 E8.35373
G1 X137.61 Y132.101 E8.36231
G1 X137.207 Y132.386 E8.37807
G1 X136.97 Y132.545 E8.38718
G1 X136.472 Y132.862 E8.40603
G1 X135.693 Y133.303 E8.43461
G1 X134.984 Y133.666 E8.46005
G1 X134.208 Y134.025 E8.48735
G1 X133.609 Y134.273 E8.50805
G1 X132.711 Y134.598 E8.53854
G1 X132.147 Y134.769 E8.55736
G1 X131.865 Y134.848 E8.56671
G1 X131.41 Y134.965 E8.58171
G1 X131.045 Y135.05 E8.59368
G1 X130.423 Y135.175 E8.61393
G1 X130.077 Y135.234 E8.62514
G1 X129.476 Y135.319 E8.64452
G1 X129.021 Y135.37 E8.65914
G1 X128.394 Y135.424 E8.67923
G1 X127.923 Y135.447 E8.69429
G1 X127.522 Y135.458 E8.7071
G1 X126.592 Y135.443 E8.7368
G1 X125.897 Y135.401 E8.75903
G1 X125.23 Y135.339 E8.78042
G1 X124.924 Y135.301 E8.79026
G1 X124.343 Y135.213 E8.80903
G1 X122.878 Y134.948 E8.85656
G1 X120.319 Y134.516 E8.93943
G1 X117.825 Y134.168 E9.01983
G1 X115.318 Y133.889 E9.10037
G1 X112.771 Y133.679 E9.18197
G1 X110.313 Y133.546 E9.26057
G1 X106.594 Y133.472 E9.37934
G1 X91.352 Y133.471 E9.86602
G1 X90.408 Y133.457 E9.89616
G1 X89.776 Y133.429 E9.91636
G1 X89.468 Y133.406 E9.92622
G1 X88.752 Y133.328 E9.94922
G1 X88.292 Y133.262 E9.96406
G1 X87.538 Y133.126 E9.98852
G1 X87.295 Y133.073 E9.99646
G1 X86.726 Y132.932 E10.01518
G1 X86.372 Y132.834 E10.02691
G1 X85.619 Y132.595 E10.05213
G1 X85.332 Y132.492 E10.06187
G1 X84.714 Y132.248 E10.08308
G1 X84.415 Y132.119 E10.09348
G1 X83.831 Y131.846 E10.11406
G1 X83.564 Y131.711 E10.12362
G1 X82.922 Y131.358 E10.14701
G1 X82.551 Y131.137 E10.1608
G1 X81.545 Y130.456 E10.19959
G1 X81.072 Y130.095 E10.21859
G1 X80.407 Y129.543 E10.24618
G1 X80.154 Y129.315 E10.25706
G1 X79.645 Y128.825 E10.27962
G1 X79.445 Y128.619 E10.28878
G1 X78.99 Y128.12 E10.31035
G1 X78.779 Y127.873 E10.32072
G1 X78.331 Y127.311 E10.34367
G1 X78.14 Y127.054 E10.35389
G1 X77.755 Y126.499 E10.37546
G1 X77.576 Y126.223 E10.38596
G1 X77.211 Y125.618 E10.40852
G1 X77.008 Y125.254 E10.42183
G1 X76.683 Y124.622 E10.44452
G1 X76.596 Y124.438 E10.45102
G1 X76.342 Y123.855 E10.47133
G1 X76.218 Y123.546 E10.48196
G1 X75.974 Y122.873 E10.50481
G1 X75.859 Y122.519 E10.5167
G1 X75.671 Y121.874 E10.53815
G1 X75.577 Y121.507 E10.55025
G1 X75.343 Y120.308 E10.58925
G1 X75.261 Y119.706 E10.60865
G1 X75.178 Y118.816 E10.63719
G1 X75.157 Y118.405 E10.65033
G1 X75.144 Y118.026 E10.66244
G1 X75.13 Y117.011 E10.69485
G1 X75.137 Y112.515 E10.83841
G1 X75.171 Y111.431 E10.87304
G1 X75.187 Y111.099 E10.88365
G1 X75.256 Y110.077 E10.91636
G1 X75.324 Y109.36 E10.93935
G1 X75.361 Y109.032 E10.94989
G1 X75.441 Y108.399 E10.97027
G1 X75.487 Y108.076 E10.98068
G1 X75.661 Y107.004 E11.01536
G1 X75.874 Y105.914 E11.05082
G1 X76 Y105.347 E11.06937
G1 X76.08 Y105.013 E11.08033
G1 X76.289 Y104.198 E11.1072
G1 X76.38 Y103.868 E11.11813
G1 X76.632 Y103.018 E11.14644
G1 X76.899 Y102.192 E11.17415
G1 X77.015 Y101.853 E11.18559
G1 X77.307 Y101.056 E11.2127
G1 X77.615 Y100.275 E11.2395
G1 X77.755 Y99.938 E11.25115
G1 X78.15 Y99.039 E11.28251
G1 X78.432 Y98.437 E11.30373
G1 X78.584 Y98.126 E11.31479
G1 X78.927 Y97.452 E11.33893
G1 X79.088 Y97.148 E11.34992
G1 X79.393 Y96.594 E11.37011
G1 X79.558 Y96.306 E11.38071
G1 X80.151 Y95.312 E11.41766
G1 X80.422 Y94.883 E11.43387
G1 X80.617 Y94.586 E11.44521
G1 X81.158 Y93.79 E11.47594
G1 X81.343 Y93.527 E11.48621
G1 X81.848 Y92.838 E11.51348
G1 X82.326 Y92.221 E11.53841
G1 X82.538 Y91.957 E11.54922
G1 X83.026 Y91.367 E11.57366
G1 X83.246 Y91.11 E11.58447
G1 X83.881 Y90.397 E11.61495
G1 X84.407 Y89.836 E11.63951
G1 X84.645 Y89.591 E11.65041
G1 X85.301 Y88.941 E11.6799
G1 X85.915 Y88.363 E11.70682
G1 X86.185 Y88.118 E11.71847
G1 X86.923 Y87.474 E11.74974
G1 X87.178 Y87.262 E11.76033
G1 X87.969 Y86.665 E11.79197
G1 X88.14 Y86.548 E11.79859
G1 X88.922 Y86.061 E11.828
G1 X89.97 Y85.545 E11.8653
G1 X90.214 Y85.441 E11.87377
G1 X91.076 Y85.117 E11.90317
G1 X92.186 Y84.819 E11.93987
G1 X92.376 Y84.779 E11.94607
G1 X93.285 Y84.629 E11.97549
G1 X94.202 Y84.558 E12.00485
G1 X94.686 Y84.553 E12.02031
G1 X95.192 Y84.559 E12.03647
G1 X95.551 Y84.569 E12.04793
G1 X96.522 Y84.615 E12.07897
G1 X97.065 Y84.648 E12.09634
G1 X99.623 Y84.731 E12.17806
G1 X102.133 Y84.74 E12.2582
G1 X104.695 Y84.678 E12.34003
G1 X106.962 Y84.563 E12.41251
G1 X107.785 Y84.553 E12.43879
G1 X108.23 Y84.565 E12.453
G1 X109.148 Y84.63 E12.48239
G0 F1800 X109.176 Y84.23
G1 F600 X110.103 Y84.375 E12.51235
G1 X111.111 Y84.627 E12.54552
G1 X111.437 Y84.725 E12.55639
G1 X112.323 Y85.033 E12.58634
G1 X113.179 Y85.415 E12.61627
G1 X114.123 Y85.945 E12.65084
G1 X114.341 Y86.082 E12.65906
G1 X115.113 Y86.615 E12.68902
G1 X115.487 Y86.91 E12.70423
G1 X115.761 Y87.136 E12.71557
G1 X116.033 Y87.368 E12.72698
G1 X116.737 Y87.994 E12.75706
G1 X117.824 Y89.008 E12.80453
G1 X119.752 Y90.757 E12.88764
G1 X121.671 Y92.4 E12.9683
G1 X123.607 Y93.968 E13.04785
G1 X125.646 Y95.523 E13.12973
G1 X127.661 Y96.972 E13.20898
G1 X129.766 Y98.399 E13.29018
G1 X131.87 Y99.739 E13.36982
G1 X134.013 Y101.02 E13.44954
G1 X135.304 Y101.742 E13.49677
G1 X136.329 Y102.33 E13.5345
G1 X136.703 Y102.554 E13.54842
G1 X136.934 Y102.699 E13.55713
G1 X137.359 Y102.98 E13.5734
G1 X138.1 Y103.507 E13.60243
G1 X138.778 Y104.048 E13.63013
G1 X139.213 Y104.424 E13.64849
G1 X139.563 Y104.74 E13.66354
G1 X139.736 Y104.903 E13.67113
G1 X140.091 Y105.252 E13.68703
G1 X140.25 Y105.416 E13.69432
G1 X140.646 Y105.843 E13.71292
G1 X140.937 Y106.176 E13.72704
G1 X141.169 Y106.452 E13.73855
G1 X141.574 Y106.964 E13.75939
G1 X141.821 Y107.296 E13.77261
G1 X142.17 Y107.792 E13.79197
