;FLAVOR:Marlin
;TIME:13828
;Filament used: 9.32404m
;Layer height: 0.2
;MINX:70.306
;MINY:92.043
;MINZ:0.16
;MAXX:145.472
;MAXY:142.487
;MAXZ:71.56
;Generated with Cura_SteamEngine 4.6.1
M140 S50
M105
M190 S50
M104 S200
M105
M109 S200
M82 ;absolute extrusion mode
M201 X500.00 Y500.00 Z100.00 E5000.00 ;Setup machine max acceleration
M203 X500.00 Y500.00 Z10.00 E50.00 ;Setup machine max feedrate
M204 P500.00 R1000.00 T500.00 ;Setup Print/Retract/Travel acceleration
M205 X8.00 Y8.00 Z0.40 E5.00 ;Setup Jerk
M220 S100 ;Reset Feedrate
M221 S100 ;Reset Flowrate

G28 ;Home

G92 E0 ;Reset Extruder
G1 Z2.0 F3000 ;Move Z Axis up
G1 X10.1 Y20 Z0.28 F5000.0 ;Move to start position
G1 X10.1 Y200.0 Z0.28 F1500.0 E15 ;Draw the first line
G1 X10.4 Y200.0 Z0.28 F5000.0 ;Move to side a little
G1 X10.4 Y20 Z0.28 F1500.0 E30 ;Draw the second line
G92 E0 ;Reset Extruder
G1 Z2.0 F3000 ;Move Z Axis up

G92 E0
G92 E0
G1 F2700 E-5
;LAYER_COUNT:357
;LAYER:0
M107
G1 F300 Z0.36
G0 F1800 X76.644 Y101.7 Z0.36
;TYPE:SKIRT
G1 F300 Z0.16
G1 F2700 E0
G1 F600 X77.111 Y101.409 E0.01611
G1 X77.616 Y101.188 E0.03224
G1 X78.148 Y101.043 E0.04838
G1 X78.88 Y100.972 E0.0699
G1 X83.148 Y100.972 E0.19482
G1 X83.698 Y101.012 E0.21096
G1 X84.236 Y101.131 E0.22709
G1 X84.751 Y101.327 E0.24322
G1 X85.384 Y101.7 E0.26472
G1 X88.839 Y104.215 E0.3898
G1 X89.26 Y104.57 E0.40592
G1 X89.625 Y104.983 E0.42205
G1 X89.926 Y105.445 E0.43819
G1 X90.216 Y106.111 E0.45945
G1 X91.536 Y110.166 E0.58427
G1 X91.668 Y110.701 E0.6004
G1 X91.722 Y111.249 E0.61651
G1 X91.695 Y111.799 E0.63263
G1 X91.564 Y112.431 E0.65152
G1 X90.99 Y114.351 E0.71018
G1 X91.266 Y114.773 E0.72494
G1 X91.419 Y115.126 E0.7362
G1 X93.321 Y114.041 E0.80029
G1 X93.818 Y113.804 E0.8164
G1 X94.344 Y113.64 E0.83253
G1 X94.41 Y113.63 E0.83448
G1 X94.631 Y113.533 E0.84155
G1 X95.162 Y113.388 E0.85766
G1 X95.762 Y113.319 E0.87533
G1 X98.442 Y113.225 E0.95382
G1 X98.968 Y113.243 E0.96923
G1 X102.085 Y113.567 E1.06095
G1 X102.627 Y113.664 E1.07707
G1 X103.15 Y113.838 E1.0932
G1 X103.49 Y113.999 E1.10421
G1 X104.95 Y114.783 E1.15271
G1 X105.451 Y115.106 E1.17016
G1 X106.316 Y115.763 E1.20195
G1 X106.437 Y115.68 E1.20625
G1 X106.912 Y115.401 E1.22237
G1 X107.18 Y115.281 E1.23097
G1 X109.429 Y114.379 E1.30189
G1 X109.954 Y114.212 E1.31801
G1 X110.729 Y114.108 E1.3409
G1 X113.675 Y114.019 E1.42717
G1 X114.226 Y114.042 E1.44331
G1 X114.767 Y114.145 E1.45943
G1 X114.813 Y114.161 E1.46085
G1 X115.098 Y114.161 E1.46919
G1 X115.648 Y114.201 E1.48533
G1 X116.103 Y114.302 E1.49898
G1 X116.102 Y102.575 E1.84221
G1 X116.142 Y102.026 E1.85832
G1 X116.261 Y101.488 E1.87445
G1 X116.456 Y100.973 E1.89057
G1 X116.724 Y100.491 E1.90671
G1 X117.215 Y99.888 E1.92947
G1 X117.332 Y99.771 E1.93431
G1 X117.749 Y99.411 E1.95044
G1 X118.213 Y99.114 E1.96656
G1 X118.716 Y98.888 E1.9827
G1 X119.246 Y98.737 E1.99883
G1 X120.019 Y98.658 E2.02157
G1 X124.633 Y98.658 E2.15662
G1 X125.183 Y98.698 E2.17276
G1 X125.721 Y98.817 E2.18889
G1 X126.236 Y99.013 E2.20502
G1 X126.717 Y99.281 E2.22113
G1 X127.32 Y99.771 E2.24387
G1 X127.437 Y99.888 E2.24872
G1 X127.797 Y100.305 E2.26484
G1 X128.094 Y100.769 E2.28097
G1 X128.32 Y101.272 E2.29711
G1 X128.471 Y101.802 E2.31324
G1 X128.55 Y102.575 E2.33598
G1 X128.55 Y102.658 E2.33841
G1 X138.858 Y102.658 E2.64011
G1 X139.408 Y102.698 E2.65625
G1 X139.946 Y102.817 E2.67238
G1 X140.461 Y103.013 E2.68851
G1 X140.942 Y103.281 E2.70462
G1 X141.113 Y103.42 E2.71107
G1 X141.193 Y103.428 E2.71343
G1 X141.727 Y103.561 E2.72953
G1 X142.237 Y103.77 E2.74567
G1 X142.901 Y104.19 E2.76866
G1 X143.475 Y104.643 E2.79006
G1 X143.882 Y105.015 E2.8062
G1 X144.288 Y105.526 E2.82531
G1 X144.599 Y105.995 E2.84178
G1 X144.869 Y106.475 E2.8579
G1 X145.068 Y106.989 E2.87403
G1 X145.205 Y107.646 E2.89367
G1 X145.247 Y107.999 E2.90408
G1 X145.273 Y108.549 E2.92019
G1 X145.218 Y109.098 E2.93634
G1 X145.085 Y109.632 E2.95245
G1 X145.012 Y109.809 E2.95805
G1 X145.152 Y110.473 E2.97791
G1 X145.194 Y110.826 E2.98832
G1 X145.22 Y111.376 E3.00443
G1 X145.165 Y111.925 E3.02058
G1 X145.255 Y112.174 E3.02833
G1 X145.388 Y112.708 E3.04444
G1 X145.433 Y113.054 E3.05465
G1 X145.468 Y113.486 E3.06734
G1 X145.472 Y114.037 E3.08347
G1 X145.397 Y114.583 E3.0996
G1 X145.244 Y115.112 E3.11571
G1 X145.034 Y115.579 E3.1307
G1 X144.764 Y116.086 E3.14751
G1 X144.47 Y116.552 E3.16364
G1 X144.113 Y116.971 E3.17975
G1 X143.831 Y117.229 E3.19094
G1 X143.358 Y117.62 E3.2089
G1 X142.909 Y117.939 E3.22502
G1 X142.419 Y118.19 E3.24114
G1 X141.857 Y118.378 E3.25848
G1 X141.364 Y118.501 E3.27335
G1 X140.821 Y118.595 E3.28948
G1 X140.27 Y118.61 E3.30562
G1 X139.723 Y118.545 E3.32174
G1 X139.191 Y118.401 E3.33787
G1 X138.527 Y118.095 E3.35927
G1 X138.2 Y117.904 E3.37035
G1 X137.987 Y117.758 E3.37791
G1 X130.764 Y117.758 E3.58932
G1 X130.857 Y117.971 E3.59612
G1 X131.358 Y119.509 E3.64347
G1 X131.49 Y120.044 E3.6596
G1 X131.544 Y120.592 E3.67571
G1 X131.517 Y121.143 E3.69186
G1 X131.358 Y121.863 E3.71344
G1 X130.857 Y123.401 E3.76078
G1 X130.649 Y123.911 E3.7769
G1 X130.369 Y124.386 E3.79304
G1 X130.024 Y124.815 E3.80916
G1 X129.48 Y125.297 E3.83043
G1 X128.169 Y126.251 E3.87788
G1 X127.701 Y126.542 E3.89401
G1 X127.196 Y126.762 E3.91014
G1 X126.664 Y126.907 E3.92628
G1 X125.933 Y126.978 E3.94777
G1 X124.315 Y126.978 E3.99513
G1 X123.765 Y126.938 E4.01127
G1 X123.227 Y126.819 E4.0274
G1 X122.712 Y126.623 E4.04353
G1 X122.486 Y126.49 E4.0512
G1 X121.549 Y127.172 E4.08512
G1 X121.081 Y127.463 E4.10125
G1 X120.576 Y127.684 E4.11739
G1 X120.044 Y127.829 E4.13352
G1 X119.317 Y127.9 E4.1549
G1 X116.088 Y127.904 E4.24941
G1 X115.768 Y127.881 E4.2588
G1 X115.602 Y128.553 E4.27906
G1 X114.77 Y130.838 E4.35024
G1 X114.544 Y131.341 E4.36638
G1 X114.132 Y131.954 E4.388
G1 X113.637 Y132.555 E4.41079
G1 X113.257 Y132.954 E4.42691
G1 X112.89 Y133.247 E4.44066
G1 X110.746 Y134.755 E4.51738
G1 X110.274 Y135.039 E4.5335
G1 X109.765 Y135.251 E4.54964
G1 X109.231 Y135.387 E4.56577
G1 X109.058 Y135.403 E4.57085
G1 X108.605 Y135.525 E4.58458
G1 X107.876 Y135.596 E4.60602
G1 X105.998 Y135.596 E4.66099
G1 X105.448 Y135.556 E4.67713
G1 X104.91 Y135.437 E4.69326
G1 X104.561 Y135.304 E4.70419
G1 X104.239 Y135.233 E4.71384
G1 X103.724 Y135.037 E4.72997
G1 X103.021 Y134.613 E4.754
G1 X100.148 Y132.42 E4.85978
G1 X99.56 Y131.861 E4.88353
G1 X98.552 Y130.676 E4.92906
G1 X98.226 Y130.232 E4.94519
G1 X97.868 Y129.495 E4.96917
G1 X97.287 Y127.872 E5.01962
G1 X95.195 Y129.267 E5.09322
G1 X94.715 Y129.539 E5.10937
G1 X94.202 Y129.739 E5.12548
G1 X93.665 Y129.862 E5.14161
G1 X93.268 Y129.902 E5.15329
G1 X89.595 Y130.078 E5.26091
G1 X89.044 Y130.064 E5.27705
G1 X88.687 Y130.012 E5.28761
G1 X88.086 Y129.895 E5.30553
G1 X87.918 Y129.85 E5.31062
G1 X86.049 Y131.21 E5.37827
G1 X85.582 Y131.501 E5.39438
G1 X85.077 Y131.722 E5.41051
G1 X84.545 Y131.867 E5.42665
G1 X83.813 Y131.938 E5.44817
G1 X79.545 Y131.938 E5.57309
G1 X78.995 Y131.898 E5.58923
G1 X78.457 Y131.779 E5.60536
G1 X77.942 Y131.583 E5.62149
G1 X77.309 Y131.21 E5.64299
G1 X73.854 Y128.695 E5.76807
G1 X73.433 Y128.34 E5.78419
G1 X73.068 Y127.927 E5.80032
G1 X72.767 Y127.465 E5.81646
G1 X72.477 Y126.799 E5.83772
G1 X71.157 Y122.744 E5.96254
G1 X71.025 Y122.209 E5.97867
G1 X70.971 Y121.661 E5.99478
G1 X70.998 Y121.111 E6.0109
G1 X71.157 Y120.392 E6.03245
G1 X72.156 Y117.323 E6.12692
G1 X72.102 Y117.24 E6.12982
G1 X71.812 Y116.573 E6.15111
G1 X70.492 Y112.518 E6.27592
G1 X70.36 Y111.983 E6.29205
G1 X70.306 Y111.435 E6.30817
G1 X70.333 Y110.885 E6.32428
G1 X70.492 Y110.166 E6.34584
G1 X71.812 Y106.111 E6.47065
G1 X72.02 Y105.601 E6.48677
G1 X72.299 Y105.126 E6.5029
G1 X72.645 Y104.697 E6.51903
G1 X73.189 Y104.215 E6.5403
G1 X76.644 Y101.7 E6.66538
G0 F1800 X76.879 Y102.023
G1 F600 X77.323 Y101.75 E6.68064
G1 X77.803 Y101.547 E6.69589
G1 X78.308 Y101.42 E6.71113
G1 X78.88 Y101.372 E6.72793
G1 X83.148 Y101.372 E6.85285
G1 X83.668 Y101.412 E6.86812
G1 X84.175 Y101.531 E6.88336
G1 X84.658 Y101.726 E6.8986
G1 X85.149 Y102.023 E6.9154
G1 X88.604 Y104.538 E7.04048
G1 X89.001 Y104.876 E7.05574
G1 X89.341 Y105.271 E7.07099
G1 X89.617 Y105.713 E7.08625
G1 X89.836 Y106.235 E7.10281
G1 X91.156 Y110.29 E7.22763
G1 X91.279 Y110.796 E7.24287
G1 X91.323 Y111.315 E7.25812
G1 X91.287 Y111.835 E7.27337
G1 X91.18 Y112.316 E7.28779
G1 X90.544 Y114.443 E7.35277
G1 X90.68 Y114.601 E7.35887
G1 X90.957 Y115.042 E7.37412
G1 X91.178 Y115.568 E7.39082
G1 X91.228 Y115.723 E7.39558
G1 X91.387 Y115.616 E7.40119
G1 X91.603 Y115.482 E7.40863
G1 X93.519 Y114.389 E7.47319
G1 X93.99 Y114.166 E7.48845
G1 X94.49 Y114.018 E7.50371
G1 X94.817 Y113.892 E7.51397
G1 X95.323 Y113.765 E7.52924
G1 X95.776 Y113.719 E7.54256
G1 X98.456 Y113.625 E7.62105
G1 X98.927 Y113.641 E7.63485
G1 X102.044 Y113.965 E7.72657
G1 X102.556 Y114.059 E7.7418
G1 X103.049 Y114.229 E7.75707
G1 X103.301 Y114.352 E7.76528
G1 X104.761 Y115.136 E7.81378
G1 X105.209 Y115.424 E7.82937
G1 X106.305 Y116.257 E7.86966
G1 X106.665 Y116.009 E7.88245
G1 X107.329 Y115.652 E7.90452
G1 X109.578 Y114.75 E7.97544
G1 X110.076 Y114.594 E7.99072
G1 X110.741 Y114.508 E8.01034
G1 X113.687 Y114.419 E8.09661
G1 X114.208 Y114.443 E8.11187
G1 X114.719 Y114.546 E8.12713
G1 X114.76 Y114.561 E8.12841
G1 X115.098 Y114.561 E8.1383
G1 X115.618 Y114.601 E8.15357
G1 X116.125 Y114.72 E8.16881
G1 X116.177 Y114.741 E8.17045
G1 X116.503 Y114.741 E8.17999
G1 X116.502 Y102.575 E8.53608
G1 X116.542 Y102.056 E8.55131
G1 X116.661 Y101.548 E8.56658
G1 X116.856 Y101.065 E8.58183
G1 X117.122 Y100.617 E8.59708
G1 X117.498 Y100.171 E8.61415
G1 X117.615 Y100.054 E8.619
G1 X118.011 Y99.715 E8.63425
G1 X118.453 Y99.44 E8.64949
G1 X118.933 Y99.236 E8.66476
G1 X119.438 Y99.108 E8.68
G1 X120.019 Y99.058 E8.69707
G1 X124.633 Y99.058 E8.83212
G1 X125.153 Y99.098 E8.84738
G1 X125.66 Y99.217 E8.86263
G1 X126.143 Y99.412 E8.87787
G1 X126.591 Y99.678 E8.89312
G1 X127.037 Y100.054 E8.9102
G1 X127.154 Y100.171 E8.91504
G1 X127.493 Y100.567 E8.9303
G1 X127.768 Y101.009 E8.94553
G1 X127.972 Y101.489 E8.9608
G1 X128.1 Y101.994 E8.97605
G1 X128.15 Y102.575 E8.99311
G1 X128.15 Y103.058 E9.00725
G1 X138.858 Y103.058 E9.32066
G1 X139.378 Y103.098 E9.33593
G1 X139.885 Y103.217 E9.35117
G1 X140.368 Y103.412 E9.36642
G1 X140.816 Y103.678 E9.38166
G1 X140.96 Y103.799 E9.38717
G1 X141.455 Y103.897 E9.40194
G1 X141.945 Y104.074 E9.41719
G1 X142.402 Y104.324 E9.43243
G1 X142.653 Y104.504 E9.44147
G1 X143.227 Y104.957 E9.46288
G1 X143.61 Y105.31 E9.47812
G1 X143.955 Y105.747 E9.49442
G1 X144.266 Y106.216 E9.51089
G1 X144.519 Y106.671 E9.52613
G1 X144.701 Y107.16 E9.5414
G1 X144.808 Y107.693 E9.55731
G1 X144.85 Y108.046 E9.56771
G1 X144.872 Y108.567 E9.58298
G1 X144.814 Y109.085 E9.59823
G1 X144.677 Y109.588 E9.61349
G1 X144.58 Y109.805 E9.62045
G1 X144.648 Y109.987 E9.62614
G1 X144.755 Y110.52 E9.64205
G1 X144.797 Y110.873 E9.65245
G1 X144.819 Y111.394 E9.66771
G1 X144.761 Y111.912 E9.68297
G1 X144.745 Y111.969 E9.6847
G1 X144.916 Y112.433 E9.69918
G1 X145.034 Y113.086 E9.7186
G1 X145.069 Y113.518 E9.73129
G1 X145.071 Y114.04 E9.74656
G1 X144.994 Y114.555 E9.7618
G1 X144.838 Y115.052 E9.77705
G1 X144.681 Y115.391 E9.78799
G1 X144.411 Y115.898 E9.8048
G1 X144.131 Y116.338 E9.82006
G1 X143.788 Y116.73 E9.83531
G1 X143.576 Y116.921 E9.84366
G1 X143.103 Y117.312 E9.86162
G1 X142.677 Y117.612 E9.87687
G1 X142.21 Y117.844 E9.89213
G1 X141.76 Y117.99 E9.90598
G1 X141.267 Y118.113 E9.92085
G1 X140.753 Y118.2 E9.93611
G1 X140.232 Y118.207 E9.95136
G1 X139.716 Y118.135 E9.96661
G1 X139.217 Y117.985 E9.98186
G1 X138.729 Y117.75 E9.99772
G1 X138.402 Y117.559 E10.0088
G1 X138.112 Y117.358 E10.01913
G1 X130.123 Y117.358 E10.25296
G1 X130.258 Y117.574 E10.26041
G1 X130.477 Y118.095 E10.27695
G1 X130.978 Y119.633 E10.3243
G1 X131.101 Y120.139 E10.33954
G1 X131.145 Y120.659 E10.35481
G1 X131.109 Y121.179 E10.37007
G1 X130.978 Y121.739 E10.3869
G1 X130.477 Y123.277 E10.43425
G1 X130.278 Y123.759 E10.44951
G1 X130.008 Y124.204 E10.46474
G1 X129.673 Y124.604 E10.48001
G1 X129.245 Y124.973 E10.49655
G1 X127.934 Y125.927 E10.54401
G1 X127.49 Y126.201 E10.55928
G1 X127.01 Y126.403 E10.57452
G1 X126.504 Y126.53 E10.58979
G1 X125.933 Y126.578 E10.60656
G1 X124.315 Y126.578 E10.65392
G1 X123.795 Y126.538 E10.66919
G1 X123.288 Y126.419 E10.68443
G1 X122.805 Y126.224 E10.69967
G1 X122.459 Y126.015 E10.7115
G1 X121.313 Y126.849 E10.75299
G1 X120.87 Y127.122 E10.76822
G1 X120.39 Y127.325 E10.78347
G1 X119.884 Y127.452 E10.79874
G1 X119.316 Y127.5 E10.81543
G1 X116.087 Y127.504 E10.90994
G1 X115.568 Y127.465 E10.92517
G1 X115.438 Y127.435 E10.92907
G1 X115.399 Y127.719 E10.93746
G1 X115.226 Y128.416 E10.95848
G1 X114.394 Y130.701 E11.02966
G1 X114.178 Y131.176 E11.04493
G1 X113.823 Y131.7 E11.06346
G1 X113.328 Y132.301 E11.08625
G1 X112.967 Y132.676 E11.10148
G1 X112.66 Y132.92 E11.11296
G1 X110.516 Y134.428 E11.18968
G1 X110.068 Y134.694 E11.20493
G1 X109.585 Y134.889 E11.22017
G1 X109.077 Y135.007 E11.23544
G1 X108.966 Y135.016 E11.2387
G1 X108.445 Y135.148 E11.25443
G1 X107.876 Y135.196 E11.27114
G1 X105.998 Y135.196 E11.32611
G1 X105.478 Y135.156 E11.34137
G1 X104.971 Y135.037 E11.35662
G1 X104.696 Y134.926 E11.3653
G1 X104.3 Y134.833 E11.3772
G1 X103.817 Y134.638 E11.39245
G1 X103.264 Y134.295 E11.41149
G1 X100.391 Y132.102 E11.51728
G1 X99.864 Y131.602 E11.53854
G1 X98.856 Y130.417 E11.58408
G1 X98.55 Y129.995 E11.59934
G1 X98.245 Y129.36 E11.61995
G1 X97.475 Y127.21 E11.6868
G1 X97.126 Y127.499 E11.70006
G1 X94.973 Y128.935 E11.77581
G1 X94.518 Y129.19 E11.79107
G1 X94.03 Y129.372 E11.80632
G1 X93.52 Y129.478 E11.82156
G1 X93.249 Y129.502 E11.82953
G1 X89.576 Y129.678 E11.93715
G1 X89.055 Y129.663 E11.95241
G1 X88.763 Y129.619 E11.96105
G1 X88.162 Y129.502 E11.97897
G1 X87.839 Y129.413 E11.98878
G1 X85.814 Y130.887 E12.06209
G1 X85.37 Y131.16 E12.07734
G1 X84.89 Y131.363 E12.0926
G1 X84.385 Y131.49 E12.10784
G1 X83.813 Y131.538 E12.12464
G1 X79.545 Y131.538 E12.24956
G1 X79.025 Y131.498 E12.26482
G1 X78.518 Y131.379 E12.28007
G1 X78.035 Y131.184 E12.29531
G1 X77.544 Y130.887 E12.31211
G1 X74.089 Y128.372 E12.43719
G1 X73.692 Y128.034 E12.45245
G1 X73.352 Y127.639 E12.4677
G1 X73.076 Y127.197 E12.48295
G1 X72.857 Y126.675 E12.49952
G1 X71.537 Y122.62 E12.62434
G1 X71.414 Y122.114 E12.63958
G1 X71.37 Y121.595 E12.65482
G1 X71.406 Y121.075 E12.67008
G1 X71.537 Y120.516 E12.68688
G1 X72.595 Y117.266 E12.78692
G1 X72.411 Y116.971 E12.7971
G1 X72.192 Y116.449 E12.81367
G1 X70.872 Y112.394 E12.93848
G1 X70.749 Y111.888 E12.95372
G1 X70.705 Y111.369 E12.96897
G1 X70.741 Y110.849 E12.98422
G1 X70.872 Y110.29 E13.00103
G1 X72.192 Y106.235 E13.12584
G1 X72.391 Y105.753 E13.14111
G1 X72.661 Y105.307 E13.15637
G1 X72.996 Y104.908 E13.17161
G1 X73.424 Y104.538 E13.18817
G1 X76.879 Y102.023 E13.31325
G0 F1800 X77.114 Y102.347
G1 F600 X77.532 Y102.092 E13.32758
G1 X77.986 Y101.908 E13.34192
G1 X78.464 Y101.801 E13.35626
G1 X78.88 Y101.772 E13.36846
G1 X83.148 Y101.772 E13.49338
G1 X83.636 Y101.812 E13.50772
G1 X84.111 Y101.931 E13.52205
G1 X84.56 Y102.125 E13.53636
G1 X84.914 Y102.347 E13.54859
G1 X88.369 Y104.862 E13.67367
G1 X88.739 Y105.181 E13.68797
G1 X89.054 Y105.556 E13.70231
G1 X89.302 Y105.978 E13.71663
G1 X89.456 Y106.358 E13.72863
G1 X90.776 Y110.413 E13.85345
G1 X90.889 Y110.89 E13.8678
G1 X90.923 Y111.378 E13.88211
G1 X90.877 Y111.865 E13.89643
G1 X90.797 Y112.202 E13.90657
G1 X90.099 Y114.535 E13.97784
G1 X90.393 Y114.886 E13.99125
G1 X90.643 Y115.308 E14.0056
G1 X90.798 Y115.692 E14.01772
G1 X90.895 Y115.991 E14.02692
G1 X91.103 Y116.29 E14.03758
G1 X91.611 Y115.947 E14.05552
G1 X91.801 Y115.829 E14.06207
G1 X93.717 Y114.736 E14.12663
G1 X94.161 Y114.529 E14.14097
G1 X94.632 Y114.397 E14.15529
G1 X95.001 Y114.253 E14.16688
G1 X95.478 Y114.146 E14.18119
G1 X95.79 Y114.119 E14.19035
G1 X98.47 Y114.025 E14.26884
G1 X98.885 Y114.039 E14.281
G1 X102.002 Y114.363 E14.37272
G1 X102.483 Y114.453 E14.38704
G1 X103.111 Y114.704 E14.40684
G1 X104.571 Y115.488 E14.45534
G1 X104.967 Y115.743 E14.46913
G1 X106.293 Y116.751 E14.51788
G1 X106.892 Y116.338 E14.53917
G1 X107.478 Y116.024 E14.55863
