;FLAVOR:Marlin
;TIME:13547
;Filament used: 6.3883m
;Layer height: 0.16
;MINX:65.815
;MINY:77.082
;MINZ:0.14
;MAXX:154.181
;MAXY:142.929
;MAXZ:24.94
;Generated with Cura_SteamEngine 4.8.0
M140 S55
M105
M190 S55
M104 S205
M105
M109 S205
M82 ;absolute extrusion mode
M201 X500.00 Y500.00 Z100.00 E5000.00 ;Setup machine max acceleration
M203 X500.00 Y500.00 Z10.00 E50.00 ;Setup machine max feedrate
M204 P500.00 R1000.00 T500.00 ;Setup Print/Retract/Travel acceleration
M205 X8.00 Y8.00 Z0.40 E5.00 ;Setup Jerk
M220 S100 ;Reset Feedrate
M221 S100 ;Reset Flowrate

G28 ;Home

G92 E0 ;Reset Extruder
G1 Z2.0 F3000 ;Move Z Axis up
G1 X10.1 Y20 Z0.28 F5000.0 ;Move to start position
G1 X10.1 Y200.0 Z0.28 F1500.0 E15 ;Draw the first line
G1 X10.4 Y200.0 Z0.28 F5000.0 ;Move to side a little
G1 X10.4 Y20 Z0.28 F1500.0 E30 ;Draw the second line
G92 E0 ;Reset Extruder
G1 Z2.0 F3000 ;Move Z Axis up

G92 E0
G92 E0
G1 F2700 E-5
;LAYER_COUNT:156
;LAYER:0
M107
G0 F6000 X81.682 Y81.206 Z0.14
;TYPE:SKIRT
G1 F2700 E0
G1 F600 X82.621 Y80.319 E0.03158
G1 X82.82 Y80.152 E0.03793
G1 X83.178 Y79.864 E0.04916
G1 X83.596 Y79.542 E0.06206
G1 X84.363 Y79.002 E0.08499
G1 X85.173 Y78.529 E0.10792
G1 X86.02 Y78.127 E0.13084
G1 X86.898 Y77.798 E0.15376
G1 X87.517 Y77.616 E0.16953
G1 X87.959 Y77.5 E0.18071
G1 X88.244 Y77.429 E0.18789
G1 X88.479 Y77.374 E0.19379
G1 X89.401 Y77.2 E0.21672
G1 X90.334 Y77.104 E0.23965
G1 X90.816 Y77.086 E0.25144
G1 X91.075 Y77.082 E0.25778
G1 X91.727 Y77.092 E0.27372
G1 X92.661 Y77.17 E0.29663
G1 X93.279 Y77.267 E0.31192
G1 X94.296 Y77.457 E0.33721
G1 X95.385 Y77.674 E0.36436
G1 X97.818 Y78.088 E0.42469
G1 X100.348 Y78.443 E0.48715
G1 X102.821 Y78.722 E0.54798
G1 X105.368 Y78.935 E0.61047
G1 X107.851 Y79.072 E0.67126
G1 X110.374 Y79.14 E0.73296
G1 X112.897 Y79.136 E0.79464
G1 X115.421 Y79.061 E0.85637
G1 X117.917 Y78.916 E0.91749
G1 X120.422 Y78.7 E0.97895
G1 X122.916 Y78.414 E1.04032
G1 X125.389 Y78.057 E1.1014
G1 X129.176 Y77.378 E1.19546
G1 X129.51 Y77.31 E1.20379
G1 X130.436 Y77.164 E1.22671
G1 X131.01 Y77.113 E1.24079
G1 X131.22 Y77.1 E1.24594
G1 X132.158 Y77.082 E1.26887
G1 X133.54 Y77.202 E1.30278
G1 X133.865 Y77.251 E1.31082
G1 X135.022 Y77.49 E1.3397
G1 X135.486 Y77.612 E1.35143
G1 X136.382 Y77.889 E1.37435
G1 X137.251 Y78.241 E1.39727
G1 X138.087 Y78.666 E1.4202
G1 X138.884 Y79.161 E1.44314
G1 X139.366 Y79.508 E1.45766
G1 X139.764 Y79.812 E1.4699
G1 X140.035 Y80.026 E1.47834
G1 X140.267 Y80.215 E1.48566
G1 X140.968 Y80.838 E1.50858
G1 X141.613 Y81.518 E1.53149
G1 X142.331 Y82.435 E1.55997
G1 X142.45 Y82.605 E1.56504
G1 X142.661 Y82.918 E1.57427
G1 X142.822 Y83.168 E1.58154
G1 X143.146 Y83.687 E1.59649
G1 X143.608 Y84.503 E1.61942
G1 X143.999 Y85.355 E1.64233
G1 X144.213 Y85.924 E1.65719
G1 X144.38 Y86.408 E1.66971
G1 X144.478 Y86.705 E1.67736
G1 X144.631 Y87.193 E1.68986
G1 X144.722 Y87.498 E1.69764
G1 X145.093 Y88.812 E1.73102
G1 X145.791 Y91.169 E1.79111
G1 X146.573 Y93.563 E1.85268
G1 X147.43 Y95.957 E1.91484
G1 X148.33 Y98.26 E1.97528
G1 X149.32 Y100.597 E2.03733
G1 X150.367 Y102.887 E2.09889
G1 X151.493 Y105.178 E2.16129
G1 X152.211 Y106.557 E2.1993
G1 X152.818 Y107.699 E2.23091
G1 X153.223 Y108.545 E2.25384
G1 X153.554 Y109.423 E2.27678
G1 X153.809 Y110.325 E2.2997
G1 X153.986 Y111.246 E2.32262
G1 X154.097 Y112.447 E2.35211
G1 X154.109 Y112.765 E2.35989
G1 X154.117 Y113.104 E2.36818
G1 X154.181 Y122.342 E2.59402
G1 X154.18 Y122.599 E2.6003
G1 X154.174 Y122.963 E2.6092
G1 X154.118 Y123.9 E2.63215
G1 X153.983 Y124.828 E2.65507
G1 X153.77 Y125.741 E2.67799
G1 X153.479 Y126.633 E2.70093
G1 X153.114 Y127.496 E2.72383
G1 X152.676 Y128.326 E2.74677
G1 X152.169 Y129.115 E2.7697
G1 X151.597 Y129.858 E2.79262
G1 X150.964 Y130.55 E2.81555
G1 X150.426 Y131.054 E2.83357
G1 X148.319 Y132.901 E2.90207
G1 X146.498 Y134.591 E2.9628
G1 X144.68 Y136.376 E3.02509
G1 X142.965 Y138.159 E3.08557
G1 X142.724 Y138.422 E3.09429
G1 X141.767 Y139.443 E3.1285
G1 X141.097 Y140.099 E3.15142
G1 X140.373 Y140.696 E3.17436
G1 X139.602 Y141.229 E3.19727
G1 X138.787 Y141.694 E3.22021
G1 X137.936 Y142.089 E3.24315
G1 X137.055 Y142.409 E3.26606
G1 X136.149 Y142.653 E3.289
G1 X135.226 Y142.819 E3.31192
G1 X134.049 Y142.916 E3.34079
G1 X133.728 Y142.925 E3.34864
G1 X133.42 Y142.929 E3.35617
G1 X97.426 Y142.928 E4.23609
G1 X97.137 Y142.924 E4.24316
G1 X95.735 Y142.914 E4.27743
G1 X86.349 Y142.914 E4.50688
G1 X85.491 Y142.903 E4.52786
G1 X84.555 Y142.85 E4.55078
G1 X83.626 Y142.717 E4.57372
G1 X82.713 Y142.505 E4.59663
G1 X81.82 Y142.217 E4.61957
G1 X80.956 Y141.853 E4.64249
G1 X80.125 Y141.417 E4.66543
G1 X79.335 Y140.912 E4.68835
G1 X78.591 Y140.342 E4.71126
G1 X77.898 Y139.71 E4.73419
G1 X77.261 Y139.021 E4.75713
G1 X76.575 Y138.123 E4.78476
G1 X76.49 Y137.999 E4.78843
G1 X76.29 Y137.697 E4.79729
G1 X76.004 Y137.248 E4.8103
G1 X67.762 Y124.057 E5.19054
G1 X67.413 Y123.48 E5.20703
G1 X66.962 Y122.658 E5.22995
G1 X66.583 Y121.8 E5.25288
G1 X66.278 Y120.913 E5.27581
G1 X66.051 Y120.003 E5.29874
G1 X65.901 Y119.077 E5.32167
G1 X65.836 Y118.268 E5.34151
G1 X65.83 Y118.131 E5.34486
G1 X65.819 Y117.754 E5.35408
G1 X65.815 Y117.331 E5.36442
G1 X65.816 Y114.398 E5.43612
G1 X65.826 Y113.694 E5.45333
G1 X65.879 Y112.757 E5.47628
G1 X66.012 Y111.829 E5.4992
G1 X66.224 Y110.915 E5.52213
G1 X66.512 Y110.023 E5.54505
G1 X66.876 Y109.158 E5.56799
G1 X67.312 Y108.328 E5.59091
G1 X67.62 Y107.828 E5.60526
G1 X68.294 Y106.8 E5.63531
G1 X68.494 Y106.505 E5.64403
G1 X69.843 Y104.384 E5.70548
G1 X71.142 Y102.21 E5.76739
G1 X72.36 Y100.034 E5.82835
G1 X73.527 Y97.8 E5.88996
G1 X74.622 Y95.555 E5.95103
G1 X75.987 Y92.507 E6.03267
G1 X78.268 Y87.157 E6.17485
G1 X78.816 Y85.844 E6.20963
G1 X79.018 Y85.349 E6.2227
G1 X79.41 Y84.497 E6.24562
G1 X79.851 Y83.716 E6.26755
G1 X80.081 Y83.345 E6.27822
G1 X80.256 Y83.071 E6.28617
G1 X80.518 Y82.675 E6.29778
G1 X81.068 Y81.916 E6.32069
G1 X81.682 Y81.206 E6.34364
G0 F6000 X81.996 Y81.456
G1 F600 X82.878 Y80.625 E6.37326
G1 X83.077 Y80.458 E6.37961
G1 X83.422 Y80.181 E6.39043
G1 X83.84 Y79.859 E6.40333
G1 X84.593 Y79.329 E6.42584
G1 X85.389 Y78.867 E6.44834
G1 X86.223 Y78.475 E6.47087
G1 X87.087 Y78.158 E6.49336
G1 X87.618 Y78.003 E6.50689
G1 X88.06 Y77.887 E6.51806
G1 X88.335 Y77.819 E6.52498
G1 X88.57 Y77.764 E6.53088
G1 X89.475 Y77.593 E6.5534
G1 X90.822 Y77.486 E6.58643
G1 X91.081 Y77.482 E6.59276
G1 X91.71 Y77.491 E6.60814
G1 X92.628 Y77.569 E6.63066
G1 X93.206 Y77.66 E6.64497
G1 X94.083 Y77.823 E6.66677
G1 X95.277 Y78.061 E6.69654
G1 X97.761 Y78.483 E6.75813
G1 X100.284 Y78.838 E6.82042
G1 X102.818 Y79.123 E6.88275
G1 X105.311 Y79.332 E6.94391
G1 X107.854 Y79.472 E7.00617
G1 X110.364 Y79.54 E7.06756
G1 X112.91 Y79.536 E7.1298
G1 X115.42 Y79.462 E7.19118
G1 X117.938 Y79.315 E7.25284
G1 X120.469 Y79.097 E7.31495
G1 X122.982 Y78.808 E7.37678
G1 X125.46 Y78.451 E7.43799
G1 X129.23 Y77.775 E7.53162
G1 X129.589 Y77.702 E7.54057
G1 X130.498 Y77.559 E7.56307
G1 X131.035 Y77.512 E7.57625
G1 X131.245 Y77.499 E7.58139
G1 X132.166 Y77.482 E7.60391
G1 X133.48 Y77.597 E7.63615
G1 X133.805 Y77.646 E7.64419
G1 X134.92 Y77.876 E7.67202
G1 X135.384 Y77.998 E7.68375
G1 X136.264 Y78.271 E7.70627
G1 X137.116 Y78.619 E7.72877
G1 X137.935 Y79.039 E7.75127
G1 X138.715 Y79.529 E7.77379
G1 X139.123 Y79.826 E7.78613
G1 X139.521 Y80.13 E7.79837
G1 X139.782 Y80.336 E7.8065
G1 X140.014 Y80.525 E7.81381
G1 X140.702 Y81.137 E7.83633
G1 X141.334 Y81.806 E7.85882
G1 X142.003 Y82.664 E7.88542
G1 X142.122 Y82.834 E7.89049
G1 X142.328 Y83.139 E7.89949
G1 X142.483 Y83.38 E7.9065
G1 X142.807 Y83.899 E7.92145
G1 X143.26 Y84.7 E7.94395
G1 X143.642 Y85.538 E7.96646
G1 X143.835 Y86.055 E7.97995
G1 X144.002 Y86.539 E7.99247
G1 X144.097 Y86.825 E7.99984
G1 X144.25 Y87.313 E8.01234
G1 X144.337 Y87.607 E8.01983
G1 X144.707 Y88.919 E8.05316
G1 X145.406 Y91.279 E8.11333
G1 X146.199 Y93.707 E8.17577
G1 X147.041 Y96.058 E8.23682
G1 X147.978 Y98.455 E8.29973
G1 X148.951 Y100.753 E8.36074
G1 X149.996 Y103.037 E8.42214
G1 X151.146 Y105.378 E8.4859
G1 X151.858 Y106.745 E8.52358
G1 X152.465 Y107.887 E8.5552
G1 X152.861 Y108.718 E8.5777
G1 X153.184 Y109.58 E8.6002
G1 X153.431 Y110.467 E8.62271
G1 X153.6 Y111.372 E8.64522
G1 X153.697 Y112.462 E8.67197
G1 X153.709 Y112.78 E8.67975
G1 X153.717 Y113.107 E8.68775
G1 X153.781 Y122.345 E8.91359
G1 X153.78 Y122.593 E8.91965
G1 X153.774 Y122.957 E8.92855
G1 X153.718 Y123.876 E8.95106
G1 X153.584 Y124.786 E8.97354
G1 X153.371 Y125.682 E8.99606
G1 X153.08 Y126.556 E9.01858
G1 X152.716 Y127.401 E9.04107
G1 X152.279 Y128.212 E9.06359
G1 X151.773 Y128.981 E9.08609
G1 X151.203 Y129.704 E9.1086
G1 X150.572 Y130.374 E9.1311
G1 X150.162 Y130.753 E9.14475
G1 X148.066 Y132.59 E9.21288
G1 X146.228 Y134.295 E9.27417
G1 X144.394 Y136.096 E9.33701
G1 X142.647 Y137.914 E9.39864
G1 X142.432 Y138.148 E9.40641
G1 X141.475 Y139.169 E9.44062
G1 X140.817 Y139.813 E9.46313
G1 X140.105 Y140.397 E9.48564
G1 X139.345 Y140.917 E9.50815
G1 X138.544 Y141.37 E9.53065
G1 X137.706 Y141.751 E9.55315
G1 X136.838 Y142.058 E9.57566
G1 X135.946 Y142.288 E9.59818
G1 X135.038 Y142.44 E9.62068
G1 X134.038 Y142.516 E9.6452
G1 X133.717 Y142.525 E9.65305
G1 X133.42 Y142.529 E9.66031
G1 X97.431 Y142.528 E10.54011
G1 X97.144 Y142.524 E10.54712
G1 X95.738 Y142.514 E10.5815
G1 X86.349 Y142.514 E10.81102
G1 X85.497 Y142.503 E10.83185
G1 X84.578 Y142.45 E10.85435
G1 X83.667 Y142.317 E10.87686
G1 X82.771 Y142.106 E10.89936
G1 X81.896 Y141.818 E10.92188
G1 X81.05 Y141.455 E10.94439
G1 X80.239 Y141.02 E10.96689
G1 X79.468 Y140.516 E10.9894
G1 X78.744 Y139.947 E11.01192
G1 X78.072 Y139.318 E11.03442
G1 X77.457 Y138.633 E11.05692
G1 X76.905 Y137.897 E11.07941
G1 X76.82 Y137.773 E11.08309
G1 X76.627 Y137.482 E11.09162
G1 X76.343 Y137.036 E11.10455
G1 X68.104 Y123.85 E11.48465
G1 X67.755 Y123.273 E11.50113
G1 X67.313 Y122.465 E11.52365
G1 X66.943 Y121.622 E11.54615
G1 X66.648 Y120.75 E11.56866
G1 X66.429 Y119.856 E11.59116
G1 X66.289 Y118.946 E11.61367
G1 X66.235 Y118.251 E11.63071
G1 X66.229 Y118.114 E11.63406
G1 X66.219 Y117.75 E11.64296
G1 X66.215 Y117.327 E11.6533
G1 X66.216 Y114.403 E11.72478
G1 X66.226 Y113.699 E11.74199
G1 X66.279 Y112.78 E11.7645
G1 X66.412 Y111.869 E11.787
G1 X66.623 Y110.973 E11.80951
G1 X66.911 Y110.099 E11.832
G1 X67.274 Y109.253 E11.85451
G1 X67.709 Y108.441 E11.87703
G1 X67.954 Y108.047 E11.88837
G1 X68.529 Y107.168 E11.91405
G1 X68.819 Y106.739 E11.92671
G1 X70.181 Y104.599 E11.98872
G1 X71.491 Y102.404 E12.05121
G1 X72.705 Y100.235 E12.11197
G1 X73.89 Y97.968 E12.17451
G1 X74.989 Y95.716 E12.23576
G1 X76.343 Y92.69 E12.31681
G1 X78.636 Y87.313 E12.45971
G1 X79.213 Y85.93 E12.49634
G1 X79.388 Y85.501 E12.50767
G1 X79.773 Y84.665 E12.53017
G1 X80.191 Y83.927 E12.5509
G1 X80.421 Y83.556 E12.56157
G1 X80.59 Y83.292 E12.56923
G1 X80.852 Y82.896 E12.58084
G1 X81.393 Y82.151 E12.60335
G1 X81.996 Y81.456 E12.62584
G0 F6000 X82.31 Y81.706
G1 F600 X83.135 Y80.932 E12.6535
G1 X83.334 Y80.765 E12.65985
G1 X83.666 Y80.498 E12.67026
G1 X84.084 Y80.176 E12.68316
G1 X84.823 Y79.657 E12.70524
G1 X85.606 Y79.205 E12.72734
G1 X86.425 Y78.825 E12.74941
G1 X87.274 Y78.518 E12.77148
G1 X87.72 Y78.39 E12.78283
G1 X88.162 Y78.274 E12.794
G1 X88.427 Y78.208 E12.80067
G1 X88.662 Y78.153 E12.80657
G1 X89.549 Y77.987 E12.82863
G1 X90.828 Y77.886 E12.86
G1 X91.087 Y77.882 E12.86633
G1 X91.694 Y77.891 E12.88117
G1 X92.593 Y77.968 E12.90323
G1 X93.133 Y78.054 E12.9166
G1 X94.14 Y78.242 E12.94164
G1 X95.204 Y78.454 E12.96816
G1 X97.71 Y78.88 E13.0303
G1 X100.255 Y79.238 E13.09313
G1 X102.773 Y79.521 E13.15507
G1 X105.291 Y79.732 E13.21684
G1 X107.822 Y79.872 E13.27881
G1 X110.353 Y79.94 E13.34071
G1 X112.887 Y79.936 E13.40265
G1 X115.455 Y79.86 E13.46546
G1 X117.998 Y79.712 E13.52773
G1 X120.509 Y79.496 E13.58934
G1 X123.018 Y79.207 E13.65108
G1 X125.504 Y78.849 E13.71248
G1 X129.328 Y78.163 E13.80746
G1 X129.668 Y78.094 E13.81594
G1 X130.561 Y77.955 E13.83803
G1 X131.06 Y77.911 E13.85028
G1 X131.27 Y77.898 E13.85542
G1 X132.173 Y77.883 E13.8775
G1 X133.421 Y77.993 E13.90813
G1 X133.746 Y78.042 E13.91616
G1 X134.819 Y78.263 E13.94294
G1 X135.283 Y78.385 E13.95467
G1 X136.145 Y78.653 E13.97674
G1 X136.98 Y78.997 E13.99882
G1 X137.782 Y79.413 E14.0209
G1 X138.88 Y80.144 E14.05315
G1 X139.278 Y80.448 E14.06539
G1 X139.529 Y80.646 E14.07321
G1 X139.761 Y80.835 E14.08052
G1 X140.436 Y81.436 E14.10262
G1 X141.054 Y82.094 E14.12468
G1 X141.675 Y82.894 E14.14944
G1 X141.794 Y83.064 E14.15452
G1 X141.994 Y83.36 E14.16325
G1 X142.143 Y83.592 E14.16999
G1 X142.467 Y84.111 E14.18495
G1 X142.911 Y84.897 E14.20701
G1 X143.284 Y85.72 E14.2291
G1 X143.457 Y86.185 E14.24123
G1 X143.624 Y86.669 E14.25375
G1 X143.715 Y86.945 E14.26085
G1 X143.868 Y87.433 E14.27336
G1 X143.952 Y87.715 E14.28055
G1 X144.322 Y89.026 E14.31385
G1 X145.026 Y91.402 E14.37443
G1 X145.819 Y93.829 E14.43685
G1 X146.68 Y96.233 E14.49927
G1 X147.596 Y98.578 E14.56082
G1 X148.578 Y100.897 E14.62238
G1 X149.652 Y103.245 E14.6855
G1 X150.764 Y105.508 E14.74714
G1 X151.546 Y107.01 E14.78854
G1 X152.112 Y108.075 E14.81802
G1 X152.5 Y108.89 E14.84009
G1 X152.814 Y109.737 E14.86217
G1 X153.053 Y110.608 E14.88425
G1 X153.213 Y111.497 E14.90633
G1 X153.298 Y112.477 E14.93038
G1 X153.31 Y112.795 E14.93816
G1 X153.317 Y113.109 E14.94583
G1 X153.381 Y122.347 E15.17167
G1 X153.38 Y122.586 E15.17752
G1 X153.374 Y122.95 E15.18642
G1 X153.319 Y123.852 E15.20851
G1 X153.184 Y124.745 E15.23059
G1 X152.972 Y125.622 E15.25264
G1 X152.682 Y126.478 E15.27474
G1 X152.318 Y127.304 E15.2968
G1 X151.882 Y128.095 E15.31888
G1 X151.378 Y128.844 E15.34095
G1 X150.809 Y129.546 E15.36304
G1 X149.899 Y130.452 E15.39444
G1 X147.797 Y132.295 E15.46278
G1 X145.922 Y134.034 E15.52529
G1 X144.143 Y135.781 E15.58625
G1 X142.345 Y137.651 E15.64966
G1 X142.14 Y137.874 E15.65707
G1 X141.183 Y138.895 E15.69128
G1 X140.537 Y139.526 E15.71335
G1 X139.837 Y140.098 E15.73545
G1 X139.09 Y140.605 E15.75752
G1 X138.301 Y141.044 E15.7796
G1 X137.476 Y141.412 E15.80168
G1 X136.622 Y141.705 E15.82375
G1 X135.745 Y141.921 E15.84583
G1 X134.853 Y142.059 E15.8679
G1 X134.027 Y142.116 E15.88814
G1 X133.706 Y142.125 E15.89599
G1 X133.42 Y142.129 E15.90298
G1 X97.437 Y142.128 E16.78263
G1 X97.153 Y142.124 E16.78957
G1 X95.741 Y142.114 E16.82409
G1 X86.349 Y142.114 E17.05369
G1 X85.503 Y142.103 E17.07437
G1 X84.601 Y142.05 E17.09646
G1 X83.708 Y141.918 E17.11853
G1 X82.829 Y141.707 E17.14063
G1 X81.973 Y141.419 E17.1627
G1 X81.146 Y141.057 E17.18477
G1 X80.354 Y140.623 E17.20685
G1 X79.604 Y140.12 E17.22893
G1 X78.901 Y139.553 E17.25101
G1 X78.251 Y138.927 E17.27307
G1 X77.658 Y138.245 E17.29516
G1 X77.235 Y137.671 E17.31259
G1 X77.15 Y137.547 E17.31627
G1 X76.965 Y137.267 E17.32447
G1 X76.682 Y136.824 E17.33732
G1 X68.446 Y123.643 E17.71728
G1 X68.097 Y123.066 E17.73376
G1 X67.665 Y122.273 E17.75584
G1 X67.304 Y121.445 E17.77792
G1 X67.017 Y120.589 E17.79999
G1 X66.808 Y119.71 E17.82208
G1 X66.677 Y118.817 E17.84414
G1 X66.635 Y118.233 E17.85846
G1 X66.629 Y118.096 E17.86181
G1 X66.619 Y117.746 E17.87037
G1 X66.615 Y117.323 E17.88071
G1 X66.616 Y114.409 E17.95194
G1 X66.626 Y113.705 E17.96916
G1 X66.679 Y112.804 E17.99122
G1 X66.811 Y111.91 E18.01331
G1 X67.022 Y111.032 E18.03539
G1 X67.31 Y110.176 E18.05747
G1 X67.672 Y109.349 E18.07953
G1 X68.289 Y108.266 E18.11001
G1 X68.956 Y107.249 E18.13974
G1 X69.171 Y106.932 E18.1491
G1 X70.519 Y104.813 E18.2105
G1 X71.826 Y102.625 E18.2728
G1 X73.066 Y100.409 E18.33488
G1 X74.247 Y98.149 E18.39721
G1 X75.344 Y95.9 E18.45839
G1 X76.717 Y92.833 E18.54053
G1 X79.004 Y87.47 E18.68306
G1 X79.582 Y86.084 E18.71977
G1 X79.759 Y85.652 E18.73118
G1 X80.137 Y84.832 E18.75326
G1 X80.531 Y84.138 E18.77277
G1 X80.761 Y83.767 E18.78344
G1 X80.923 Y83.513 E18.7908
G1 X81.185 Y83.117 E18.80241
G1 X81.716 Y82.386 E18.8245
G1 X82.31 Y81.706 E18.84657
G1 F2700 E13.84657
;MESH:Ender_5_Toolholder_no_logo.stl
G0 F6000 X88.451 Y107.531
;TYPE:WALL-INNER
G1 F2700 E18.84657
G1 F600 X88.451 Y107.632 E18.84904
G1 X129.655 Y107.632 E19.85632
G1 X129.655 Y104.625 E19.92983
G1 X129.655 Y104.426 E19.93469
G1 X129.456 Y104.426 E19.93784
G1 X88.451 Y104.427 E20.94026
