;FLAVOR:Marlin
;TIME:2343
;Filament used: 1.40417m
;Layer height: 0.2
;MINX:17.509
;MINY:83.229
;MINZ:0.16
;MAXX:202.486
;MAXY:136.763
;MAXZ:1.96
;Generated with Cura_SteamEngine 4.6.1
M140 S50
M105
M190 S50
M104 S215
M105
M109 S215
M82 ;absolute extrusion mode
M201 X500.00 Y500.00 Z100.00 E5000.00 ;Setup machine max acceleration
M203 X500.00 Y500.00 Z10.00 E50.00 ;Setup machine max feedrate
M204 P500.00 R1000.00 T500.00 ;Setup Print/Retract/Travel acceleration
M205 X8.00 Y8.00 Z0.40 E5.00 ;Setup Jerk
M220 S100 ;Reset Feedrate
M221 S100 ;Reset Flowrate
M155 S5 ;Temp reporting

G28 ;Home

G92 E0 ;Reset Extruder
G1 Z2.0 F3000 ;Move Z Axis up
G1 X10.1 Y20 Z0.28 F5000.0 ;Move to start position
G1 X10.1 Y200.0 Z0.28 F1500.0 E15 ;Draw the first line
G1 X10.4 Y200.0 Z0.28 F5000.0 ;Move to side a little
G1 X10.4 Y20 Z0.28 F1500.0 E30 ;Draw the second line
G92 E0 ;Reset Extruder
G1 Z2.0 F3000 ;Move Z Axis up
G92 E0
G92 E0
G1 F2700 E-5
;LAYER_COUNT:10
;LAYER:0
M107
G0 F1800 X50.342 Y86.3 Z0.16
;TYPE:SKIRT
G1 F2700 E0
G1 F600 X51.637 Y86.061 E0.04205
G1 X51.792 Y86.034 E0.04707
G1 X53.18 Y85.8 E0.09201
G1 X54.059 Y85.691 E0.1203
G1 X54.216 Y85.678 E0.12533
G1 X56.879 Y85.445 E0.21068
G1 X59.422 Y85.15 E0.29242
G1 X61.901 Y84.79 E0.37241
G1 X64.952 Y84.254 E0.47132
G1 X65.847 Y84.137 E0.50014
G1 X66.396 Y84.105 E0.51769
G1 X66.936 Y84.088 E0.53495
G1 X67.41 Y84.084 E0.55008
G1 X67.676 Y84.088 E0.55857
G1 X68.512 Y84.135 E0.58531
G1 X69.731 Y84.255 E0.62442
G1 X70.273 Y84.317 E0.64184
G1 X72.813 Y84.534 E0.72324
G1 X75.308 Y84.677 E0.80303
G1 X77.873 Y84.75 E0.88496
G1 X80.407 Y84.75 E0.96587
G1 X82.942 Y84.679 E1.04685
G1 X85.469 Y84.537 E1.12766
G1 X88.064 Y84.317 E1.21082
G1 X90.052 Y84.099 E1.27467
G1 X90.807 Y84.044 E1.29884
G1 X91.065 Y84.035 E1.30709
G1 X91.421 Y84.029 E1.31846
G1 X128.275 Y84.029 E2.49519
G1 X128.973 Y84.039 E2.51748
G1 X129.824 Y84.087 E2.5447
G1 X130.851 Y84.188 E2.57765
G1 X132.42 Y84.358 E2.62804
G1 X134.99 Y84.563 E2.71036
G1 X137.494 Y84.692 E2.79042
G1 X140.019 Y84.75 E2.87106
G1 X142.595 Y84.737 E2.95331
G1 X145.118 Y84.653 E3.03392
G1 X147.635 Y84.497 E3.11444
G1 X150.383 Y84.247 E3.20254
G1 X151.29 Y84.151 E3.23167
G1 X152.191 Y84.095 E3.26049
G1 X152.779 Y84.085 E3.27927
G1 X153.313 Y84.088 E3.29632
G1 X154.215 Y84.14 E3.32517
G1 X154.861 Y84.227 E3.34598
G1 X155.89 Y84.401 E3.3793
G1 X156.883 Y84.587 E3.41156
G1 X159.396 Y84.986 E3.4928
G1 X161.922 Y85.314 E3.57414
G1 X164.462 Y85.57 E3.65565
G1 X165.917 Y85.685 E3.70225
G1 X166.974 Y85.824 E3.73629
G1 X167.671 Y85.953 E3.75892
G1 X170.211 Y86.389 E3.84121
G1 X172.72 Y86.746 E3.92213
G1 X175.275 Y87.036 E4.00423
G1 X177.783 Y87.249 E4.0846
G1 X178.584 Y87.349 E4.11038
G1 X179.758 Y87.545 E4.14838
G1 X180.766 Y87.734 E4.18113
G1 X183.28 Y88.129 E4.26238
G1 X185.829 Y88.457 E4.34444
G1 X188.343 Y88.709 E4.42512
G1 X189.686 Y88.815 E4.46813
G1 X190.582 Y88.926 E4.49696
G1 X191.345 Y89.085 E4.52184
G1 X191.824 Y89.204 E4.5376
G1 X192.416 Y89.366 E4.5572
G1 X193.273 Y89.651 E4.58604
G1 X194.48 Y90.204 E4.62843
G1 X194.804 Y90.379 E4.64019
G1 X195.084 Y90.536 E4.65044
G1 X195.397 Y90.718 E4.662
G1 X196.157 Y91.206 E4.69084
G1 X196.871 Y91.76 E4.71969
G1 X197.232 Y92.082 E4.73514
G1 X197.732 Y92.549 E4.75698
G1 X198.154 Y92.964 E4.77588
G1 X198.757 Y93.637 E4.80473
G1 X199.298 Y94.359 E4.83354
G1 X199.618 Y94.86 E4.85252
G1 X199.922 Y95.367 E4.8714
G1 X200.228 Y95.916 E4.89147
G1 X200.339 Y96.13 E4.89916
G1 X200.719 Y96.949 E4.92799
G1 X201.091 Y98.017 E4.9641
G1 X201.285 Y98.711 E4.98711
G1 X201.362 Y99.013 E4.99706
G1 X201.546 Y99.897 E5.02589
G1 X201.651 Y100.794 E5.05473
G1 X201.676 Y101.342 E5.07225
G1 X201.686 Y101.876 E5.0893
G1 X201.64 Y103.052 E5.12688
G1 X201.519 Y104.299 E5.16688
G1 X201.48 Y104.646 E5.17803
G1 X198.933 Y123.983 E5.80079
G1 X198.839 Y124.635 E5.82182
G1 X198.676 Y125.497 E5.84983
G1 X198.62 Y125.737 E5.8577
G1 X198.503 Y126.19 E5.87264
G1 X198.363 Y126.686 E5.8891
G1 X198.08 Y127.543 E5.91791
G1 X197.722 Y128.372 E5.94675
G1 X197.481 Y128.837 E5.96347
G1 X197.227 Y129.298 E5.98028
G1 X196.91 Y129.839 E6.0003
G1 X196.412 Y130.592 E6.02912
G1 X195.57 Y131.604 E6.07116
G1 X195.132 Y132.061 E6.09137
G1 X194.832 Y132.36 E6.10489
G1 X194.165 Y132.968 E6.13371
G1 X193.113 Y133.737 E6.17532
G1 X192.763 Y133.96 E6.18857
G1 X192.285 Y134.247 E6.20637
G1 X191.951 Y134.435 E6.21861
G1 X191.145 Y134.842 E6.24744
G1 X190.307 Y135.177 E6.27625
G1 X189.748 Y135.354 E6.29498
G1 X188.897 Y135.592 E6.32319
G1 X188.682 Y135.646 E6.33027
G1 X187.797 Y135.827 E6.35911
G1 X186.597 Y135.945 E6.39761
G1 X186.342 Y135.955 E6.40576
G1 X185.922 Y135.963 E6.41917
G1 X185.402 Y135.962 E6.43578
G1 X184.5 Y135.92 E6.46461
G1 X183.685 Y135.813 E6.49086
G1 X182.575 Y135.62 E6.52683
G1 X181.798 Y135.473 E6.55208
G1 X179.283 Y135.073 E6.63339
G1 X176.785 Y134.746 E6.71383
G1 X174.197 Y134.484 E6.79689
G1 X172.686 Y134.364 E6.84529
G1 X171.63 Y134.225 E6.87929
G1 X170.933 Y134.096 E6.90193
G1 X168.393 Y133.66 E6.98422
G1 X165.884 Y133.303 E7.06513
G1 X163.329 Y133.013 E7.14724
G1 X160.821 Y132.8 E7.22761
G1 X160.02 Y132.7 E7.25338
G1 X158.846 Y132.504 E7.29138
G1 X157.838 Y132.315 E7.32413
G1 X155.324 Y131.92 E7.40539
G1 X152.775 Y131.592 E7.48745
G1 X150.258 Y131.339 E7.56822
G1 X148.918 Y131.234 E7.61114
G1 X148.021 Y131.123 E7.64
G1 X147.263 Y130.965 E7.66472
G1 X146.484 Y130.767 E7.69038
G1 X146.207 Y130.689 E7.69957
G1 X145.24 Y130.364 E7.73214
G1 X143.133 Y129.536 E7.80443
G1 X140.754 Y128.673 E7.88523
G1 X138.331 Y127.873 E7.96671
G1 X135.925 Y127.153 E8.0469
G1 X133.449 Y126.487 E8.12876
G1 X130.978 Y125.896 E8.20989
G1 X128.484 Y125.375 E8.29124
G1 X125.977 Y124.925 E8.37257
G1 X123.497 Y124.552 E8.45264
G1 X120.976 Y124.245 E8.53373
G1 X118.433 Y124.007 E8.61528
G1 X115.891 Y123.843 E8.69662
G1 X113.342 Y123.75 E8.77806
G1 X111.374 Y123.728 E8.8409
G1 X108.771 Y123.727 E8.92402
G1 X106.164 Y123.763 E9.00726
G1 X103.633 Y123.87 E9.08815
G1 X101.091 Y124.049 E9.16952
G1 X98.55 Y124.3 E9.25105
G1 X96.059 Y124.618 E9.33123
G1 X93.523 Y125.014 E9.41318
G1 X91.04 Y125.475 E9.49382
G1 X88.542 Y126.013 E9.57541
G1 X86.099 Y126.61 E9.65571
G1 X83.636 Y127.287 E9.73727
G1 X81.209 Y128.029 E9.8183
G1 X78.809 Y128.837 E9.89916
G1 X76.436 Y129.712 E9.97992
G1 X75.7 Y130.006 E10.00522
G1 X74.79 Y130.356 E10.03635
G1 X73.942 Y130.64 E10.06491
G1 X73.381 Y130.801 E10.08354
G1 X72.812 Y130.949 E10.10232
G1 X71.927 Y131.127 E10.13114
G1 X71.413 Y131.194 E10.14769
G1 X70.978 Y131.237 E10.16165
G1 X68.318 Y131.469 E10.2469
G1 X65.784 Y131.763 E10.32836
G1 X63.282 Y132.125 E10.40908
G1 X60.222 Y132.665 E10.50829
G1 X59.25 Y132.789 E10.53958
G1 X58.674 Y132.834 E10.55803
G1 X56.062 Y133.073 E10.64177
G1 X53.593 Y133.369 E10.72117
G1 X51.052 Y133.748 E10.8032
G1 X48.359 Y134.228 E10.89055
G1 X47.43 Y134.349 E10.92046
G1 X46.693 Y134.412 E10.94408
G1 X44.077 Y134.654 E11.02796
G1 X41.551 Y134.96 E11.10921
G1 X39.038 Y135.336 E11.19034
G1 X37.741 Y135.573 E11.23244
G1 X36.388 Y135.803 E11.27626
G1 X35.492 Y135.915 E11.30509
G1 X34.968 Y135.943 E11.32184
G1 X34.149 Y135.962 E11.348
G1 X33.871 Y135.962 E11.35688
G1 X32.969 Y135.922 E11.38571
G1 X31.796 Y135.749 E11.42357
G1 X31.512 Y135.69 E11.43283
G1 X30.844 Y135.527 E11.45478
G1 X30.364 Y135.393 E11.4707
G1 X29.506 Y135.112 E11.49952
G1 X28.676 Y134.756 E11.52836
G1 X28.161 Y134.49 E11.54687
G1 X27.236 Y133.965 E11.58083
G1 X26.481 Y133.471 E11.60964
G1 X25.772 Y132.911 E11.63848
G1 X25.362 Y132.538 E11.65618
G1 X24.898 Y132.091 E11.67675
G1 X24.557 Y131.747 E11.69222
G1 X23.957 Y131.072 E11.72106
G1 X23.418 Y130.347 E11.7499
G1 X23.128 Y129.891 E11.76716
G1 X22.68 Y129.136 E11.79519
G1 X22.581 Y128.959 E11.80166
G1 X22.175 Y128.152 E11.83051
G1 X21.722 Y126.941 E11.87179
G1 X21.621 Y126.608 E11.8829
G1 X21.525 Y126.269 E11.89415
G1 X21.413 Y125.848 E11.90806
G1 X21.177 Y124.698 E11.94555
G1 X21.048 Y123.806 E11.97432
G1 X18.465 Y104.211 E12.6054
G1 X18.385 Y103.53 E12.62729
G1 X18.32 Y102.666 E12.65496
G1 X18.313 Y102.447 E12.66196
G1 X18.309 Y101.984 E12.67674
G1 X18.316 Y101.463 E12.69338
G1 X18.368 Y100.561 E12.72222
G1 X18.574 Y99.315 E12.76255
G1 X18.651 Y98.98 E12.77352
G1 X18.746 Y98.601 E12.786
G1 X18.861 Y98.176 E12.80006
G1 X19.135 Y97.315 E12.82891
G1 X19.485 Y96.483 E12.85773
G1 X19.745 Y95.97 E12.87609
G1 X19.989 Y95.521 E12.89241
G1 X20.195 Y95.16 E12.90568
G1 X20.336 Y94.924 E12.91446
G1 X20.833 Y94.17 E12.94329
G1 X21.395 Y93.462 E12.97216
G1 X21.752 Y93.072 E12.98904
G1 X22.138 Y92.672 E13.00679
G1 X22.803 Y92.042 E13.03604
G1 X23.063 Y91.817 E13.04701
G1 X23.772 Y91.257 E13.07586
G1 X24.501 Y90.777 E13.10373
G1 X24.98 Y90.495 E13.12148
G1 X25.315 Y90.307 E13.13374
G1 X26.122 Y89.9 E13.1626
G1 X26.961 Y89.567 E13.19143
G1 X27.507 Y89.394 E13.20971
G1 X28.043 Y89.241 E13.22751
G1 X28.585 Y89.1 E13.24539
G1 X29.471 Y88.921 E13.27425
G1 X30.052 Y88.847 E13.29296
G1 X30.426 Y88.811 E13.30495
G1 X33.086 Y88.579 E13.39021
G1 X35.633 Y88.283 E13.47208
G1 X38.111 Y87.924 E13.55203
G1 X41.116 Y87.394 E13.64946
G1 X42.014 Y87.276 E13.67838
G1 X42.736 Y87.214 E13.70152
G1 X45.357 Y86.973 E13.78556
G1 X47.851 Y86.672 E13.86577
G1 X50.342 Y86.3 E13.94619
G0 F1800 X50.272 Y85.907
G1 F600 X51.565 Y85.668 E13.98817
G1 X51.726 Y85.639 E13.99339
G1 X53.114 Y85.405 E14.03834
G1 X54.027 Y85.292 E14.06771
G1 X54.174 Y85.28 E14.07242
G1 X56.869 Y85.044 E14.1588
G1 X59.351 Y84.756 E14.23858
G1 X61.845 Y84.394 E14.31905
G1 X64.883 Y83.86 E14.41754
G1 X65.796 Y83.74 E14.44694
G1 X66.383 Y83.705 E14.46572
G1 X66.923 Y83.688 E14.48297
G1 X67.416 Y83.684 E14.49871
G1 X67.682 Y83.688 E14.5072
G1 X68.551 Y83.737 E14.535
G1 X69.776 Y83.858 E14.5743
G1 X70.316 Y83.92 E14.59166
G1 X72.799 Y84.132 E14.67123
G1 X75.343 Y84.277 E14.75259
G1 X77.884 Y84.35 E14.83375
G1 X80.396 Y84.35 E14.91396
G1 X82.943 Y84.279 E14.99532
G1 X85.448 Y84.138 E15.07543
G1 X87.99 Y83.922 E15.15689
G1 X90.009 Y83.701 E15.22174
G1 X90.793 Y83.644 E15.24684
G1 X91.051 Y83.635 E15.25508
G1 X91.421 Y83.629 E15.26689
G1 X128.281 Y83.629 E16.44382
G1 X128.979 Y83.639 E16.46611
G1 X129.863 Y83.689 E16.49438
G1 X130.894 Y83.791 E16.52746
G1 X132.462 Y83.961 E16.57782
G1 X134.968 Y84.161 E16.65809
G1 X137.523 Y84.293 E16.73978
G1 X140.027 Y84.35 E16.81976
G1 X142.58 Y84.337 E16.90127
G1 X145.079 Y84.254 E16.98111
G1 X147.645 Y84.095 E17.0632
G1 X150.305 Y83.853 E17.14848
G1 X151.248 Y83.753 E17.17876
G1 X152.184 Y83.696 E17.2087
G1 X153.093 Y83.685 E17.23773
G1 X153.319 Y83.688 E17.24495
G1 X154.238 Y83.74 E17.27434
G1 X154.927 Y83.832 E17.29653
G1 X155.964 Y84.008 E17.33012
G1 X156.949 Y84.193 E17.36212
G1 X159.443 Y84.588 E17.44274
G1 X161.977 Y84.917 E17.52433
G1 X164.488 Y85.171 E17.60492
G1 X165.948 Y85.286 E17.65168
G1 X167.047 Y85.431 E17.68707
G1 X167.675 Y85.547 E17.70746
G1 X170.293 Y85.996 E17.79228
G1 X172.79 Y86.352 E17.87281
G1 X175.282 Y86.635 E17.95289
G1 X177.817 Y86.85 E18.03412
G1 X178.65 Y86.954 E18.06093
G1 X179.831 Y87.152 E18.09916
G1 X180.83 Y87.339 E18.13161
G1 X183.356 Y87.737 E18.21326
G1 X185.849 Y88.057 E18.29352
G1 X188.416 Y88.315 E18.37589
G1 X189.717 Y88.417 E18.41756
G1 X190.631 Y88.529 E18.44696
G1 X191.442 Y88.697 E18.47341
G1 X191.921 Y88.816 E18.48917
G1 X192.525 Y88.981 E18.50916
G1 X193.399 Y89.271 E18.53856
G1 X194.244 Y89.635 E18.56794
G1 X194.67 Y89.852 E18.58321
G1 X194.994 Y90.027 E18.59496
G1 X195.598 Y90.373 E18.61719
G1 X196.373 Y90.869 E18.64657
G1 X197.102 Y91.432 E18.67598
G1 X197.505 Y91.789 E18.69317
G1 X198.005 Y92.256 E18.71502
G1 X198.439 Y92.684 E18.73448
G1 X199.055 Y93.369 E18.76389
G1 X199.608 Y94.105 E18.79329
G1 X199.961 Y94.654 E18.81413
G1 X200.265 Y95.161 E18.833
G1 X200.584 Y95.731 E18.85386
G1 X200.695 Y95.945 E18.86156
G1 X201.083 Y96.78 E18.89096
G1 X201.475 Y97.907 E18.92906
G1 X201.672 Y98.612 E18.95243
G1 X201.749 Y98.914 E18.96238
G1 X201.938 Y99.815 E18.99177
G1 X202.047 Y100.729 E19.02116
G1 X202.076 Y101.335 E19.04054
G1 X202.086 Y101.869 E19.05759
G1 X202.038 Y103.091 E19.09664
G1 X201.917 Y104.338 E19.13664
G1 X201.876 Y104.698 E19.14821
G1 X199.329 Y124.04 E19.77113
G1 X199.235 Y124.692 E19.79216
G1 X199.066 Y125.588 E19.82127
G1 X199.01 Y125.828 E19.82914
G1 X198.888 Y126.298 E19.84465
G1 X198.748 Y126.794 E19.8611
G1 X198.46 Y127.669 E19.89052
G1 X198.097 Y128.515 E19.91991
G1 X197.831 Y129.03 E19.93842
G1 X197.577 Y129.491 E19.95522
G1 X197.253 Y130.045 E19.97572
G1 X196.746 Y130.813 E20.0051
G1 X196.174 Y131.534 E20.03449
G1 X195.861 Y131.879 E20.04936
G1 X195.415 Y132.344 E20.06993
G1 X195.115 Y132.643 E20.08346
G1 X194.435 Y133.264 E20.11286
G1 X193.328 Y134.075 E20.15668
G1 X192.978 Y134.298 E20.16993
G1 X192.481 Y134.595 E20.18841
G1 X192.147 Y134.783 E20.20065
G1 X191.326 Y135.2 E20.23005
G1 X190.472 Y135.543 E20.25944
G1 X189.858 Y135.739 E20.28002
G1 X189.322 Y135.892 E20.29782
G1 X188.779 Y136.034 E20.31574
G1 X187.877 Y136.219 E20.34514
G1 X186.612 Y136.345 E20.38573
G1 X186.357 Y136.355 E20.39388
G1 X185.922 Y136.363 E20.40777
G1 X185.402 Y136.362 E20.42437
G1 X184.482 Y136.32 E20.45378
G1 X183.617 Y136.207 E20.48163
G1 X182.501 Y136.013 E20.5178
G1 X181.733 Y135.868 E20.54276
G1 X179.235 Y135.47 E20.62352
G1 X176.73 Y135.143 E20.70418
G1 X174.17 Y134.883 E20.78635
G1 X172.655 Y134.763 E20.83487
G1 X171.557 Y134.618 E20.87023
G1 X170.929 Y134.502 E20.89062
G1 X168.311 Y134.053 E20.97544
G1 X165.814 Y133.697 E21.05597
G1 X163.322 Y133.414 E21.13605
G1 X160.787 Y133.199 E21.21728
G1 X159.954 Y133.095 E21.24409
G1 X158.773 Y132.897 E21.28232
G1 X157.774 Y132.71 E21.31478
G1 X155.248 Y132.312 E21.39643
G1 X152.755 Y131.992 E21.47668
G1 X150.188 Y131.734 E21.55906
G1 X148.886 Y131.632 E21.60076
G1 X147.973 Y131.52 E21.63013
G1 X147.167 Y131.354 E21.6564
G1 X146.699 Y131.238 E21.6718
G1 X146.099 Y131.074 E21.69166
G1 X145.093 Y130.736 E21.72554
G1 X142.986 Y129.908 E21.79783
G1 X140.639 Y129.057 E21.87754
G1 X138.196 Y128.25 E21.95969
G1 X135.811 Y127.536 E22.03918
G1 X133.358 Y126.876 E22.12029
G1 X130.902 Y126.289 E22.20092
G1 X128.404 Y125.767 E22.2824
G1 X125.919 Y125.321 E22.36302
G1 X123.427 Y124.946 E22.44348
G1 X120.927 Y124.642 E22.52389
G1 X118.406 Y124.406 E22.60474
G1 X115.885 Y124.244 E22.6854
G1 X113.324 Y124.15 E22.76723
G1 X111.369 Y124.128 E22.82965
G1 X108.775 Y124.127 E22.91248
G1 X106.187 Y124.163 E22.99512
G1 X103.642 Y124.27 E23.07646
G1 X101.122 Y124.448 E23.15712
G1 X98.608 Y124.696 E23.23778
G1 X96.095 Y125.017 E23.31867
G1 X93.592 Y125.408 E23.39956
G1 X91.125 Y125.866 E23.47968
G1 X88.615 Y126.406 E23.56165
G1 X86.227 Y126.99 E23.64015
G1 X83.756 Y127.669 E23.72197
G1 X81.338 Y128.408 E23.8027
G1 X78.927 Y129.22 E23.88394
G1 X76.557 Y130.094 E23.96459
G1 X75.843 Y130.379 E23.98914
G1 X74.933 Y130.729 E24.02027
G1 X74.052 Y131.025 E24.04994
G1 X73.491 Y131.186 E24.06858
G1 X72.908 Y131.337 E24.08781
G1 X72.006 Y131.52 E24.1172
G1 X71.454 Y131.591 E24.13497
G1 X71.013 Y131.636 E24.14912
G1 X68.328 Y131.87 E24.23518
G1 X65.85 Y132.158 E24.31483
G1 X63.349 Y132.52 E24.39552
G1 X60.292 Y133.059 E24.49463
G1 X59.281 Y133.187 E24.52717
G1 X58.741 Y133.229 E24.54447
G1 X56.113 Y133.469 E24.62873
G1 X53.628 Y133.768 E24.70865
G1 X51.11 Y134.143 E24.78993
G1 X48.429 Y134.621 E24.87688
G1 X47.464 Y134.748 E24.90796
G1 X46.762 Y134.808 E24.93046
G1 X44.091 Y135.055 E25.01611
G1 X41.587 Y135.358 E25.09664
G1 X39.108 Y135.73 E25.17668
G1 X37.808 Y135.967 E25.21888
G1 X36.455 Y136.197 E25.2627
G1 X35.542 Y136.312 E25.29208
G1 X34.979 Y136.343 E25.31008
G1 X34.149 Y136.362 E25.33659
G1 X33.871 Y136.362 E25.34547
G1 X32.951 Y136.322 E25.37487
G1 X31.715 Y136.14 E25.41476
G1 X31.431 Y136.081 E25.42402
G1 X30.737 Y135.913 E25.44682
G1 X30.257 Y135.779 E25.46273
G1 X29.382 Y135.493 E25.49213
G1 X28.535 Y135.132 E25.52153
G1 X27.967 Y134.839 E25.54193
G1 X27.032 Y134.309 E25.57625
G1 X26.261 Y133.806 E25.60564
G1 X25.537 Y133.237 E25.63504
G1 X25.085 Y132.826 E25.65455
G1 X24.621 Y132.379 E25.67512
G1 X24.27 Y132.026 E25.69102
G1 X23.657 Y131.339 E25.72042
G1 X23.107 Y130.601 E25.7498
G1 X22.785 Y130.097 E25.7689
G1 X22.496 Y129.616 E25.78682
