;FLAVOR:Marlin
;TIME:6054
;Filament used: 4.08485m
;Layer height: 0.2
;MINX:28.575
;MINY:31.795
;MINZ:0.2
;MAXX:191.425
;MAXY:187.904
;MAXZ:6.8
;Generated with Cura_SteamEngine 4.6.1
M140 S45
M105
M190 S45
M104 S200
M105
M109 S200
M82 ;absolute extrusion mode
M201 X500.00 Y500.00 Z100.00 E5000.00 ;Setup machine max acceleration
M203 X500.00 Y500.00 Z10.00 E50.00 ;Setup machine max feedrate
M204 P500.00 R1000.00 T500.00 ;Setup Print/Retract/Travel acceleration
M205 X8.00 Y8.00 Z0.40 E5.00 ;Setup Jerk
M220 S100 ;Reset Feedrate
M221 S100 ;Reset Flowrate
M155 S5 ;Temp reporting

G28 ;Home

G92 E0 ;Reset Extruder
G1 Z2.0 F3000 ;Move Z Axis up
G1 X10.1 Y20 Z0.28 F5000.0 ;Move to start position
G1 X10.1 Y200.0 Z0.28 F1500.0 E15 ;Draw the first line
G1 X10.4 Y200.0 Z0.28 F5000.0 ;Move to side a little
G1 X10.4 Y20 Z0.28 F1500.0 E30 ;Draw the second line
G92 E0 ;Reset Extruder
G1 Z2.0 F3000 ;Move Z Axis up
G92 E0
G92 E0
G1 F2700 E-5
;LAYER_COUNT:34
;LAYER:0
M107
G0 F1800 X54.861 Y42.989 Z0.2
;TYPE:SKIRT
G1 F2700 E0
G1 F1200 X55.219 Y42.578 E0.01813
G1 X55.953 Y41.895 E0.05148
G1 X56.283 Y41.634 E0.06547
G1 X56.927 Y41.205 E0.09121
G1 X57.177 Y41.058 E0.10085
G1 X57.99 Y40.639 E0.13127
G1 X58.197 Y40.543 E0.13886
G1 X59.885 Y39.853 E0.19951
G1 X60.026 Y39.801 E0.20451
G1 X61.305 Y39.364 E0.24947
G1 X64.182 Y38.497 E0.34941
G1 X67.447 Y37.623 E0.46183
G1 X67.707 Y37.56 E0.47072
G1 X67.298 Y34.835 E0.56237
G1 X67.27 Y34.38 E0.57753
G1 X67.322 Y33.928 E0.59267
G1 X67.452 Y33.491 E0.60783
G1 X67.656 Y33.084 E0.62297
G1 X67.928 Y32.719 E0.63811
G1 X68.26 Y32.406 E0.65329
G1 X68.642 Y32.157 E0.66846
G1 X69.061 Y31.978 E0.68361
G1 X69.444 Y31.884 E0.69673
G1 X69.77 Y31.83 E0.70772
G1 X70.224 Y31.795 E0.72286
G1 X70.678 Y31.84 E0.73804
G1 X71.116 Y31.964 E0.75318
G1 X71.527 Y32.162 E0.76835
G1 X71.896 Y32.429 E0.7835
G1 X72.213 Y32.756 E0.79865
G1 X72.468 Y33.133 E0.81378
G1 X72.654 Y33.55 E0.82897
G1 X72.766 Y34.007 E0.84462
G1 X73.111 Y36.299 E0.92171
G1 X77.228 Y35.415 E1.06177
G1 X82.406 Y34.469 E1.23684
G1 X86.139 Y33.887 E1.3625
G1 X89.185 Y33.48 E1.46471
G1 X95.049 Y32.869 E1.6608
G1 X101.059 Y32.478 E1.86112
G1 X107.019 Y32.324 E2.05941
G1 X110.108 Y32.331 E2.16215
G1 X112.817 Y32.324 E2.25226
G1 X118.136 Y32.443 E2.42921
G1 X123.49 Y32.752 E2.60758
G1 X128.685 Y33.231 E2.7811
G1 X131.394 Y33.555 E2.87185
G1 X136.409 Y34.273 E3.04035
G1 X139.958 Y34.881 E3.16011
G1 X145.646 Y36.004 E3.35294
G1 X146.913 Y36.289 E3.39613
G1 X147.257 Y34.008 E3.47286
G1 X147.364 Y33.565 E3.48802
G1 X147.547 Y33.147 E3.50319
G1 X147.8 Y32.768 E3.51835
G1 X148.115 Y32.439 E3.5335
G1 X148.482 Y32.17 E3.54863
G1 X148.892 Y31.97 E3.56381
G1 X149.329 Y31.843 E3.57894
G1 X149.782 Y31.795 E3.59409
G1 X150.253 Y31.83 E3.6098
G1 X150.579 Y31.884 E3.62079
G1 X151.02 Y31.998 E3.63594
G1 X151.435 Y32.186 E3.6511
G1 X151.81 Y32.445 E3.66625
G1 X152.135 Y32.765 E3.68142
G1 X152.398 Y33.136 E3.69655
G1 X152.593 Y33.548 E3.71171
G1 X152.713 Y33.988 E3.72688
G1 X152.754 Y34.441 E3.74201
G1 X152.725 Y34.835 E3.75515
G1 X152.316 Y37.559 E3.84676
G1 X152.862 Y37.694 E3.86547
G1 X155.339 Y38.36 E3.95078
G1 X159.508 Y39.633 E4.09576
G1 X159.664 Y39.686 E4.10124
G1 X159.882 Y39.768 E4.10899
G1 X161.167 Y40.259 E4.15474
G1 X161.404 Y40.364 E4.16336
G1 X162.99 Y41.16 E4.22239
G1 X163.39 Y41.408 E4.23804
G1 X164.233 Y42.044 E4.27316
G1 X164.593 Y42.373 E4.28938
G1 X165.099 Y42.931 E4.31444
G1 X165.393 Y43.324 E4.33076
G1 X165.806 Y44.001 E4.35714
G1 X165.999 Y44.386 E4.37146
G1 X166.278 Y45.081 E4.39637
G1 X166.378 Y45.384 E4.40698
G1 X166.596 Y46.207 E4.4353
G1 X166.649 Y46.457 E4.4438
G1 X166.889 Y47.961 E4.49446
G1 X167.126 Y50.297 E4.57255
G1 X167.442 Y52.948 E4.66135
G1 X167.609 Y53.848 E4.69179
G1 X167.997 Y55.221 E4.73925
G1 X168.24 Y55.771 E4.75925
G1 X168.398 Y56.059 E4.77017
G1 X168.596 Y56.343 E4.78169
G1 X168.955 Y56.736 E4.79939
G1 X169.229 Y56.971 E4.8114
G1 X169.603 Y57.227 E4.82647
G1 X170.853 Y57.864 E4.87313
G1 X170.939 Y57.897 E4.8762
G1 X172.736 Y58.541 E4.93969
G1 X175.094 Y59.249 E5.02157
G1 X177.39 Y59.97 E5.10162
G1 X178.616 Y60.434 E5.14522
G1 X178.792 Y60.508 E5.15157
G1 X179.711 Y60.935 E5.18527
G1 X179.964 Y61.071 E5.19482
G1 X180.967 Y61.68 E5.23385
G1 X181.28 Y61.902 E5.24661
G1 X181.96 Y62.467 E5.27602
G1 X182.255 Y62.755 E5.28973
G1 X182.82 Y63.401 E5.31828
G1 X183.028 Y63.673 E5.32966
G1 X183.32 Y64.112 E5.3472
G1 X183.479 Y64.387 E5.35777
G1 X183.846 Y65.119 E5.385
G1 X183.991 Y65.468 E5.39757
G1 X184.291 Y66.376 E5.42938
G1 X184.36 Y66.626 E5.438
G1 X184.514 Y67.316 E5.46152
G1 X184.554 Y67.545 E5.46925
G1 X184.78 Y69.272 E5.52718
G1 X184.797 Y69.454 E5.53326
G1 X184.809 Y69.655 E5.53996
G1 X184.951 Y72.314 E5.62852
G1 X185.115 Y77.986 E5.81725
G1 X185.342 Y86.119 E6.08786
G1 X185.415 Y89.517 E6.2009
G1 X185.443 Y93.298 E6.32666
G1 X185.389 Y97.447 E6.46467
G1 X185.345 Y98.673 E6.50548
G1 X188.825 Y98.674 E6.62122
G1 X189.279 Y98.714 E6.63638
G1 X189.719 Y98.833 E6.65154
G1 X190.132 Y99.026 E6.6667
G1 X190.504 Y99.289 E6.68186
G1 X190.825 Y99.612 E6.697
G1 X191.084 Y99.987 E6.71216
G1 X191.274 Y100.401 E6.72731
G1 X191.389 Y100.842 E6.74247
G1 X191.425 Y101.274 E6.75689
G1 X191.425 Y101.62 E6.76839
G1 X191.385 Y102.074 E6.78355
G1 X191.267 Y102.514 E6.7987
G1 X191.073 Y102.926 E6.81385
G1 X190.81 Y103.299 E6.82903
G1 X190.487 Y103.62 E6.84418
G1 X190.112 Y103.879 E6.85933
G1 X189.698 Y104.069 E6.87449
G1 X189.257 Y104.184 E6.88964
G1 X188.825 Y104.22 E6.90406
G1 X185.082 Y104.221 E7.02855
G1 X185.068 Y104.408 E7.03479
G1 X184.754 Y108.106 E7.15823
G1 X184.709 Y108.541 E7.17278
G1 X184.492 Y110.51 E7.23866
G1 X183.993 Y114.164 E7.36132
G1 X183.282 Y118.419 E7.50481
G1 X182.569 Y121.978 E7.62553
G1 X181.474 Y126.586 E7.78306
G1 X181.417 Y126.801 E7.79046
G1 X180.079 Y131.568 E7.95514
G1 X178.572 Y136.245 E8.11857
G1 X176.784 Y141.159 E8.29249
G1 X174.815 Y146.006 E8.4665
G1 X172.626 Y150.899 E8.64479
G1 X172.408 Y151.344 E8.66127
G1 X170.283 Y155.717 E8.82298
G1 X168.956 Y158.281 E8.919
G1 X167.546 Y160.905 E9.01808
G1 X166.282 Y163.19 E9.10493
G1 X166.107 Y163.491 E9.11651
G1 X163.341 Y168.232 E9.29907
G1 X161.531 Y171.187 E9.41433
G1 X161.249 Y171.634 E9.4319
G1 X161.475 Y171.805 E9.44133
G1 X161.866 Y172.147 E9.45861
G1 X162.118 Y172.4 E9.47048
G1 X162.558 Y172.907 E9.49281
G1 X162.792 Y173.223 E9.50589
G1 X163.176 Y173.831 E9.52981
G1 X163.352 Y174.16 E9.54222
G1 X163.605 Y174.727 E9.56287
G1 X163.702 Y174.978 E9.57182
G1 X163.857 Y175.452 E9.58841
G1 X163.933 Y175.737 E9.59822
G1 X164.082 Y176.463 E9.62287
G1 X164.128 Y176.79 E9.63385
G1 X164.18 Y177.477 E9.65676
G1 X164.186 Y177.757 E9.66608
G1 X164.163 Y178.468 E9.68974
G1 X164.139 Y178.744 E9.69895
G1 X164.04 Y179.452 E9.72273
G1 X163.992 Y179.704 E9.73126
G1 X163.824 Y180.398 E9.75501
G1 X163.754 Y180.636 E9.76326
G1 X163.534 Y181.272 E9.78565
G1 X163.45 Y181.484 E9.79323
G1 X163.16 Y182.132 E9.81684
G1 X163.056 Y182.34 E9.82458
G1 X162.709 Y182.96 E9.84821
G1 X162.588 Y183.156 E9.85587
G1 X162.171 Y183.767 E9.88048
G1 X161.976 Y184.017 E9.89102
G1 X161.245 Y184.849 E9.92786
G1 X161.019 Y185.077 E9.93853
G1 X160.277 Y185.736 E9.97154
G1 X160.043 Y185.92 E9.98144
G1 X159.46 Y186.329 E10.00513
G1 X159.237 Y186.47 E10.0139
G1 X158.624 Y186.813 E10.03727
G1 X158.37 Y186.937 E10.04667
G1 X157.642 Y187.246 E10.07297
G1 X157.253 Y187.376 E10.08661
G1 X156.207 Y187.636 E10.12246
G1 X155.928 Y187.69 E10.13191
G1 X155.524 Y187.741 E10.14546
G1 X155.075 Y187.78 E10.16045
G1 X154.722 Y187.787 E10.17219
G1 X154.014 Y187.752 E10.19577
G1 X153.643 Y187.707 E10.2082
G1 X152.953 Y187.572 E10.23158
G1 X152.633 Y187.488 E10.24259
G1 X152.148 Y187.327 E10.25958
G1 X151.865 Y187.214 E10.26972
G1 X151.429 Y187.01 E10.28573
G1 X151.11 Y186.832 E10.29788
G1 X150.456 Y186.405 E10.32386
G1 X150.092 Y186.118 E10.33927
G1 X149.641 Y185.692 E10.35991
G1 X149.388 Y185.417 E10.37234
G1 X148.968 Y184.887 E10.39483
G1 X148.739 Y184.563 E10.40802
G1 X148.542 Y184.152 E10.42318
G1 X148.419 Y183.713 E10.43835
G1 X148.375 Y183.259 E10.45352
G1 X148.388 Y182.976 E10.46294
G1 X148.425 Y182.625 E10.47468
G1 X148.643 Y181.089 E10.52628
G1 X148.929 Y179.544 E10.57854
G1 X148.994 Y179.263 E10.58813
G1 X149.135 Y178.83 E10.60328
G1 X149.373 Y178.393 E10.61983
G1 X152.685 Y173.494 E10.81651
G1 X157.313 Y166.216 E11.10338
G1 X157.488 Y165.922 E11.11476
G1 X162.29 Y157.589 E11.43464
G1 X164.002 Y154.361 E11.55617
G1 X164.147 Y154.074 E11.56686
G1 X166.792 Y148.731 E11.76515
G1 X167.796 Y146.556 E11.84483
G1 X169.784 Y141.964 E12.01126
G1 X170.703 Y139.681 E12.09311
G1 X171.595 Y137.344 E12.17631
G1 X172.38 Y135.171 E12.25316
G1 X172.478 Y134.877 E12.26346
G1 X173.196 Y132.771 E12.33747
G1 X174.248 Y129.409 E12.45464
G1 X174.314 Y129.171 E12.46285
G1 X175.235 Y125.928 E12.57498
G1 X175.835 Y123.582 E12.65552
G1 X176.87 Y118.929 E12.81406
G1 X177.37 Y116.285 E12.90356
G1 X177.393 Y116.13 E12.90877
G1 X178.111 Y111.526 E13.06375
G1 X178.145 Y111.236 E13.07346
G1 X178.415 Y109.065 E13.14623
G1 X178.854 Y104.384 E13.3026
G1 X179.147 Y98.79 E13.48891
G1 X179.153 Y98.497 E13.49866
G1 X179.225 Y95.518 E13.59777
G1 X179.231 Y91.172 E13.74232
G1 X179.093 Y84.414 E13.96714
G1 X178.943 Y79.37 E14.13498
G1 X178.804 Y74.359 E14.30171
G1 X178.651 Y70.4 E14.43348
G1 X178.561 Y69.394 E14.46708
G1 X178.468 Y68.713 E14.48994
G1 X178.339 Y68.129 E14.50983
G1 X178.252 Y67.841 E14.51983
G1 X177.997 Y67.316 E14.53925
G1 X177.903 Y67.185 E14.54461
G1 X177.758 Y67.037 E14.5515
G1 X177.326 Y66.709 E14.56954
G1 X176.945 Y66.487 E14.58421
G1 X176.459 Y66.258 E14.60208
G1 X175.546 Y65.896 E14.63474
G1 X174.186 Y65.45 E14.68235
G1 X170.57 Y64.357 E14.80799
G1 X168.43 Y63.571 E14.88382
G1 X168.211 Y63.479 E14.89172
G1 X167.312 Y63.052 E14.92482
G1 X167.167 Y62.977 E14.93025
G1 X166.528 Y62.623 E14.95455
G1 X166.323 Y62.497 E14.96255
G1 X165.662 Y62.046 E14.98916
G1 X165.474 Y61.905 E14.99698
G1 X164.832 Y61.376 E15.02465
G1 X164.519 Y61.07 E15.03921
G1 X163.621 Y60.032 E15.08486
G1 X163.45 Y59.812 E15.09412
G1 X163.273 Y59.553 E15.10456
G1 X163.037 Y59.184 E15.11913
G1 X162.854 Y58.845 E15.13194
G1 X162.525 Y58.111 E15.15869
G1 X162.459 Y58.318 E15.16592
G1 X162.261 Y58.858 E15.18505
G1 X162.142 Y59.132 E15.19498
G1 X161.926 Y59.561 E15.21096
G1 X161.708 Y59.919 E15.2249
G1 X161.454 Y60.269 E15.23928
G1 X161.172 Y60.597 E15.25367
G1 X160.942 Y60.823 E15.2644
G1 X160.581 Y61.118 E15.2799
G1 X160.4 Y61.241 E15.28718
G1 X159.926 Y61.496 E15.30508
G1 X159.541 Y61.654 E15.31892
G1 X159.042 Y61.803 E15.33625
G1 X158.838 Y61.842 E15.34315
G1 X158.44 Y61.886 E15.35647
G1 X158.124 Y61.897 E15.36699
G1 X157.724 Y61.881 E15.3803
G1 X157.282 Y61.828 E15.39511
G1 X156.894 Y61.75 E15.40827
G1 X156.435 Y61.622 E15.42412
G1 X156.196 Y61.543 E15.43249
G1 X155.645 Y61.33 E15.45214
G1 X155.486 Y61.263 E15.45788
G1 X154.723 Y60.903 E15.48594
G1 X152.772 Y59.857 E15.55957
G1 X149.367 Y57.969 E15.68906
G1 X146.731 Y56.602 E15.78783
G1 X144.207 Y55.405 E15.88074
G1 X143.374 Y55.037 E15.91102
G1 X141.847 Y54.388 E15.96621
G1 X140.232 Y53.745 E16.02403
G1 X137.014 Y52.592 E16.13772
G1 X135.517 Y52.107 E16.19006
G1 X133.941 Y51.633 E16.2448
G1 X132.344 Y51.191 E16.29991
G1 X129.24 Y50.427 E16.40623
G1 X126.121 Y49.785 E16.51214
G1 X123.827 Y49.398 E16.58952
G1 X120.77 Y48.97 E16.69219
G1 X118.581 Y48.724 E16.76545
G1 X115.618 Y48.477 E16.86434
G1 X114.264 Y48.397 E16.90946
G1 X112.05 Y48.303 E16.98316
G1 X110.026 Y48.254 E17.0505
G1 X106.419 Y48.364 E17.17052
G1 X104.319 Y48.481 E17.24048
G1 X102.142 Y48.658 E17.31313
G1 X99.122 Y48.983 E17.41415
G1 X96.124 Y49.405 E17.51485
G1 X93.744 Y49.813 E17.59516
G1 X90.679 Y50.447 E17.69926
G1 X87.567 Y51.216 E17.80588
G1 X86.049 Y51.638 E17.85828
G1 X84.413 Y52.13 E17.91511
G1 X82.042 Y52.921 E17.99824
G1 X79.718 Y53.767 E18.0805
G1 X78.179 Y54.378 E18.13557
G1 X76.211 Y55.221 E18.20678
G1 X74.64 Y55.939 E18.26423
G1 X73.261 Y56.605 E18.31516
G1 X71.47 Y57.522 E18.38209
G1 X66.975 Y59.994 E18.55271
G1 X64.66 Y61.19 E18.63937
G1 X64.425 Y61.297 E18.64796
G1 X63.85 Y61.525 E18.66853
G1 X63.605 Y61.608 E18.67714
G1 X63.121 Y61.746 E18.69388
G1 X62.726 Y61.826 E18.70728
G1 X62.304 Y61.878 E18.72142
G1 X61.922 Y61.897 E18.73415
G1 X61.595 Y61.889 E18.74502
G1 X61.163 Y61.842 E18.75948
G1 X60.947 Y61.8 E18.7668
G1 X60.452 Y61.652 E18.78398
G1 X60.081 Y61.499 E18.79733
G1 X59.643 Y61.267 E18.81381
G1 X59.456 Y61.144 E18.82126
G1 X59.075 Y60.839 E18.83749
G1 X58.845 Y60.616 E18.84815
G1 X58.554 Y60.281 E18.8629
G1 X58.301 Y59.934 E18.87719
G1 X58.082 Y59.576 E18.89115
G1 X57.866 Y59.149 E18.90706
G1 X57.748 Y58.877 E18.91692
G1 X57.553 Y58.35 E18.93561
G1 X57.486 Y58.142 E18.94288
G1 X57.455 Y58.224 E18.9458
G1 X57.288 Y58.582 E18.95894
G1 X56.856 Y59.35 E18.98824
G1 X56.716 Y59.571 E18.99694
G1 X56.336 Y60.111 E19.01891
G1 X56.163 Y60.332 E19.02824
G1 X55.748 Y60.804 E19.04914
G1 X55.604 Y60.954 E19.05606
G1 X55.155 Y61.389 E19.07685
G1 X54.895 Y61.61 E19.0882
G1 X53.877 Y62.365 E19.13036
G1 X53.618 Y62.535 E19.14066
G1 X52.853 Y62.972 E19.16996
G1 X52.665 Y63.069 E19.177
G1 X51.648 Y63.541 E19.21429
G1 X50.744 Y63.904 E19.24669
G1 X48.797 Y64.561 E19.31504
G1 X45.508 Y65.547 E19.42924
G1 X44.408 Y65.912 E19.46779
G1 X43.728 Y66.173 E19.49201
G1 X42.979 Y66.531 E19.51962
G1 X42.562 Y66.785 E19.53586
G1 X42.199 Y67.091 E19.55166
G1 X41.861 Y67.564 E19.57099
G1 X41.771 Y67.771 E19.5785
G1 X41.619 Y68.296 E19.59668
G1 X41.527 Y68.776 E19.61293
G1 X41.329 Y70.739 E19.67855
G1 X41.248 Y72.514 E19.73765
G1 X40.828 Y87.45 E20.23462
G1 X40.758 Y92.324 E20.39675
G1 X40.758 Y92.827 E20.41348
G1 X40.769 Y95.342 E20.49713
G1 X40.853 Y98.959 E20.61746
G1 X41.181 Y104.832 E20.8131
G1 X41.473 Y108.018 E20.91951
G1 X41.93 Y111.829 E21.04718
G1 X42.302 Y114.317 E21.13085
G1 X42.883 Y117.654 E21.24351
G1 X43.334 Y119.918 E21.32029
G1 X43.97 Y122.748 E21.41676
G1 X45.023 Y126.885 E21.55875
G1 X45.756 Y129.432 E21.6469
G1 X46.589 Y132.123 E21.74059
G1 X46.686 Y132.405 E21.75051
G1 X47.75 Y135.541 E21.86065
G1 X48.801 Y138.389 E21.96162
G1 X49.714 Y140.737 E22.04541
G1 X50.491 Y142.634 E22.11359
G1 X50.623 Y142.934 E22.1245
G1 X52.019 Y146.154 E22.24123
G1 X53.761 Y149.899 E22.3786
G1 X55.977 Y154.328 E22.54332
G1 X58.709 Y159.393 E22.73473
G1 X61.006 Y163.403 E22.88843
G1 X62.777 Y166.365 E23.00321
G1 X66.425 Y172.142 E23.23046
G1 X70.612 Y178.37 E23.48006
G1 X70.832 Y178.769 E23.49522
G1 X70.961 Y179.131 E23.508
G1 X71.04 Y179.418 E23.5179
G1 X71.086 Y179.616 E23.52466
G1 X71.285 Y180.665 E23.56017
G1 X71.58 Y182.681 E23.62794
G1 X71.61 Y182.952 E23.63701
G1 X71.62 Y183.407 E23.65215
G1 X71.551 Y183.858 E23.66732
G1 X71.404 Y184.289 E23.68247
G1 X71.077 Y184.836 E23.70366
G1 X70.667 Y185.362 E23.72584
G1 X70.422 Y185.634 E23.73802
G1 X70.043 Y186 E23.75554
G1 X69.825 Y186.189 E23.76514
G1 X69.423 Y186.499 E23.78203
G1 X69.11 Y186.706 E23.79451
G1 X68.538 Y187.028 E23.81634
G1 X68.24 Y187.171 E23.82733
G1 X67.816 Y187.343 E23.84255
G1 X67.599 Y187.421 E23.85022
G1 X67.239 Y187.531 E23.86274
G1 X66.856 Y187.616 E23.87579
G1 X65.908 Y187.755 E23.90766
G1 X65.522 Y187.783 E23.92053
G1 X64.961 Y187.781 E23.93919
G1 X64.645 Y187.761 E23.94972
G1 X63.907 Y187.668 E23.97446
G1 X63.544 Y187.595 E23.98677
G1 X62.688 Y187.36 E24.0163
G1 X62.383 Y187.256 E24.02702
G1 X61.761 Y186.999 E24.0494
G1 X61.412 Y186.823 E24.0624
G1 X60.235 Y186.114 E24.1081
G1 X59.938 Y185.905 E24.12018
G1 X59.389 Y185.459 E24.14371
G1 X59.21 Y185.3 E24.15167
G1 X58.703 Y184.804 E24.17526
G1 X58.471 Y184.544 E24.18685
G1 X57.597 Y183.423 E24.23413
G1 X57.4 Y183.132 E24.24582
G1 X56.989 Y182.426 E24.27299
G1 X56.85 Y182.15 E24.28326
G1 X56.745 Y181.905 E24.29213
G1 X56.329 Y180.873 E24.32914
G1 X56.22 Y180.542 E24.34073
G1 X56.015 Y179.736 E24.36839
G1 X55.959 Y179.451 E24.37805
G1 X55.861 Y178.741 E24.40189
G1 X55.838 Y178.469 E24.41097
G1 X55.815 Y177.759 E24.4346
G1 X55.821 Y177.478 E24.44394
G1 X55.874 Y176.781 E24.46719
G1 X55.917 Y176.468 E24.4777
G1 X56.051 Y175.798 E24.50043
G1 X56.124 Y175.517 E24.51008
G1 X56.289 Y175 E24.52813
G1 X56.414 Y174.682 E24.5395
