;FLAVOR:Marlin
;TIME:12723
;Filament used: 7.00983m
;Layer height: 0.2
;MINX:65.815
;MINY:77.089
;MINZ:0.2
;MAXX:154.18
;MAXY:142.929
;MAXZ:25
;Generated with Cura_SteamEngine 4.8.0
M140 S55
M105
M190 S55
M104 S200
M105
M109 S200
M82 ;absolute extrusion mode
M201 X500.00 Y500.00 Z100.00 E5000.00 ;Setup machine max acceleration
M203 X500.00 Y500.00 Z10.00 E50.00 ;Setup machine max feedrate
M204 P500.00 R1000.00 T500.00 ;Setup Print/Retract/Travel acceleration
M205 X8.00 Y8.00 Z0.40 E5.00 ;Setup Jerk
M220 S100 ;Reset Feedrate
M221 S100 ;Reset Flowrate

G28 ;Home

G92 E0 ;Reset Extruder
G1 Z2.0 F3000 ;Move Z Axis up
G1 X10.1 Y20 Z0.28 F5000.0 ;Move to start position
G1 X10.1 Y200.0 Z0.28 F1500.0 E15 ;Draw the first line
G1 X10.4 Y200.0 Z0.28 F5000.0 ;Move to side a little
G1 X10.4 Y20 Z0.28 F1500.0 E30 ;Draw the second line
G92 E0 ;Reset Extruder
G1 Z2.0 F3000 ;Move Z Axis up

G92 E0
G92 E0
G1 F2700 E-5
;LAYER_COUNT:125
;LAYER:0
M107
G0 F6000 X81.688 Y81.2 Z0.2
;TYPE:SKIRT
G1 F2700 E0
G1 F600 X82.694 Y80.258 E0.05042
G1 X82.928 Y80.065 E0.06152
G1 X83.211 Y79.839 E0.07477
G1 X83.595 Y79.543 E0.09251
G1 X84.362 Y79.002 E0.12685
G1 X85.172 Y78.529 E0.16117
G1 X86.019 Y78.127 E0.19547
G1 X86.897 Y77.798 E0.22977
G1 X87.517 Y77.616 E0.25341
G1 X87.932 Y77.507 E0.26911
G1 X88.225 Y77.434 E0.28016
G1 X88.482 Y77.374 E0.28981
G1 X89.404 Y77.2 E0.32414
G1 X90.337 Y77.105 E0.35845
G1 X91.342 Y77.092 E0.39522
G1 X91.709 Y77.104 E0.40866
G1 X92.645 Y77.174 E0.443
G1 X93.262 Y77.265 E0.46582
G1 X93.614 Y77.329 E0.47891
G1 X95.941 Y77.776 E0.5656
G1 X98.434 Y78.183 E0.65802
G1 X100.944 Y78.519 E0.75067
G1 X103.422 Y78.78 E0.84183
G1 X105.949 Y78.974 E0.93455
G1 X108.446 Y79.095 E1.02602
G1 X110.971 Y79.146 E1.11841
G1 X113.493 Y79.125 E1.21069
G1 X116.014 Y79.033 E1.30298
G1 X118.531 Y78.87 E1.39526
G1 X121.023 Y78.637 E1.48683
G1 X123.527 Y78.333 E1.57912
G1 X125.981 Y77.963 E1.66992
G1 X129.107 Y77.39 E1.78619
G1 X129.492 Y77.313 E1.80055
G1 X130.736 Y77.137 E1.84652
G1 X130.831 Y77.129 E1.85001
G1 X131.372 Y77.097 E1.86984
G1 X131.602 Y77.089 E1.87826
G1 X132.539 Y77.096 E1.91254
G1 X133.473 Y77.183 E1.94686
G1 X134.411 Y77.353 E1.98173
G1 X134.884 Y77.46 E1.99948
G1 X135.263 Y77.553 E2.01375
G1 X135.498 Y77.615 E2.02265
G1 X136.394 Y77.893 E2.05697
G1 X137.263 Y78.246 E2.09129
G1 X138.099 Y78.671 E2.1256
G1 X138.895 Y79.167 E2.15991
G1 X139.368 Y79.509 E2.18127
G1 X139.753 Y79.803 E2.19899
G1 X140.043 Y80.031 E2.21249
G1 X140.285 Y80.229 E2.22392
G1 X140.985 Y80.854 E2.25826
G1 X141.629 Y81.535 E2.29255
G1 X142.4 Y82.535 E2.33875
G1 X142.588 Y82.81 E2.35093
G1 X142.877 Y83.256 E2.37038
G1 X143.19 Y83.765 E2.39224
G1 X143.647 Y84.584 E2.42655
G1 X144.11 Y85.64 E2.46874
G1 X144.267 Y86.071 E2.48552
G1 X144.377 Y86.394 E2.498
G1 X144.454 Y86.628 E2.50702
G1 X144.627 Y87.176 E2.52804
G1 X144.722 Y87.494 E2.54018
G1 X145.021 Y88.551 E2.58037
G1 X145.081 Y88.775 E2.58886
G1 X145.797 Y91.196 E2.68123
G1 X146.587 Y93.618 E2.77443
G1 X147.428 Y95.963 E2.86558
G1 X148.335 Y98.285 E2.95678
G1 X149.325 Y100.622 E3.04964
G1 X150.372 Y102.912 E3.14176
G1 X151.497 Y105.201 E3.23508
G1 X152.221 Y106.591 E3.29241
G1 X152.818 Y107.714 E3.33895
G1 X153.222 Y108.56 E3.37325
G1 X153.553 Y109.437 E3.40754
G1 X153.808 Y110.34 E3.44187
G1 X153.986 Y111.261 E3.47619
G1 X154.098 Y112.49 E3.52134
G1 X154.11 Y112.831 E3.53382
G1 X154.117 Y113.14 E3.54513
G1 X154.18 Y122.144 E3.87456
G1 X154.175 Y122.846 E3.90025
G1 X154.128 Y123.783 E3.93457
G1 X154.002 Y124.712 E3.96887
G1 X153.797 Y125.628 E4.00321
G1 X153.515 Y126.522 E4.03751
G1 X153.157 Y127.389 E4.07183
G1 X152.727 Y128.223 E4.10616
G1 X152.228 Y129.017 E4.14047
G1 X151.663 Y129.765 E4.17476
G1 X151.036 Y130.463 E4.20909
G1 X150.387 Y131.074 E4.2417
G1 X149.647 Y131.716 E4.27754
G1 X147.721 Y133.439 E4.37209
G1 X145.893 Y135.167 E4.46412
G1 X144.125 Y136.94 E4.55573
G1 X142.35 Y138.819 E4.6503
G1 X141.772 Y139.437 E4.68126
G1 X141.103 Y140.094 E4.71556
G1 X140.38 Y140.691 E4.74986
G1 X139.608 Y141.225 E4.78421
G1 X138.794 Y141.691 E4.81852
G1 X137.944 Y142.086 E4.85282
G1 X137.062 Y142.407 E4.88716
G1 X136.157 Y142.651 E4.92145
G1 X135.234 Y142.818 E4.95577
G1 X134.049 Y142.916 E4.99927
G1 X133.728 Y142.925 E5.01102
G1 X133.42 Y142.929 E5.02229
G1 X97.426 Y142.928 E6.33917
G1 X97.137 Y142.924 E6.34974
G1 X95.735 Y142.914 E6.40104
G1 X86.349 Y142.914 E6.74444
G1 X85.491 Y142.903 E6.77583
G1 X84.555 Y142.85 E6.81013
G1 X83.626 Y142.717 E6.84446
G1 X82.713 Y142.505 E6.87876
G1 X81.82 Y142.217 E6.91308
G1 X80.956 Y141.853 E6.94739
G1 X80.125 Y141.417 E6.98172
G1 X79.335 Y140.912 E7.01602
G1 X78.591 Y140.342 E7.05031
G1 X77.898 Y139.71 E7.08463
G1 X77.261 Y139.021 E7.11896
G1 X76.575 Y138.123 E7.1603
G1 X76.49 Y137.999 E7.1658
G1 X76.29 Y137.697 E7.17905
G1 X76.004 Y137.248 E7.19853
G1 X67.762 Y124.057 E7.7676
G1 X67.413 Y123.48 E7.79227
G1 X66.962 Y122.658 E7.82657
G1 X66.583 Y121.8 E7.86089
G1 X66.278 Y120.913 E7.89521
G1 X66.051 Y120.003 E7.92952
G1 X65.901 Y119.077 E7.96384
G1 X65.836 Y118.268 E7.99353
G1 X65.83 Y118.131 E7.99855
G1 X65.819 Y117.754 E8.01235
G1 X65.815 Y117.331 E8.02783
G1 X65.816 Y114.398 E8.13513
G1 X65.826 Y113.694 E8.16089
G1 X65.879 Y112.757 E8.19523
G1 X66.012 Y111.829 E8.22953
G1 X66.224 Y110.915 E8.26386
G1 X66.512 Y110.023 E8.29815
G1 X66.876 Y109.158 E8.33248
G1 X67.312 Y108.328 E8.36679
G1 X67.62 Y107.828 E8.38827
G1 X68.294 Y106.8 E8.43324
G1 X68.494 Y106.505 E8.44628
G1 X69.843 Y104.384 E8.53825
G1 X71.142 Y102.21 E8.6309
G1 X72.36 Y100.034 E8.72214
G1 X73.527 Y97.8 E8.81435
G1 X74.62 Y95.559 E8.90557
G1 X75.991 Y92.495 E9.02838
G1 X78.253 Y87.19 E9.23938
G1 X78.762 Y85.973 E9.28764
G1 X79.017 Y85.349 E9.31231
G1 X79.409 Y84.497 E9.34662
G1 X79.85 Y83.717 E9.3794
G1 X80.072 Y83.359 E9.39481
G1 X80.25 Y83.08 E9.40692
G1 X80.523 Y82.668 E9.425
G1 X81.074 Y81.909 E9.45932
G1 X81.688 Y81.2 E9.49363
G0 F6000 X82.002 Y81.449
G1 F600 X82.948 Y80.567 E9.54095
G1 X83.182 Y80.374 E9.55205
G1 X83.456 Y80.156 E9.56486
G1 X83.84 Y79.86 E9.5826
G1 X84.593 Y79.33 E9.61629
G1 X85.389 Y78.867 E9.64998
G1 X86.222 Y78.476 E9.68365
G1 X87.086 Y78.158 E9.71733
G1 X87.618 Y78.003 E9.7376
G1 X88.033 Y77.894 E9.7533
G1 X88.316 Y77.824 E9.76397
G1 X88.573 Y77.764 E9.77362
G1 X89.478 Y77.593 E9.80732
G1 X90.394 Y77.502 E9.841
G1 X91.329 Y77.492 E9.87521
G1 X91.696 Y77.504 E9.88864
G1 X92.614 Y77.574 E9.92232
G1 X93.192 Y77.659 E9.9437
G1 X93.539 Y77.722 E9.9566
G1 X95.873 Y78.171 E10.04356
G1 X98.388 Y78.581 E10.13679
G1 X100.885 Y78.915 E10.22896
G1 X103.383 Y79.179 E10.32086
G1 X105.901 Y79.371 E10.41325
G1 X108.453 Y79.495 E10.50673
G1 X110.966 Y79.546 E10.59869
G1 X113.511 Y79.525 E10.6918
G1 X116.019 Y79.434 E10.78362
G1 X118.558 Y79.269 E10.87671
G1 X121.072 Y79.034 E10.96909
G1 X123.563 Y78.731 E11.0609
G1 X126.052 Y78.356 E11.15299
G1 X129.258 Y77.769 E11.27223
G1 X129.571 Y77.706 E11.28391
G1 X130.77 Y77.535 E11.32822
G1 X130.865 Y77.527 E11.33171
G1 X131.386 Y77.496 E11.35081
G1 X131.616 Y77.488 E11.35923
G1 X132.536 Y77.496 E11.39289
G1 X133.453 Y77.584 E11.42659
G1 X134.323 Y77.743 E11.45895
G1 X134.796 Y77.85 E11.47669
G1 X135.161 Y77.94 E11.49044
G1 X135.396 Y78.002 E11.49934
G1 X136.275 Y78.275 E11.53301
G1 X137.127 Y78.624 E11.5667
G1 X137.946 Y79.045 E11.60039
G1 X138.725 Y79.535 E11.63406
G1 X139.125 Y79.826 E11.65215
G1 X139.51 Y80.12 E11.66988
G1 X139.789 Y80.341 E11.6829
G1 X140.031 Y80.539 E11.69434
G1 X140.718 Y81.152 E11.72802
G1 X141.349 Y81.823 E11.76172
G1 X142.07 Y82.761 E11.80501
G1 X142.258 Y83.036 E11.8172
G1 X142.536 Y83.466 E11.83593
G1 X142.849 Y83.975 E11.85779
G1 X143.297 Y84.779 E11.89146
G1 X143.736 Y85.781 E11.93149
G1 X143.888 Y86.2 E11.94779
G1 X143.998 Y86.523 E11.96028
G1 X144.072 Y86.749 E11.96898
G1 X144.245 Y87.297 E11.99
G1 X144.337 Y87.603 E12.00169
G1 X144.69 Y88.857 E12.04936
G1 X144.707 Y88.922 E12.05181
G1 X145.418 Y91.329 E12.14364
G1 X146.199 Y93.721 E12.2357
G1 X147.047 Y96.084 E12.32755
G1 X147.983 Y98.48 E12.42166
G1 X148.956 Y100.778 E12.51296
G1 X150.001 Y103.062 E12.60486
G1 X151.133 Y105.366 E12.69878
G1 X151.868 Y106.778 E12.75702
G1 X152.465 Y107.901 E12.80355
G1 X152.861 Y108.732 E12.83723
G1 X153.184 Y109.594 E12.8709
G1 X153.431 Y110.481 E12.90459
G1 X153.6 Y111.386 E12.93827
G1 X153.698 Y112.504 E12.97933
G1 X153.71 Y112.845 E12.99182
G1 X153.717 Y113.143 E13.00272
G1 X153.78 Y122.141 E13.33193
G1 X153.775 Y122.843 E13.35762
G1 X153.728 Y123.763 E13.39132
G1 X153.602 Y124.675 E13.425
G1 X153.397 Y125.573 E13.4587
G1 X153.115 Y126.449 E13.49237
G1 X152.758 Y127.298 E13.52607
G1 X152.329 Y128.112 E13.55973
G1 X151.831 Y128.886 E13.59341
G1 X151.267 Y129.614 E13.6271
G1 X150.643 Y130.291 E13.66078
G1 X150.125 Y130.772 E13.68665
G1 X149.402 Y131.4 E13.72168
G1 X147.444 Y133.151 E13.81778
G1 X145.619 Y134.876 E13.90966
G1 X143.834 Y136.666 E14.00215
G1 X142.059 Y138.545 E14.09672
G1 X141.48 Y139.163 E14.1277
G1 X140.822 Y139.808 E14.16141
G1 X140.111 Y140.392 E14.19507
G1 X139.352 Y140.913 E14.22875
G1 X138.55 Y141.366 E14.26245
G1 X137.713 Y141.748 E14.29611
G1 X136.845 Y142.055 E14.3298
G1 X135.954 Y142.286 E14.36347
G1 X135.046 Y142.439 E14.39716
G1 X134.038 Y142.516 E14.43415
G1 X133.717 Y142.525 E14.4459
G1 X133.42 Y142.529 E14.45677
G1 X97.431 Y142.528 E15.77346
G1 X97.144 Y142.524 E15.78397
G1 X95.738 Y142.514 E15.83541
G1 X86.198 Y142.513 E16.18444
G1 X85.497 Y142.503 E16.21009
G1 X84.578 Y142.45 E16.24377
G1 X83.667 Y142.317 E16.27745
G1 X82.771 Y142.106 E16.31113
G1 X81.896 Y141.818 E16.34483
G1 X81.05 Y141.455 E16.37851
G1 X80.239 Y141.02 E16.41218
G1 X79.468 Y140.516 E16.44588
G1 X78.744 Y139.947 E16.47957
G1 X78.072 Y139.318 E16.51325
G1 X77.457 Y138.633 E16.54693
G1 X76.905 Y137.897 E16.58059
G1 X76.82 Y137.773 E16.58609
G1 X76.627 Y137.482 E16.59886
G1 X76.343 Y137.036 E16.61821
G1 X68.104 Y123.85 E17.18706
G1 X67.755 Y123.273 E17.21173
G1 X67.313 Y122.465 E17.24543
G1 X66.943 Y121.622 E17.27911
G1 X66.648 Y120.75 E17.31279
G1 X66.429 Y119.856 E17.34647
G1 X66.289 Y118.946 E17.38015
G1 X66.235 Y118.251 E17.40565
G1 X66.229 Y118.114 E17.41067
G1 X66.219 Y117.75 E17.42399
G1 X66.215 Y117.327 E17.43947
G1 X66.216 Y114.403 E17.54645
G1 X66.226 Y113.699 E17.57221
G1 X66.279 Y112.78 E17.60589
G1 X66.412 Y111.869 E17.63957
G1 X66.623 Y110.973 E17.67325
G1 X66.911 Y110.099 E17.70691
G1 X67.274 Y109.253 E17.7406
G1 X67.709 Y108.441 E17.7743
G1 X67.954 Y108.047 E17.79127
G1 X68.529 Y107.168 E17.8297
G1 X68.819 Y106.739 E17.84865
G1 X70.181 Y104.599 E17.94145
G1 X71.491 Y102.404 E18.03497
G1 X72.705 Y100.235 E18.12591
G1 X73.89 Y97.968 E18.2195
G1 X74.981 Y95.73 E18.31059
G1 X76.366 Y92.638 E18.43455
G1 X78.621 Y87.347 E18.64497
G1 X79.131 Y86.127 E18.69335
G1 X79.387 Y85.5 E18.71813
G1 X79.772 Y84.664 E18.7518
G1 X80.189 Y83.928 E18.78275
G1 X80.411 Y83.57 E18.79816
G1 X80.584 Y83.301 E18.80986
G1 X80.857 Y82.889 E18.82795
G1 X81.398 Y82.144 E18.86163
G1 X82.002 Y81.449 E18.89532
G0 F6000 X82.316 Y81.7
G1 F600 X83.203 Y80.875 E18.93964
G1 X83.437 Y80.682 E18.95074
G1 X83.7 Y80.472 E18.96305
G1 X84.084 Y80.176 E18.98079
G1 X84.823 Y79.657 E19.01383
G1 X85.605 Y79.206 E19.04685
G1 X86.424 Y78.825 E19.0799
G1 X87.273 Y78.518 E19.11293
G1 X87.72 Y78.39 E19.12994
G1 X88.135 Y78.281 E19.14564
G1 X88.407 Y78.213 E19.1559
G1 X88.664 Y78.153 E19.16556
G1 X89.552 Y77.987 E19.19861
G1 X90.451 Y77.9 E19.23165
G1 X91.316 Y77.891 E19.2633
G1 X91.683 Y77.903 E19.27673
G1 X92.584 Y77.973 E19.3098
G1 X93.123 Y78.053 E19.32973
G1 X93.463 Y78.115 E19.34238
G1 X95.799 Y78.564 E19.42941
G1 X98.308 Y78.973 E19.52241
G1 X100.826 Y79.31 E19.61536
G1 X103.381 Y79.58 E19.70936
G1 X105.885 Y79.772 E19.80124
G1 X108.427 Y79.895 E19.89435
G1 X110.96 Y79.946 E19.98704
G1 X113.528 Y79.925 E20.081
G1 X116.025 Y79.834 E20.17241
G1 X118.585 Y79.668 E20.26627
G1 X121.126 Y79.431 E20.35964
G1 X123.635 Y79.125 E20.45211
G1 X126.118 Y78.751 E20.54398
G1 X129.297 Y78.169 E20.66222
G1 X129.65 Y78.098 E20.6754
G1 X130.803 Y77.934 E20.718
G1 X130.898 Y77.926 E20.72149
G1 X131.399 Y77.896 E20.73985
G1 X131.629 Y77.888 E20.74827
G1 X132.532 Y77.897 E20.78131
G1 X133.431 Y77.985 E20.81436
G1 X134.235 Y78.133 E20.84427
G1 X134.708 Y78.24 E20.86201
G1 X135.059 Y78.326 E20.87524
G1 X135.294 Y78.388 E20.88413
G1 X136.156 Y78.657 E20.91716
G1 X136.991 Y79.001 E20.95021
G1 X137.793 Y79.418 E20.98328
G1 X138.883 Y80.144 E21.03119
G1 X139.268 Y80.438 E21.04891
G1 X139.536 Y80.651 E21.06144
G1 X139.778 Y80.849 E21.07288
G1 X140.451 Y81.451 E21.10591
G1 X141.068 Y82.11 E21.13894
G1 X141.739 Y82.987 E21.17934
G1 X141.927 Y83.262 E21.19153
G1 X142.196 Y83.675 E21.20956
G1 X142.509 Y84.184 E21.23142
G1 X142.947 Y84.974 E21.26447
G1 X143.362 Y85.922 E21.30233
G1 X143.509 Y86.329 E21.31817
G1 X143.691 Y86.869 E21.33901
G1 X143.864 Y87.417 E21.36004
G1 X143.952 Y87.712 E21.3713
G1 X144.251 Y88.769 E21.41149
G1 X144.314 Y89.002 E21.42032
G1 X145.041 Y91.461 E21.51414
G1 X145.818 Y93.843 E21.6058
G1 X146.685 Y96.26 E21.69975
G1 X147.601 Y98.603 E21.79179
G1 X148.583 Y100.922 E21.88393
G1 X149.657 Y103.27 E21.97839
G1 X150.777 Y105.549 E22.0713
G1 X151.555 Y107.043 E22.13292
G1 X152.111 Y108.089 E22.17626
G1 X152.5 Y108.904 E22.2093
G1 X152.814 Y109.751 E22.24235
G1 X153.053 Y110.622 E22.2754
G1 X153.213 Y111.511 E22.30844
G1 X153.299 Y112.518 E22.34542
G1 X153.311 Y112.859 E22.3579
G1 X153.317 Y113.145 E22.36837
G1 X153.38 Y122.139 E22.69743
G1 X153.375 Y122.841 E22.72312
G1 X153.328 Y123.743 E22.75616
G1 X153.202 Y124.637 E22.78919
G1 X152.998 Y125.516 E22.82221
G1 X152.716 Y126.375 E22.85529
G1 X152.36 Y127.204 E22.88829
G1 X151.931 Y127.999 E22.92134
G1 X151.434 Y128.753 E22.95438
G1 X150.872 Y129.46 E22.98743
G1 X150.25 Y130.115 E23.02047
G1 X149.863 Y130.47 E23.03969
G1 X149.073 Y131.156 E23.07797
G1 X147.205 Y132.827 E23.16966
G1 X145.326 Y134.603 E23.26426
G1 X143.542 Y136.391 E23.35667
G1 X141.768 Y138.27 E23.45121
G1 X141.188 Y138.89 E23.48227
G1 X140.542 Y139.522 E23.51534
G1 X139.843 Y140.093 E23.54836
G1 X139.096 Y140.601 E23.58141
G1 X138.307 Y141.041 E23.61446
G1 X137.483 Y141.409 E23.64748
G1 X136.629 Y141.703 E23.68052
G1 X135.752 Y141.92 E23.71357
G1 X134.86 Y142.058 E23.7466
G1 X134.027 Y142.116 E23.77715
G1 X133.706 Y142.125 E23.7889
G1 X133.42 Y142.129 E23.79936
G1 X97.437 Y142.128 E25.11584
G1 X97.153 Y142.124 E25.12623
G1 X95.741 Y142.114 E25.17789
G1 X86.349 Y142.114 E25.52151
G1 X85.503 Y142.103 E25.55246
G1 X84.601 Y142.05 E25.58552
G1 X83.708 Y141.918 E25.61855
G1 X82.829 Y141.707 E25.65162
G1 X81.973 Y141.419 E25.68466
G1 X81.146 Y141.057 E25.71769
G1 X80.354 Y140.623 E25.75073
G1 X79.604 Y140.12 E25.78377
G1 X78.901 Y139.553 E25.81682
G1 X78.251 Y138.927 E25.84983
G1 X77.658 Y138.245 E25.8829
G1 X77.235 Y137.671 E25.90899
G1 X77.15 Y137.547 E25.91449
G1 X76.965 Y137.267 E25.92676
G1 X76.682 Y136.824 E25.946
G1 X68.446 Y123.643 E26.51464
G1 X68.097 Y123.066 E26.53931
G1 X67.665 Y122.273 E26.57235
G1 X67.304 Y121.445 E26.6054
G1 X67.017 Y120.589 E26.63843
G1 X66.808 Y119.71 E26.67148
G1 X66.677 Y118.817 E26.7045
G1 X66.635 Y118.233 E26.72592
G1 X66.629 Y118.096 E26.73094
G1 X66.619 Y117.746 E26.74375
G1 X66.615 Y117.323 E26.75923
G1 X66.616 Y114.409 E26.86584
G1 X66.626 Y113.705 E26.8916
G1 X66.679 Y112.804 E26.92462
G1 X66.811 Y111.91 E26.95768
G1 X67.022 Y111.032 E26.99072
G1 X67.31 Y110.176 E27.02376
G1 X67.672 Y109.349 E27.05679
G1 X68.289 Y108.266 E27.10239
G1 X68.956 Y107.249 E27.14689
G1 X69.171 Y106.932 E27.1609
G1 X70.519 Y104.813 E27.25279
G1 X71.826 Y102.625 E27.34603
G1 X73.066 Y100.409 E27.43894
G1 X74.247 Y98.149 E27.53223
G1 X75.342 Y95.903 E27.62365
G1 X76.731 Y92.801 E27.748
G1 X78.962 Y87.567 E27.95616
G1 X79.5 Y86.281 E28.00716
G1 X79.757 Y85.652 E28.03202
G1 X80.136 Y84.832 E28.06507
G1 X80.529 Y84.139 E28.09422
G1 X80.751 Y83.781 E28.10963
G1 X80.917 Y83.522 E28.12089
G1 X81.19 Y83.11 E28.13897
G1 X81.722 Y82.38 E28.17202
G1 X82.316 Y81.7 E28.20505
G1 F2700 E23.20505
;MESH:Ender_5_Toolholder_no_logo.stl
G0 F6000 X86.118 Y109.824
;TYPE:WALL-INNER
G1 F2700 E28.20505
G1 F600 X86.524 Y109.787 E28.21996
