;FLAVOR:Marlin
;TIME:5634
;Filament used: 2.66912m
;Layer height: 0.16
;MINX:43.096
;MINY:52.616
;MINZ:0.14
;MAXX:176.895
;MAXY:167.341
;MAXZ:4.98
;Generated with Cura_SteamEngine 4.6.1
M140 S50
M105
M190 S50
M104 S200
M105
M109 S200
M82 ;absolute extrusion mode
M201 X500.00 Y500.00 Z100.00 E5000.00 ;Setup machine max acceleration
M203 X500.00 Y500.00 Z10.00 E50.00 ;Setup machine max feedrate
M204 P500.00 R1000.00 T500.00 ;Setup Print/Retract/Travel acceleration
M205 X8.00 Y8.00 Z0.40 E5.00 ;Setup Jerk
M220 S100 ;Reset Feedrate
M221 S100 ;Reset Flowrate

G28 ;Home

G92 E0 ;Reset Extruder
G1 Z2.0 F3000 ;Move Z Axis up
G1 X10.1 Y20 Z0.28 F5000.0 ;Move to start position
G1 X10.1 Y200.0 Z0.28 F1500.0 E15 ;Draw the first line
G1 X10.4 Y200.0 Z0.28 F5000.0 ;Move to side a little
G1 X10.4 Y20 Z0.28 F1500.0 E30 ;Draw the second line
G92 E0 ;Reset Extruder
G1 Z2.0 F3000 ;Move Z Axis up

G92 E0
G92 E0
G1 F2700 E-5
;LAYER_COUNT:30
;LAYER:0
M107
G1 F300 Z0.34
G0 F1800 X113.913 Y53.426 Z0.34
;TYPE:SKIRT
G1 F300 Z0.14
G1 F2700 E0
G1 F600 X115.076 Y53.51 E0.03258
G1 X116.064 Y53.639 E0.06041
G1 X117.155 Y53.8 E0.09123
G1 X122.285 Y54.58 E0.2362
G1 X122.918 Y54.685 E0.25412
G1 X124.039 Y54.937 E0.28622
G1 X124.967 Y55.203 E0.3132
G1 X126.57 Y55.691 E0.36001
G1 X130.953 Y57.057 E0.48827
G1 X131.631 Y57.279 E0.50821
G1 X132.659 Y57.679 E0.53902
G1 X133.453 Y58.04 E0.56339
G1 X135.13 Y58.835 E0.61524
G1 X139.167 Y60.809 E0.74079
G1 X139.789 Y61.124 E0.76027
G1 X140.686 Y61.637 E0.78914
G1 X141.301 Y62.034 E0.80959
G1 X142.456 Y62.805 E0.84839
G1 X143.353 Y63.417 E0.87873
G1 X146.63 Y65.699 E0.9903
G1 X147.215 Y66.119 E1.01042
G1 X147.839 Y66.605 E1.03251
G1 X148.251 Y66.958 E1.04767
G1 X148.524 Y67.204 E1.05794
G1 X149.748 Y68.322 E1.10425
G1 X150.671 Y69.186 E1.13958
G1 X153.208 Y71.614 E1.23769
G1 X153.738 Y72.135 E1.25845
G1 X154.314 Y72.749 E1.28197
G1 X154.539 Y73.01 E1.2916
G1 X154.75 Y73.264 E1.30082
G1 X156.069 Y74.9 E1.35954
G1 X156.962 Y76.04 E1.39999
G1 X158.507 Y78.07 E1.47127
G1 X160.103 Y80.106 E1.54354
G1 X161.747 Y82.085 E1.61542
G1 X163.403 Y83.967 E1.68546
G1 X165.141 Y85.835 E1.75675
G1 X166.932 Y87.652 E1.82802
G1 X168.753 Y89.398 E1.89851
G1 X170.658 Y91.124 E1.97033
G1 X172.433 Y92.65 E2.03573
G1 X173.091 Y93.269 E2.06097
G1 X173.692 Y93.943 E2.08619
G1 X174.193 Y94.612 E2.10955
G1 X174.307 Y94.778 E2.11517
G1 X174.785 Y95.544 E2.1404
G1 X175.193 Y96.35 E2.16564
G1 X175.528 Y97.188 E2.19085
G1 X175.788 Y98.053 E2.21609
G1 X175.97 Y98.938 E2.24133
G1 X176.074 Y99.835 E2.26656
G1 X176.095 Y100.834 E2.29447
G1 X176.058 Y102.09 E2.32958
G1 X175.129 Y121.416 E2.87014
G1 X175.088 Y122.083 E2.88881
G1 X174.993 Y122.981 E2.91404
G1 X174.818 Y123.867 E2.93927
G1 X174.566 Y124.734 E2.9645
G1 X174.238 Y125.576 E2.98975
G1 X173.838 Y126.385 E3.01496
G1 X173.367 Y127.156 E3.0402
G1 X172.829 Y127.882 E3.06545
G1 X172.23 Y128.557 E3.09066
G1 X171.777 Y128.996 E3.10828
G1 X171.27 Y129.458 E3.12745
G1 X170.948 Y129.74 E3.13941
G1 X169.492 Y130.959 E3.19246
G1 X167.586 Y132.649 E3.26363
G1 X165.756 Y134.366 E3.33374
G1 X163.948 Y136.16 E3.4049
G1 X162.176 Y138.023 E3.47673
G1 X160.49 Y139.899 E3.5472
G1 X158.864 Y141.813 E3.61737
G1 X157.678 Y143.29 E3.67029
G1 X156.787 Y144.358 E3.70915
G1 X153.313 Y148.403 E3.85812
G1 X152.885 Y148.888 E3.87619
G1 X152.258 Y149.538 E3.90142
G1 X151.945 Y149.835 E3.91347
G1 X151.684 Y150.074 E3.92336
G1 X151.275 Y150.434 E3.93858
G1 X150.925 Y150.734 E3.95146
G1 X146.898 Y154.161 E4.0992
G1 X146.347 Y154.617 E4.11918
G1 X145.404 Y155.311 E4.15189
G1 X144.603 Y155.83 E4.17856
G1 X139.724 Y158.893 E4.3395
G1 X139.157 Y159.237 E4.35803
G1 X138.168 Y159.764 E4.38934
G1 X137.356 Y160.141 E4.41435
G1 X132.091 Y162.484 E4.57536
G1 X131.406 Y162.777 E4.59617
G1 X130.336 Y163.166 E4.62798
G1 X129.505 Y163.415 E4.65222
G1 X123.929 Y165.008 E4.81424
G1 X123.258 Y165.189 E4.83365
G1 X122.206 Y165.414 E4.86371
G1 X121.325 Y165.552 E4.88862
G1 X115.523 Y166.364 E5.0523
G1 X114.829 Y166.451 E5.07184
G1 X113.753 Y166.528 E5.10198
G1 X112.98 Y166.541 E5.12358
G1 X107.02 Y166.54 E5.2901
G1 X106.322 Y166.53 E5.3096
G1 X105.251 Y166.458 E5.33959
G1 X104.44 Y166.359 E5.36241
G1 X98.584 Y165.539 E5.52762
G1 X97.882 Y165.43 E5.54747
G1 X96.859 Y165.217 E5.57666
G1 X96.075 Y165.01 E5.59932
G1 X95.715 Y164.908 E5.60977
G1 X90.395 Y163.385 E5.76437
G1 X89.691 Y163.174 E5.78491
G1 X88.63 Y162.791 E5.81642
G1 X87.885 Y162.473 E5.83905
G1 X82.523 Y160.084 E6.00305
G1 X81.88 Y159.786 E6.02285
G1 X80.919 Y159.277 E6.05324
G1 X80.173 Y158.827 E6.07758
G1 X75.287 Y155.754 E6.23884
G1 X74.655 Y155.346 E6.25986
G1 X73.757 Y154.695 E6.29084
G1 X73.175 Y154.219 E6.31185
G1 X68.699 Y150.404 E6.47616
G1 X68.057 Y149.832 E6.50019
G1 X67.189 Y148.959 E6.53458
G1 X66.405 Y148.068 E6.56774
G1 X63.085 Y144.197 E6.71022
G1 X62.369 Y143.338 E6.74146
G1 X60.86 Y141.476 E6.80842
G1 X59.209 Y139.555 E6.87919
G1 X57.484 Y137.656 E6.95086
G1 X55.736 Y135.84 E7.02129
G1 X53.928 Y134.065 E7.09207
G1 X52.074 Y132.343 E7.16277
G1 X50.12 Y130.632 E7.23533
G1 X48.614 Y129.374 E7.29015
G1 X47.947 Y128.765 E7.31539
G1 X47.337 Y128.1 E7.3406
G1 X46.728 Y127.295 E7.3688
G1 X46.67 Y127.21 E7.37167
G1 X46.194 Y126.442 E7.39692
G1 X45.788 Y125.635 E7.42216
G1 X45.456 Y124.796 E7.44737
G1 X45.198 Y123.93 E7.47261
G1 X45.019 Y123.045 E7.49784
G1 X44.927 Y122.27 E7.51964
G1 X44.872 Y121.437 E7.54297
G1 X43.921 Y101.648 E8.09648
G1 X43.896 Y100.951 E8.11596
G1 X43.903 Y100.048 E8.14119
G1 X43.991 Y99.149 E8.16643
G1 X44.157 Y98.261 E8.19167
G1 X44.402 Y97.392 E8.2169
G1 X44.722 Y96.547 E8.24214
G1 X45.116 Y95.735 E8.26735
G1 X45.58 Y94.96 E8.29259
G1 X46.326 Y93.969 E8.32725
G1 X46.522 Y93.739 E8.33569
G1 X47.36 Y92.866 E8.3695
G1 X47.559 Y92.682 E8.37707
G1 X47.799 Y92.467 E8.38607
G1 X48.352 Y91.988 E8.40651
G1 X49.176 Y91.286 E8.43676
G1 X51.074 Y89.573 E8.50819
G1 X52.925 Y87.808 E8.57964
G1 X54.668 Y86.048 E8.64885
G1 X56.454 Y84.14 E8.72186
G1 X58.101 Y82.275 E8.79138
G1 X59.745 Y80.305 E8.86306
G1 X61.487 Y78.088 E8.94184
G1 X63.087 Y75.988 E9.0156
G1 X64.046 Y74.766 E9.059
G1 X65.123 Y73.432 E9.1069
G1 X65.556 Y72.91 E9.12584
G1 X66.13 Y72.274 E9.14978
G1 X66.578 Y71.825 E9.1675
G1 X69.432 Y69.096 E9.27782
G1 X70.348 Y68.242 E9.31281
G1 X71.405 Y67.277 E9.3528
G1 X71.972 Y66.774 E9.37398
G1 X72.673 Y66.205 E9.3992
G1 X73.087 Y65.904 E9.4135
G1 X76.75 Y63.353 E9.53821
G1 X77.625 Y62.757 E9.56779
G1 X78.695 Y62.043 E9.60373
G1 X79.286 Y61.661 E9.62339
G1 X80.151 Y61.16 E9.65132
G1 X80.78 Y60.838 E9.67106
G1 X85.568 Y58.506 E9.81985
G1 X86.689 Y57.977 E9.85448
G1 X87.332 Y57.686 E9.8742
G1 X88.345 Y57.292 E9.90457
G1 X89.233 Y57.001 E9.93068
G1 X95.252 Y55.141 E10.10668
G1 X95.935 Y54.946 E10.12653
G1 X97.054 Y54.694 E10.15857
G1 X97.936 Y54.547 E10.18356
G1 X104.23 Y53.599 E10.36138
G1 X104.862 Y53.516 E10.37919
G1 X106.028 Y53.43 E10.41186
G1 X107.006 Y53.416 E10.43918
G1 X113.23 Y53.416 E10.61307
G1 X113.913 Y53.426 E10.63216
G0 F1800 X113.919 Y53.026
G1 F600 X115.128 Y53.113 E10.66602
G1 X116.122 Y53.244 E10.69403
G1 X117.215 Y53.404 E10.7249
G1 X122.351 Y54.186 E10.87004
G1 X122.984 Y54.291 E10.88797
G1 X124.148 Y54.552 E10.9213
G1 X125.084 Y54.82 E10.9485
G1 X126.689 Y55.309 E10.99537
G1 X131.077 Y56.677 E11.12379
G1 X131.755 Y56.899 E11.14372
G1 X132.824 Y57.314 E11.17576
G1 X133.625 Y57.678 E11.20034
G1 X135.305 Y58.476 E11.2523
G1 X139.348 Y60.453 E11.37804
G1 X139.97 Y60.768 E11.39752
G1 X140.902 Y61.301 E11.42751
G1 X141.524 Y61.701 E11.44818
G1 X142.681 Y62.474 E11.48705
G1 X143.581 Y63.088 E11.51749
G1 X146.863 Y65.374 E11.62923
G1 X147.448 Y65.794 E11.64935
G1 X148.097 Y66.299 E11.67233
G1 X148.275 Y66.449 E11.67883
G1 X148.793 Y66.908 E11.69817
G1 X150.021 Y68.03 E11.74464
G1 X150.948 Y68.897 E11.7801
G1 X153.489 Y71.329 E11.87837
G1 X154.019 Y71.85 E11.89913
G1 X154.617 Y72.488 E11.92356
G1 X154.842 Y72.749 E11.93319
G1 X155.062 Y73.013 E11.94279
G1 X156.384 Y74.653 E12.00165
G1 X157.281 Y75.798 E12.04228
G1 X158.829 Y77.832 E12.11369
G1 X160.427 Y79.87 E12.18605
G1 X162.037 Y81.808 E12.25644
G1 X163.697 Y83.696 E12.32668
G1 X165.453 Y85.582 E12.39867
G1 X167.211 Y87.366 E12.46865
G1 X169.033 Y89.113 E12.53917
G1 X170.905 Y90.809 E12.60975
G1 X172.694 Y92.347 E12.67566
G1 X173.365 Y92.977 E12.70137
G1 X173.98 Y93.662 E12.72709
G1 X174.523 Y94.385 E12.75236
G1 X174.637 Y94.551 E12.75798
G1 X175.125 Y95.332 E12.78371
G1 X175.543 Y96.152 E12.80943
G1 X175.888 Y97.006 E12.83516
G1 X176.158 Y97.886 E12.86088
G1 X176.351 Y98.786 E12.88659
G1 X176.465 Y99.7 E12.91233
G1 X176.495 Y100.845 E12.94433
G1 X176.458 Y102.109 E12.97966
G1 X175.528 Y121.44 E13.52036
G1 X175.487 Y122.107 E13.53903
G1 X175.391 Y123.023 E13.56476
G1 X175.215 Y123.927 E13.59049
G1 X174.962 Y124.812 E13.61621
G1 X174.633 Y125.672 E13.64193
G1 X174.231 Y126.5 E13.66765
G1 X173.758 Y127.29 E13.69337
G1 X173.218 Y128.036 E13.7191
G1 X172.616 Y128.732 E13.74481
G1 X172.047 Y129.292 E13.76712
G1 X171.54 Y129.754 E13.78628
G1 X171.205 Y130.046 E13.7987
G1 X169.771 Y131.247 E13.85096
G1 X167.859 Y132.942 E13.92234
G1 X166.029 Y134.658 E13.99243
G1 X164.237 Y136.437 E14.06298
G1 X162.48 Y138.284 E14.1342
G1 X160.776 Y140.18 E14.20542
G1 X159.165 Y142.076 E14.27493
G1 X157.985 Y143.546 E14.3276
G1 X157.09 Y144.618 E14.36661
G1 X153.613 Y148.668 E14.51574
G1 X153.185 Y149.153 E14.53382
G1 X152.533 Y149.828 E14.56004
G1 X152.22 Y150.125 E14.57209
G1 X151.949 Y150.374 E14.58237
G1 X151.535 Y150.738 E14.59777
G1 X151.185 Y151.038 E14.61065
G1 X147.153 Y154.469 E14.75857
G1 X146.602 Y154.925 E14.77855
G1 X145.622 Y155.646 E14.81254
G1 X144.816 Y156.169 E14.83938
G1 X139.931 Y159.235 E15.00052
G1 X139.364 Y159.579 E15.01905
G1 X138.337 Y160.127 E15.05157
G1 X137.519 Y160.506 E15.07676
G1 X132.249 Y162.852 E15.23792
G1 X131.564 Y163.145 E15.25874
G1 X130.452 Y163.549 E15.29179
G1 X129.615 Y163.8 E15.3162
G1 X124.034 Y165.394 E15.47836
G1 X123.363 Y165.575 E15.49778
G1 X122.268 Y165.809 E15.52906
G1 X121.381 Y165.949 E15.55415
G1 X115.572 Y166.761 E15.71803
G1 X114.878 Y166.848 E15.73757
G1 X113.761 Y166.928 E15.76885
G1 X112.98 Y166.941 E15.79068
G1 X107.014 Y166.94 E15.95736
G1 X106.316 Y166.93 E15.97686
G1 X105.204 Y166.855 E16.008
G1 X104.385 Y166.755 E16.03105
G1 X98.523 Y165.934 E16.19642
G1 X97.821 Y165.825 E16.21627
G1 X96.758 Y165.604 E16.24661
G1 X95.966 Y165.395 E16.26949
G1 X95.606 Y165.293 E16.27994
G1 X90.28 Y163.768 E16.43472
G1 X89.576 Y163.557 E16.45526
G1 X88.474 Y163.159 E16.48799
G1 X87.722 Y162.838 E16.51084
G1 X82.355 Y160.447 E16.67499
G1 X81.712 Y160.149 E16.69479
G1 X80.713 Y159.62 E16.72637
G1 X79.96 Y159.165 E16.75095
G1 X75.07 Y156.09 E16.91234
G1 X74.438 Y155.682 E16.93335
G1 X73.505 Y155.006 E16.96554
G1 X72.916 Y154.523 E16.98683
G1 X68.433 Y150.702 E17.1514
G1 X67.791 Y150.13 E17.17542
G1 X66.888 Y149.223 E17.21118
G1 X66.101 Y148.328 E17.24447
G1 X62.778 Y144.453 E17.38709
G1 X62.058 Y143.59 E17.41849
G1 X60.545 Y141.723 E17.48563
G1 X58.911 Y139.822 E17.55566
G1 X57.199 Y137.938 E17.62679
G1 X55.45 Y136.12 E17.69727
G1 X53.64 Y134.343 E17.76813
G1 X51.804 Y132.638 E17.83814
G1 X49.861 Y130.937 E17.91028
G1 X48.358 Y129.681 E17.96501
G1 X47.677 Y129.061 E17.99074
G1 X47.053 Y128.384 E18.01646
G1 X46.397 Y127.521 E18.04675
G1 X46.339 Y127.436 E18.04962
G1 X45.854 Y126.653 E18.07535
G1 X45.438 Y125.832 E18.10107
G1 X45.095 Y124.977 E18.12681
G1 X44.828 Y124.096 E18.15253
G1 X44.638 Y123.196 E18.17822
G1 X44.528 Y122.302 E18.20339
G1 X44.472 Y121.456 E18.22708
G1 X43.521 Y101.662 E18.78073
G1 X43.496 Y100.965 E18.80022
G1 X43.503 Y100.044 E18.82595
G1 X43.59 Y99.128 E18.85165
G1 X43.756 Y98.222 E18.87739
G1 X44 Y97.334 E18.90312
G1 X44.32 Y96.471 E18.92883
G1 X44.714 Y95.639 E18.95455
G1 X45.178 Y94.844 E18.98027
G1 X45.71 Y94.093 E19.00598
G1 X46.021 Y93.71 E19.01977
G1 X46.217 Y93.48 E19.02821
G1 X47.089 Y92.572 E19.06338
G1 X47.288 Y92.388 E19.07095
G1 X47.537 Y92.165 E19.08029
G1 X48.092 Y91.684 E19.10081
G1 X48.911 Y90.986 E19.13088
G1 X50.813 Y89.27 E19.20244
G1 X52.612 Y87.554 E19.2719
G1 X54.409 Y85.739 E19.34326
G1 X56.145 Y83.885 E19.41422
G1 X57.795 Y82.017 E19.48386
G1 X59.436 Y80.051 E19.5554
G1 X61.198 Y77.808 E19.63509
G1 X62.772 Y75.741 E19.70768
G1 X63.735 Y74.515 E19.75123
G1 X64.816 Y73.177 E19.79929
G1 X65.249 Y72.655 E19.81824
G1 X65.845 Y71.994 E19.84311
G1 X66.067 Y71.768 E19.85196
G1 X66.302 Y71.536 E19.86118
G1 X69.159 Y68.804 E19.97162
G1 X70.078 Y67.947 E20.00673
G1 X71.14 Y66.978 E20.0469
G1 X71.707 Y66.475 E20.06807
G1 X72.435 Y65.884 E20.09427
G1 X72.859 Y65.576 E20.10891
G1 X76.525 Y63.022 E20.23374
G1 X77.403 Y62.424 E20.26342
G1 X78.478 Y61.707 E20.29952
G1 X79.069 Y61.325 E20.31918
G1 X79.968 Y60.804 E20.34821
G1 X80.605 Y60.479 E20.36819
G1 X85.397 Y58.144 E20.51712
G1 X86.525 Y57.613 E20.55195
G1 X87.168 Y57.322 E20.57167
G1 X88.22 Y56.912 E20.60321
G1 X89.115 Y56.619 E20.62953
G1 X95.142 Y54.756 E20.80577
G1 X95.825 Y54.561 E20.82562
G1 X96.988 Y54.299 E20.85892
G1 X97.876 Y54.152 E20.88407
G1 X104.178 Y53.202 E21.06213
G1 X104.81 Y53.119 E21.07994
G1 X106.022 Y53.03 E21.11389
G1 X107.006 Y53.016 E21.14138
G1 X113.236 Y53.016 E21.31544
G1 X113.919 Y53.026 E21.33452
G0 F1800 X113.925 Y52.626
G1 F600 X115.179 Y52.716 E21.36965
G1 X116.181 Y52.848 E21.39789
G1 X117.275 Y53.009 E21.42878
G1 X122.416 Y53.791 E21.57406
G1 X123.049 Y53.896 E21.59199
G1 X124.258 Y54.168 E21.62661
G1 X125.2 Y54.437 E21.65398
G1 X126.808 Y54.927 E21.70095
G1 X131.202 Y56.297 E21.82954
G1 X131.88 Y56.519 E21.84947
G1 X132.988 Y56.95 E21.88269
G1 X133.796 Y57.317 E21.90748
G1 X135.481 Y58.117 E21.95959
G1 X139.529 Y60.096 E22.08548
G1 X140.151 Y60.411 E22.10496
G1 X141.118 Y60.964 E22.13608
G1 X141.746 Y61.368 E22.15694
G1 X142.906 Y62.144 E22.19593
G1 X143.81 Y62.76 E22.2265
G1 X147.096 Y65.049 E22.33838
G1 X147.681 Y65.469 E22.3585
G1 X148.354 Y65.993 E22.38233
G1 X148.532 Y66.143 E22.38883
G1 X149.063 Y66.613 E22.40865
G1 X150.294 Y67.738 E22.45524
G1 X151.224 Y68.608 E22.49082
G1 X153.769 Y71.044 E22.58924
G1 X154.299 Y71.565 E22.61001
G1 X154.92 Y72.227 E22.63537
G1 X155.145 Y72.488 E22.64499
G1 X155.373 Y72.761 E22.65493
G1 X156.699 Y74.406 E22.71396
G1 X157.599 Y75.556 E22.75476
G1 X159.143 Y77.584 E22.82597
G1 X160.734 Y79.613 E22.89801
G1 X162.346 Y81.554 E22.9685
G1 X164.007 Y83.443 E23.03878
G1 X165.713 Y85.276 E23.10874
G1 X167.49 Y87.079 E23.17946
G1 X169.296 Y88.811 E23.24937
G1 X171.192 Y90.529 E23.32086
G1 X172.955 Y92.044 E23.3858
G1 X173.639 Y92.685 E23.41199
G1 X174.267 Y93.382 E23.4382
G1 X174.853 Y94.159 E23.46539
G1 X174.967 Y94.325 E23.47102
G1 X175.464 Y95.12 E23.49721
G1 X175.892 Y95.954 E23.5234
G1 X176.247 Y96.822 E23.5496
G1 X176.528 Y97.717 E23.57581
G1 X176.73 Y98.633 E23.60202
G1 X176.854 Y99.563 E23.62823
G1 X176.895 Y100.856 E23.66437
G1 X176.857 Y102.128 E23.69993
G1 X175.927 Y121.465 E24.2408
G1 X175.886 Y122.132 E24.25947
G1 X175.789 Y123.065 E24.28568
G1 X175.612 Y123.986 E24.31188
G1 X175.358 Y124.889 E24.33808
G1 X175.028 Y125.766 E24.36426
G1 X174.624 Y126.613 E24.39048
G1 X174.149 Y127.422 E24.41669
G1 X173.608 Y128.187 E24.44287
G1 X173.003 Y128.904 E24.46908
G1 X172.316 Y129.588 E24.49616
G1 X171.809 Y130.05 E24.51533
G1 X171.462 Y130.353 E24.5282
G1 X170.009 Y131.569 E24.58113
G1 X168.134 Y133.232 E24.65115
G1 X166.301 Y134.952 E24.72138
G1 X164.508 Y136.732 E24.79197
G1 X162.784 Y138.543 E24.86183
G1 X161.095 Y140.423 E24.93243
G1 X159.466 Y142.339 E25.0027
G1 X158.292 Y143.802 E25.0551
G1 X157.394 Y144.879 E25.09428
G1 X153.913 Y148.932 E25.24355
G1 X153.485 Y149.417 E25.26162
G1 X152.809 Y150.118 E25.28883
G1 X152.496 Y150.415 E25.30088
G1 X152.214 Y150.673 E25.31156
G1 X151.796 Y151.042 E25.32714
G1 X151.446 Y151.342 E25.34002
G1 X147.408 Y154.777 E25.48813
G1 X146.857 Y155.233 E25.50811
G1 X145.84 Y155.981 E25.54338
G1 X145.028 Y156.507 E25.57041
G1 X140.139 Y159.577 E25.7317
G1 X139.572 Y159.921 E25.75023
G1 X138.505 Y160.49 E25.78401
G1 X137.681 Y160.871 E25.80938
G1 X132.406 Y163.22 E25.9707
G1 X131.721 Y163.513 E25.99152
G1 X130.567 Y163.932 E26.02582
G1 X129.725 Y164.184 E26.05037
