;FLAVOR:Marlin
;TIME:34318
;Filament used: 11.5181m
;Layer height: 0.175
;MINX:22.197
;MINY:25.943
;MINZ:0.263
;MAXX:94.967
;MAXY:97.769
;MAXZ:66.238
;Generated with Cura_SteamEngine 4.5.0
M140 S60
M105
M190 S60
M104 S220
M105
M109 S220
M82 ;absolute extrusion mode
G21;(metric values)
G90;(absolute positioning)
M82;(set extruder to absolute mode)
M107;(start with the fan off)
G28;(Home the printer)
G92 E0;(Reset the extruder to 0)
G0 Z5 E5 F500;(Move up and prime the nozzle)
G0 X-1 Z0;(Move outside the printable area)
G1 Y60 E8 F500;(Draw a priming/wiping line to the rear)
G1 X-1;(Move a little closer to the print area)
G1 Y10 E16 F500;(draw more priming/wiping)
G1 E15 F250;(Small retract)
G92 E0;(Zero the extruder)
G92 E0
G92 E0
G1 F2400 E-4.5
;LAYER_COUNT:378
;LAYER:0
M107
G0 F1400 X25.377 Y65.714 Z0.263
;TYPE:SKIRT
G1 F2400 E0
G1 F420 X66.991 Y41.198 E2.49532
G1 X67.637 Y40.829 E2.53376
G1 X68.444 Y40.437 E2.58011
G1 X69.251 Y40.225 E2.62322
G1 X69.776 Y40.144 E2.65066
G1 X70.219 Y40.138 E2.67355
G1 X71.134 Y40.223 E2.72103
G1 X71.91 Y40.455 E2.76287
G1 X72.399 Y40.661 E2.79029
G1 X72.828 Y40.921 E2.8162
G1 X73.531 Y41.468 E2.86222
G1 X73.885 Y41.864 E2.88967
G1 X74.536 Y42.893 E2.95257
G1 X87.997 Y65.741 E4.32264
G1 X88.279 Y66.24 E4.35225
G1 X88.504 Y66.721 E4.37968
G1 X88.654 Y67.23 E4.4071
G1 X88.726 Y67.756 E4.43453
G1 X88.718 Y68.287 E4.46197
G1 X88.63 Y68.81 E4.48937
G1 X88.465 Y69.314 E4.51676
G1 X88.226 Y69.788 E4.54419
G1 X87.919 Y70.221 E4.57161
G1 X87.55 Y70.602 E4.59902
G1 X87.043 Y70.978 E4.63163
G1 X86.348 Y71.402 E4.67369
G1 X43.441 Y96.681 E7.24658
G1 X42.607 Y97.157 E7.29619
G1 X41.742 Y97.563 E7.34556
G1 X41.228 Y97.695 E7.37297
G1 X40.403 Y97.769 E7.41577
G1 X39.872 Y97.76 E7.4432
G1 X39.12 Y97.621 E7.48271
G1 X38.613 Y97.465 E7.51012
G1 X37.811 Y97.059 E7.55656
G1 X37.365 Y96.771 E7.58399
G1 X36.968 Y96.419 E7.6114
G1 X36.527 Y95.864 E7.64803
G1 X36.203 Y95.337 E7.67999
G1 X23.095 Y73.088 E9.01413
G1 X22.707 Y72.411 E9.05444
G1 X22.466 Y71.897 E9.08377
G1 X22.266 Y71.249 E9.11881
G1 X22.197 Y70.722 E9.14627
G1 X22.206 Y70.096 E9.17861
G1 X22.269 Y69.575 E9.20573
G1 X22.494 Y68.731 E9.25085
G1 X22.832 Y67.985 E9.29317
G1 X23.284 Y67.337 E9.33399
G1 X23.629 Y66.934 E9.36139
G1 X24.116 Y66.528 E9.39415
G1 X24.794 Y66.09 E9.43585
G0 F378 X25.377 Y65.714
G0 F1400 X25.564 Y66.01
G1 F420 X67.168 Y41.499 E11.9306
G1 X67.81 Y41.133 E11.96878
G1 X68.586 Y40.758 E12.01331
G1 X69.33 Y40.566 E12.053
G1 X69.828 Y40.492 E12.07902
G1 X70.202 Y40.488 E12.09834
G1 X71.09 Y40.571 E12.14442
G1 X71.799 Y40.787 E12.18271
G1 X72.262 Y40.984 E12.2087
G1 X72.92 Y41.415 E12.24934
G1 X73.307 Y41.738 E12.27539
G1 X73.638 Y42.118 E12.30142
G1 X74.238 Y43.075 E12.35978
G1 X87.696 Y65.918 E13.72954
G1 X87.974 Y66.412 E13.75883
G1 X88.185 Y66.869 E13.78483
G1 X88.322 Y67.354 E13.81087
G1 X88.38 Y67.854 E13.83688
G1 X88.358 Y68.357 E13.86289
G1 X88.257 Y68.851 E13.88894
G1 X88.079 Y69.322 E13.91495
G1 X87.829 Y69.759 E13.94096
G1 X87.513 Y70.151 E13.96698
G1 X87.139 Y70.488 E13.99298
G1 X86.166 Y71.103 E14.05245
G1 X43.264 Y96.38 E16.62507
G1 X42.433 Y96.853 E16.67447
G1 X41.605 Y97.24 E16.72169
G1 X41.116 Y97.359 E16.74769
G1 X40.382 Y97.419 E16.78574
G1 X39.879 Y97.409 E16.81173
G1 X39.197 Y97.28 E16.84759
G1 X38.717 Y97.129 E16.87359
G1 X37.978 Y96.752 E16.91645
G1 X37.556 Y96.477 E16.94247
G1 X37.183 Y96.138 E16.96851
G1 X36.822 Y95.675 E16.99884
G1 X36.504 Y95.158 E17.0302
G1 X23.396 Y72.911 E18.36425
G1 X23.011 Y72.237 E18.40436
G1 X22.794 Y71.774 E18.43077
G1 X22.604 Y71.151 E18.46442
G1 X22.544 Y70.651 E18.49044
G1 X22.556 Y70.112 E18.5183
G1 X22.656 Y69.418 E18.55452
G1 X22.82 Y68.859 E18.58462
G1 X23.147 Y68.139 E18.62547
G1 X23.566 Y67.544 E18.66307
G1 X23.895 Y67.164 E18.68904
G1 X24.315 Y66.816 E18.71722
G1 X24.981 Y66.386 E18.75818
G0 F378 X25.564 Y66.01
G1 F2400 E14.25818
;MESH:Goproskin (2).stl(2)
G0 F1400 X26.836 Y68.173
G0 X27.441 Y69.198
G0 X69.613 Y44.791
;TYPE:WALL-INNER
G1 F2400 E18.75818
G1 F420 X26.992 Y69.9 E21.31388
G1 X26.741 Y70.048 E21.32893
G1 X26.978 Y69.877 E21.32952
G1 X69.599 Y44.769 E21.51934
G1 X69.702 Y44.708 E21.52553
G1 X69.809 Y44.649 E21.53184
G1 X69.954 Y44.568 E21.54042
G1 X70.126 Y44.528 E21.54954
G1 X70.291 Y44.537 E21.55808
G1 X70.43 Y44.591 E21.56578
G1 X84.023 Y67.665 E22.94937
G1 X83.38 Y68.043 E22.9879
G1 X82.469 Y68.58 E23.04254
G1 X40.587 Y93.255 E25.55396
G1 X40.358 Y93.376 E25.56734
G1 X40.329 Y93.378 E25.56884
G1 X40.351 Y93.365
G1 X40.574 Y93.234 E25.56957
G1 X82.456 Y68.559 E25.74183
G1 X83.326 Y67.953 E25.75193
G1 X70.291 Y45.826 E27.07873
G1 X69.68 Y44.893 E27.13635
G1 X69.613 Y44.791 E27.14022
G0 F1400 X70.536 Y44.357
G0 X70.582 Y44.269
G1 F420 X70.697 Y44.354 E27.14761
G1 X84.503 Y67.789 E28.55285
G1 X40.765 Y93.557 E31.17555
G1 X40.451 Y93.723 E31.1939
G1 X40.227 Y93.733 E31.20549
G1 X39.999 Y93.676 E31.21763
G1 X39.879 Y93.6 E31.22497
G1 X26.237 Y70.444 E32.61349
G1 X26.246 Y70.241 E32.62399
G1 X26.336 Y70.005 E32.63704
G1 X26.493 Y69.795 E32.65058
G1 X26.795 Y69.578 E32.66979
G1 X27.209 Y69.334 E32.69462
G1 X69.524 Y44.406 E35.23195
G1 X69.827 Y44.238 E35.24985
G1 X69.906 Y44.219 E35.25405
G0 F378 X70.094 Y44.176
G0 X70.361 Y44.191
G0 X70.582 Y44.269
G0 F1400 X70.536 Y44.357
G0 X26.661 Y70.42
G0 X26.757 Y70.445
G1 F420 X26.845 Y70.595 E35.26303
G1 X39.724 Y92.457 E36.57394
G1 X40.155 Y93.074 E36.61283
G1 X82.267 Y68.264 E39.13803
G1 X82.86 Y67.851 E39.17536
G1 X69.994 Y46.011 E40.48495
G1 X69.503 Y45.262 E40.53122
G1 X27.255 Y70.152 E43.06457
G1 X26.908 Y70.357 E43.08539
G1 X26.907 Y70.358 E43.08547
G1 X26.757 Y70.445 E43.09124
G0 F1400 X27.202 Y70.56
;TYPE:WALL-OUTER
G1 F420 X39.998 Y92.281 E44.3937
G1 X40.249 Y92.641 E44.41637
G1 X82.091 Y67.99 E46.92538
G1 X82.427 Y67.756 E46.94654
G1 X69.718 Y46.183 E48.24012
G1 X69.401 Y45.699 E48.27001
G1 X27.8 Y70.208 E50.76457
G0 F378 X27.42 Y70.432
G0 X27.202 Y70.56
G0 F1400 X27.303 Y70.732
G0 X26.937 Y70.946
G0 X70.536 Y44.357
G0 X70.736 Y43.979
G1 F420 X70.944 Y44.133 E50.77794
G1 X84.948 Y67.904 E52.20333
G1 X40.928 Y93.838 E54.84294
G1 X40.537 Y94.045 E54.8658
G1 X40.196 Y94.06 E54.88343
G1 X39.868 Y93.978 E54.9009
G1 X39.639 Y93.832 E54.91493
G1 X25.943 Y70.585 E56.30892
G1 X25.907 Y70.49 E56.31416
G1 X25.925 Y70.171 E56.33067
G1 X26.048 Y69.847 E56.34858
G1 X26.263 Y69.56 E56.3671
G1 X26.615 Y69.307 E56.3895
G1 X27.044 Y69.054 E56.41523
G1 X69.366 Y44.122 E58.95298
G1 X69.71 Y43.931 E58.97331
G1 X70.062 Y43.85 E58.99197
G0 F378 X70.066 Y43.849
G0 X70.422 Y43.868
G0 X70.736 Y43.979
G0 F1400 X70.897 Y44.098
G0 X70.623 Y44.42
G0 X70.201 Y44.873
;TYPE:SKIN
G1 F420 X83.557 Y67.544 E60.3514
G1 X83.499 Y67.578 E60.35487
G1 X70.58 Y45.647 E61.6699
G1 X70.396 Y45.366 E61.68725
G0 F378 X70.082 Y44.887
G0 X70.153 Y44.87
G0 X70.201 Y44.873
G0 F1400 X26.674 Y70.231
G0 X26.589 Y70.147
;TYPE:SKIN
G1 F420 X26.493 Y70.299 E61.69006
G1 X26.649 Y70.702 E61.69682
G1 X30.907 Y77.93 E61.82805
G1 X35.165 Y85.158 E61.95927
G1 X39.351 Y92.262 E62.08825
G0 F378 X39.423 Y92.385
G0 X39.899 Y93.109
G0 X40.014 Y93.471
G0 F1400 X40.081 Y93.415
;MESH:NONMESH
G0 F600 X40.081 Y93.415 Z0.438
G0 F1400 X82.288 Y68.297
G0 X82.899 Y67.859
G0 X69.663 Y44.761
;TIME_ELAPSED:227.884639
;LAYER:1
M140 S60
M106 S255
;TYPE:WALL-INNER
;MESH:Goproskin (2).stl(2)
G1 F570 X69.566 Y44.818 E62.09212
G1 X68.184 Y45.633 E62.14727
G1 X27.006 Y69.892 E63.79026
G1 X26.739 Y70.05 E63.80092
G1 X26.992 Y69.869 E63.80135
G1 X68.171 Y45.612 E63.91871
G1 X69.553 Y44.797 E63.94818
G1 X69.65 Y44.74 E63.95025
G1 X69.769 Y44.669 E63.95501
G1 X69.872 Y44.621 E63.95892
G1 X70.026 Y44.547 E63.96479
G1 X70.183 Y44.526 E63.97023
G1 X70.334 Y44.548 E63.97548
G1 X70.434 Y44.596 E63.97929
G1 X70.635 Y44.938 E63.99293
G1 X83.937 Y67.515 E64.89377
G1 X84.025 Y67.665 E64.89975
G1 X83.875 Y67.753 E64.90361
G1 X83.368 Y68.052 E64.92384
G1 X82.756 Y68.412 E64.94825
G1 X40.602 Y93.248 E66.63021
G1 X40.358 Y93.376 E66.63969
G1 X40.328 Y93.378 E66.64072
G1 X40.351 Y93.365
G1 X40.588 Y93.225 E66.64126
G1 X82.742 Y68.389 E66.76621
G1 X83.137 Y67.799 E66.77961
G1 X83.189 Y67.722 E66.7828
G1 X69.72 Y44.859 E67.69502
G1 X69.719 Y44.858 E67.69507
G1 X69.663 Y44.761 E67.69756
G0 F1900 X70.851 Y44.811
G0 X70.937 Y44.761
G1 F570 X84.504 Y67.789 E68.61638
G1 X84.298 Y67.91 E68.62459
G1 X40.765 Y93.558 E70.36157
G1 X40.452 Y93.723 E70.37373
G1 X40.226 Y93.733 E70.38151
G1 X39.99 Y93.674 E70.38987
G1 X39.888 Y93.614 E70.39394
G1 X39.609 Y93.141 E70.41282
G1 X26.303 Y70.555 E71.31399
G1 X26.236 Y70.417 E71.31926
G1 X26.246 Y70.24 E71.32536
G1 X26.336 Y70.004 E71.33404
G1 X26.491 Y69.796 E71.34296
G1 X26.807 Y69.571 E71.35629
G1 X69.597 Y44.363 E73.06359
G1 X69.926 Y44.207 E73.0761
G1 X70.17 Y44.174 E73.08457
G0 F513 X70.184 Y44.172
G0 X70.439 Y44.21
G0 X70.657 Y44.314
G0 X70.691 Y44.342
G0 X70.937 Y44.761
G0 F1900 X70.851 Y44.811
G0 X82.815 Y67.711
G0 X40.08 Y93.199
G0 X40.105 Y93.103
G1 F570 X40.255 Y93.015 E73.09055
G1 X82.496 Y68.128 E74.77598
G1 X82.776 Y67.71 E74.79327
G1 X69.627 Y45.39 E75.68383
G1 X69.539 Y45.24 E75.68981
G1 X69.389 Y45.328 E75.69367
G1 X68.362 Y45.934 E75.73466
G1 X26.757 Y70.445 E77.39469
G1 X39.767 Y92.529 E78.27583
G1 X40.017 Y92.953 E78.29275
G1 X40.105 Y93.103 E78.29662
G0 F1900 X40.22 Y92.658
;TYPE:WALL-OUTER
G1 F570 X40.223 Y92.656 E78.29674
G1 X82.267 Y67.886 E79.97429
G1 X82.392 Y67.699 E79.98203
G1 X69.512 Y45.835 E80.85438
G1 X69.424 Y45.685 E80.86036
G1 X69.274 Y45.773 E80.86422
G1 X68.527 Y46.214 E80.89404
G1 X27.202 Y70.56 E82.5429
G1 X39.691 Y91.76 E83.38876
G0 F513 X40.045 Y92.361
G0 X40.047 Y92.364
G0 X40.22 Y92.658
G0 F1900 X40.223 Y92.656
G0 X40.392 Y92.557
G0 X40.606 Y92.923
G0 X84.408 Y67.764
G0 X84.799 Y67.991
G1 F570 X84.798 Y67.992 E83.38881
G1 X84.463 Y68.19 E83.40219
G1 X40.928 Y93.839 E85.13925
G1 X40.538 Y94.045 E85.15441
G1 X40.196 Y94.06 E85.16618
G1 X39.862 Y93.977 E85.17801
G1 X39.651 Y93.852 E85.18644
G1 X39.329 Y93.306 E85.20823
G1 X26.018 Y70.712 E86.10973
G1 X25.907 Y70.483 E86.11848
G1 X25.925 Y70.17 E86.12925
G1 X26.048 Y69.846 E86.14117
G1 X26.262 Y69.56 E86.15345
G1 X26.625 Y69.301 E86.16878
G1 X69.447 Y44.074 E87.87735
G1 X69.832 Y43.892 E87.89199
G1 X70.187 Y43.844 E87.9043
G1 X70.533 Y43.895 E87.91633
G1 X70.835 Y44.039 E87.92783
G1 X70.942 Y44.128 E87.93261
G1 X71.217 Y44.596 E87.95127
G1 X84.861 Y67.754 E88.87529
G1 X84.949 Y67.904 E88.88127
G1 X84.799 Y67.991 E88.88511
G0 F1900 X84.798 Y67.992
G0 X84.627 Y68.093
G0 X84.413 Y67.727
G0 X83.559 Y67.545
;TYPE:SKIN
G1 F570 X83.5 Y67.579 E88.88745
G1 X70.126 Y44.876 E89.79327
G1 X70.182 Y44.869 E89.79521
G1 X70.201 Y44.872 E89.79588
G1 X83.031 Y66.648 E90.66475
G0 F513 X83.559 Y67.545
G0 F1900 X40.187 Y93.455
G0 X40.151 Y93.491
;TYPE:SKIN
G1 F570 X40.025 Y93.369 E90.66653
G1 X38.727 Y91.202 E90.6921
G1 X36.433 Y87.309 E90.73784
G1 X34.14 Y83.416 E90.78358
G1 X31.938 Y79.678 E90.82751
G1 X29.644 Y75.785 E90.87325
G1 X27.442 Y72.047 E90.91717
G1 X27.408 Y71.99 E90.91784
G0 F513 X26.524 Y70.49
G0 X26.514 Y70.252
G0 F1900 X26.617 Y70.122
;MESH:NONMESH
G0 F600 X26.617 Y70.122 Z0.613
G0 F1900 X69.663 Y44.76
;TIME_ELAPSED:335.936741
;LAYER:2
;TYPE:WALL-INNER
;MESH:Goproskin (2).stl(2)
G1 F720 X69.513 Y44.848 E90.92382
G1 X67.822 Y45.845 E90.99131
G1 X27.008 Y69.89 E92.61978
G1 X26.741 Y70.048 E92.63044
G1 X26.994 Y69.868 E92.63084
G1 X67.809 Y45.824 E92.74716
G1 X69.5 Y44.827 E92.78323
G1 X69.65 Y44.739 E92.78641
G1 X69.682 Y44.72 E92.78769
G1 X69.955 Y44.568 E92.79843
G1 X70.126 Y44.528 E92.80447
G1 X70.291 Y44.537 E92.81015
G1 X70.412 Y44.58 E92.81456
G1 X70.431 Y44.594 E92.81537
G1 X70.635 Y44.94 E92.82918
G1 X84.003 Y67.631 E93.73455
G1 X84.023 Y67.666 E93.73593
G1 X83.792 Y67.802 E93.74515
G1 X83.757 Y67.822 E93.74653
G1 X83.406 Y68.029 E93.76054
G1 X83.378 Y68.045 E93.76165
G1 X82.681 Y68.456 E93.78947
G1 X40.612 Y93.242 E95.46804
G1 X40.356 Y93.376 E95.47797
G1 X40.328 Y93.378 E95.47894
G1 X40.349 Y93.366
G1 X40.598 Y93.219 E95.47951
G1 X82.667 Y68.434 E95.6042
G1 X83.233 Y67.8 E95.61771
G1 X83.217 Y67.772 E95.61882
G1 X82.491 Y66.536 E95.6681
G1 X69.751 Y44.91 E96.53096
G1 X69.663 Y44.76 E96.53482
G0 F2400 X84.304 Y67.792
G0 X84.353 Y67.878
G1 F720 X83.969 Y68.104 E96.55014
G1 X40.775 Y93.552 E98.27358
G1 X40.45 Y93.723 E98.28621
G1 X40.226 Y93.733 E98.29392
G1 X39.99 Y93.674 E98.30228
G1 X39.888 Y93.614 E98.30635
G1 X26.359 Y70.65 E99.22261
G1 X26.236 Y70.41 E99.23188
G1 X26.246 Y70.242 E99.23767
G1 X26.337 Y70.004 E99.24643
G1 X26.492 Y69.796 E99.25534
G1 X26.809 Y69.57 E99.26873
G1 X69.504 Y44.418 E100.97223
G1 X69.828 Y44.238 E100.98497
G1 X70.094 Y44.176 E100.99436
G1 X70.361 Y44.191 E101.00355
G1 X70.58 Y44.268 E101.01153
G1 X70.698 Y44.356 E101.01659
G1 X70.937 Y44.762 E101.03279
G1 X84.415 Y67.64 E101.94561
G1 X84.503 Y67.79 E101.95159
G1 X84.353 Y67.878 E101.95545
G0 F2400 X84.304 Y67.792
G0 X40.08 Y93.199
G0 X40.105 Y93.103
G1 F720 X40.255 Y93.015 E101.96143
G1 X82.442 Y68.16 E103.6447
G1 X82.802 Y67.757 E103.66328
G1 X82.189 Y66.713 E103.7049
G1 X69.627 Y45.39 E104.55568
G1 X69.539 Y45.24 E104.56166
G1 X69.389 Y45.328 E104.56552
G1 X68 Y46.147 E104.62096
G1 X26.757 Y70.445 E106.26655
G1 X40.017 Y92.953 E107.16461
G1 X40.105 Y93.103 E107.16847
G0 F2400 X40.22 Y92.658
;TYPE:WALL-OUTER
G1 F720 X40.37 Y92.57 E107.17445
G1 X82.233 Y67.906 E108.84479
G1 X82.402 Y67.717 E108.85351
G1 X81.909 Y66.878 E108.88696
G1 X69.512 Y45.835 E109.72657
G1 X69.424 Y45.685 E109.73255
G1 X69.274 Y45.773 E109.73641
G1 X68.165 Y46.427 E109.78067
G1 X27.202 Y70.56 E111.41509
G1 X40.132 Y92.508 E112.2908
G1 X40.22 Y92.658 E112.29467
G0 F2400 X40.37 Y92.57
G0 X40.393 Y92.557
G0 X40.607 Y92.923
G0 X84.407 Y67.765
G0 X84.798 Y67.993
G1 F720 X84.134 Y68.384 E112.32116
G1 X40.927 Y93.84 E114.04513
G1 X40.538 Y94.045 E114.06024
G1 X40.196 Y94.06 E114.07201
G1 X39.862 Y93.977 E114.08384
G1 X39.651 Y93.852 E114.09227
G1 X26.079 Y70.815 E115.01145
G1 X25.907 Y70.48 E115.02439
G1 X25.925 Y70.17 E115.03507
G1 X26.049 Y69.846 E115.04699
G1 X26.262 Y69.56 E115.05925
G1 X26.627 Y69.3 E115.07466
G1 X69.346 Y44.134 E116.77912
G1 X69.711 Y43.931 E116.79347
G1 X70.066 Y43.849 E116.806
G1 X70.423 Y43.868 E116.81829
G1 X70.736 Y43.979 E116.82971
G1 X70.944 Y44.134 E116.83862
G1 X71.217 Y44.597 E116.8571
G1 X84.86 Y67.755 E117.7811
G1 X84.948 Y67.905 E117.78708
G1 X84.798 Y67.993 E117.79094
G0 F2400 X84.626 Y68.094
G0 X84.412 Y67.728
G0 X83.557 Y67.545
;TYPE:SKIN
G1 F720 X83.497 Y67.58 E117.79333
G1 X82.784 Y66.364 E117.84179
G1 X70.126 Y44.877 E118.6991
G1 X70.154 Y44.87 E118.70009
G1 X70.201 Y44.873 E118.70171
G1 X83.029 Y66.648 E119.57052
G0 F648 X83.557 Y67.545
G0 F2400 X40.161 Y93.371
G0 X40.129 Y93.338
;TYPE:SKIN
G1 F720 X40.022 Y93.479 E119.57234
G1 X39.782 Y92.991 E119.57794
G1 X35.523 Y85.763 E119.66423
G1 X31.262 Y78.533 E119.75055
G1 X27.351 Y71.895 E119.8298
G0 F648 X27.003 Y71.304
G0 X26.649 Y70.701
G0 X26.493 Y70.299
G0 X26.588 Y70.146
G0 F2400 X26.657 Y70.16
;MESH:NONMESH
G0 F600 X26.657 Y70.16 Z0.788
G0 F2400 X69.549 Y45.202
G0 X83.366 Y68.022
;TIME_ELAPSED:422.322423
;LAYER:3
;TYPE:WALL-INNER
;MESH:Goproskin (2).stl(2)
G1 F720 X83.303 Y67.915 E119.83407
G1 X69.746 Y44.903 E120.75224
G1 X69.663 Y44.761 E120.7579
G1 X69.599 Y44.798 E120.76044
G1 X67.459 Y46.059 E120.84583
G1 X26.996 Y69.898 E122.46031
G1 X26.74 Y70.049 E122.47052
G1 X26.981 Y69.875 E122.47093
G1 X67.446 Y46.038 E122.58861
G1 X69.586 Y44.777 E122.59443
G1 X69.651 Y44.741 E122.59462
G1 X69.794 Y44.66 E122.59839
G1 X69.956 Y44.567 E122.60481
G1 X70.126 Y44.528 E122.61081
G1 X70.291 Y44.537 E122.61649
G1 X70.412 Y44.58 E122.6209
G1 X70.432 Y44.594 E122.62174
G1 X70.636 Y44.94 E122.63555
G1 X84.024 Y67.665 E123.54227
G1 X83.569 Y67.934 E123.56044
G1 X83.462 Y67.997 E123.56471
G1 X83.38 Y68.045 E123.56798
G1 X40.595 Y93.252 E125.2751
G1 X40.358 Y93.376 E125.2843
G1 X40.328 Y93.378 E125.28533
G1 X40.351 Y93.365
G1 X40.581 Y93.229 E125.28588
G1 X83.366 Y68.022 E125.41269
G0 F2400 X70.533 Y44.356
G0 X70.58 Y44.268
G1 F720 X70.697 Y44.356 E125.41772
G1 X70.937 Y44.762 E125.43394
G1 X84.503 Y67.789 E126.35271
